hansonl02/frc-robot-code/161/joystick_status_throttle.csv
timestamp,button1,button2,button3,button4,button5,button6,button7,button8,button9,button10,button11,button12,button13,axis1,axis2,axis3,axis4,axis5,axis6,queue_index
746,0,0,0,0,0,0,0,0,0,0,0,0,0,-0.0234375,-1,0,0,0,0,0

763,0,0,0,0,0,0,0,0,0,0,0,0,0,-0.0234375,-1,0,0,0,0,1

783,0,0,0,0,0,0,0,0,0,0,0,0,0,-0.0234375,-1,0,0,0,0,2

803,0,0,0,0,0,0,0,0,0,0,0,0,0,-0.0234375,-1,0,0,0,0,3

843,0,0,0,0,0,0,0,0,0,0,0,0,0,-0.0234375,-1,0,0,0,0,4

863,0,0,0,0,0,0,0,0,0,0,0,0,0,-0.0234375,-1,0,0,0,0,5

883,0,0,0,0,0,0,0,0,0,0,0,0,0,-0.0234375,-1,0,0,0,0,6

903,0,0,0,0,0,0,0,0,0,0,0,0,0,-0.0234375,-1,0,0,0,0,7

923,0,0,0,0,0,0,0,0,0,0,0,0,0,-0.0234375,-1,0,0,0,0,8

943,0,0,0,0,0,0,0,0,0,0,0,0,0,-0.0234375,-1,0,0,0,0,9

963,0,0,0,0,0,0,0,0,0,0,0,0,0,-0.0234375,-1,0,0,0,0,10

983,0,0,0,0,0,0,0,0,0,0,0,0,0,-0.0234375,-1,0,0,0,0,11

1003,0,0,0,0,0,0,0,0,0,0,0,0,0,-0.0234375,-1,0,0,0,0,12

1023,0,0,0,0,0,0,0,0,0,0,0,0,0,-0.0234375,-1,0,0,0,0,13

1043,0,0,0,0,0,0,0,0,0,0,0,0,0,-0.0234375,-1,0,0,0,0,14

1063,0,0,0,0,0,0,0,0,0,0,0,0,0,-0.0234375,-1,0,0,0,0,15

1083,0,0,0,0,0,0,0,0,0,0,0,0,0,-0.0234375,-1,0,0,0,0,16

1103,0,0,0,0,0,0,0,0,0,0,0,0,0,-0.0234375,-1,0,0,0,0,17

1123,0,0,0,0,0,0,0,0,0,0,0,0,0,-0.0234375,-1,0,0,0,0,18

1143,0,0,0,0,0,0,0,0,0,0,0,0,0,-0.0234375,-1,0,0,0,0,19

1163,0,0,0,0,0,0,0,0,0,0,0,0,0,-0.0234375,-1,0,0,0,0,20

1183,0,0,0,0,0,0,0,0,0,0,0,0,0,-0.0234375,-1,0,0,0,0,21

1203,0,0,0,0,0,0,0,0,0,0,0,0,0,-0.0234375,-1,0,0,0,0,22

1223,0,0,0,0,0,0,0,0,0,0,0,0,0,-0.0234375,-1,0,0,0,0,23

1243,0,0,0,0,0,0,0,0,0,0,0,0,0,-0.0234375,-1,0,0,0,0,24

1263,0,0,0,0,0,0,0,0,0,0,0,0,0,-0.0234375,-1,0,0,0,0,25

1283,0,0,0,0,0,0,0,0,0,0,0,0,0,-0.0234375,-1,0,0,0,0,26

1303,0,0,0,0,0,0,0,0,0,0,0,0,0,-0.0234375,-1,0,0,0,0,27

1323,0,0,0,0,0,0,0,0,0,0,0,0,0,-0.0234375,-1,0,0,0,0,28

1343,0,0,0,0,0,0,0,0,0,0,0,0,0,-0.0234375,-1,0,0,0,0,29

1363,0,0,0,0,0,0,0,0,0,0,0,0,0,-0.0234375,-1,0,0,0,0,30

1383,0,0,0,0,0,0,0,0,0,0,0,0,0,-0.0234375,-1,0,0,0,0,31

1403,0,0,0,0,0,0,0,0,0,0,0,0,0,-0.0234375,-1,0,0,0,0,32

1423,0,0,0,0,0,0,0,0,0,0,0,0,0,-0.0234375,-1,0,0,0,0,33

1443,0,0,0,0,0,0,0,0,0,0,0,0,0,-0.0234375,-1,0,0,0,0,34

1463,0,0,0,0,0,0,0,0,0,0,0,0,0,-0.0234375,-1,0,0,0,0,35

1483,0,0,0,0,0,0,0,0,0,0,0,0,0,-0.0234375,-1,0,0,0,0,36

1503,0,0,0,0,0,0,0,0,0,0,0,0,0,-0.0234375,-1,0,0,0,0,37

1523,0,0,0,0,0,0,0,0,0,0,0,0,0,-0.0234375,-1,0,0,0,0,38

1543,0,0,0,0,0,0,0,0,0,0,0,0,0,-0.0234375,-1,0,0,0,0,39

1563,0,0,0,0,0,0,0,0,0,0,0,0,0,-0.0234375,-1,0,0,0,0,40

1583,0,0,0,0,0,0,0,0,0,0,0,0,0,-0.0234375,-1,0,0,0,0,41

1603,0,0,0,0,0,0,0,0,0,0,0,0,0,-0.0234375,-1,0,0,0,0,42

1623,0,0,0,0,0,0,0,0,0,0,0,0,0,-0.0234375,-1,0,0,0,0,43

1643,0,0,0,0,0,0,0,0,0,0,0,0,0,-0.0234375,-1,0,0,0,0,44

1663,0,0,0,0,0,0,0,0,0,0,0,0,0,-0.0234375,-1,0,0,0,0,45

1683,0,0,0,0,0,0,0,0,0,0,0,0,0,-0.0234375,-1,0,0,0,0,46

1703,0,0,0,0,0,0,0,0,0,0,0,0,0,-0.0234375,-1,0,0,0,0,47

1723,0,0,0,0,0,0,0,0,0,0,0,0,0,-0.0234375,-1,0,0,0,0,48

1743,0,0,0,0,0,0,0,0,0,0,0,0,0,-0.0234375,-1,0,0,0,0,49

1763,0,0,0,0,0,0,0,0,0,0,0,0,0,-0.0234375,-1,0,0,0,0,50

1783,0,0,0,0,0,0,0,0,0,0,0,0,0,-0.0234375,-1,0,0,0,0,51

1803,0,0,0,0,0,0,0,0,0,0,0,0,0,-0.0234375,-1,0,0,0,0,52

1823,0,0,0,0,0,0,0,0,0,0,0,0,0,-0.0234375,-1,0,0,0,0,53

1843,0,0,0,0,0,0,0,0,0,0,0,0,0,-0.0234375,-1,0,0,0,0,54

1863,0,0,0,0,0,0,0,0,0,0,0,0,0,-0.0234375,-1,0,0,0,0,55

1883,0,0,0,0,0,0,0,0,0,0,0,0,0,-0.0234375,-1,0,0,0,0,56

1903,0,0,0,0,0,0,0,0,0,0,0,0,0,-0.0234375,-1,0,0,0,0,57

1923,0,0,0,0,0,0,0,0,0,0,0,0,0,-0.0234375,-1,0,0,0,0,58

1943,0,0,0,0,0,0,0,0,0,0,0,0,0,-0.0234375,-1,0,0,0,0,59

1963,0,0,0,0,0,0,0,0,0,0,0,0,0,-0.0234375,-1,0,0,0,0,60

1983,0,0,0,0,0,0,0,0,0,0,0,0,0,-0.0234375,-1,0,0,0,0,61

2003,0,0,0,0,0,0,0,0,0,0,0,0,0,-0.0234375,-1,0,0,0,0,62

2023,0,0,0,0,0,0,0,0,0,0,0,0,0,-0.0234375,-1,0,0,0,0,63

2043,0,0,0,0,0,0,0,0,0,0,0,0,0,-0.0234375,-1,0,0,0,0,64

2063,0,0,0,0,0,0,0,0,0,0,0,0,0,-0.0234375,-1,0,0,0,0,65

2083,0,0,0,0,0,0,0,0,0,0,0,0,0,-0.0234375,-1,0,0,0,0,66

2103,0,0,0,0,0,0,0,0,0,0,0,0,0,-0.0234375,-1,0,0,0,0,67

2123,0,0,0,0,0,0,0,0,0,0,0,0,0,-0.0234375,-1,0,0,0,0,68

2143,0,0,0,0,0,0,0,0,0,0,0,0,0,-0.0234375,-1,0,0,0,0,69

2163,0,0,0,0,0,0,0,0,0,0,0,0,0,-0.0234375,-1,0,0,0,0,70

2183,0,0,0,0,0,0,0,0,0,0,0,0,0,-0.0234375,-1,0,0,0,0,71

2203,0,0,0,0,0,0,0,0,0,0,0,0,0,-0.0234375,-1,0,0,0,0,72

2223,0,0,0,0,0,0,0,0,0,0,0,0,0,-0.0234375,-1,0,0,0,0,73

2243,0,0,0,0,0,0,0,0,0,0,0,0,0,-0.0234375,-1,0,0,0,0,74

2263,0,0,0,0,0,0,0,0,0,0,0,0,0,-0.0234375,-1,0,0,0,0,75

2283,0,0,0,0,0,0,0,0,0,0,0,0,0,-0.0234375,-1,0,0,0,0,76

2303,0,0,0,0,0,0,0,0,0,0,0,0,0,-0.0234375,-1,0,0,0,0,77

2323,0,0,0,0,0,0,0,0,0,0,0,0,0,-0.0234375,-1,0,0,0,0,78

2343,0,0,0,0,0,0,0,0,0,0,0,0,0,-0.0234375,-1,0,0,0,0,79

2363,0,0,0,0,0,0,0,0,0,0,0,0,0,-0.0234375,-1,0,0,0,0,80

2383,0,0,0,0,0,0,0,0,0,0,0,0,0,-0.0234375,-1,0,0,0,0,81

2403,0,0,0,0,0,0,0,0,0,0,0,0,0,-0.0234375,-1,0,0,0,0,82

2423,0,0,0,0,0,0,0,0,0,0,0,0,0,-0.0234375,-1,0,0,0,0,83

2463,0,0,0,0,0,0,0,0,0,0,0,0,0,-0.0234375,-1,0,0,0,0,84

2483,0,0,0,0,0,0,0,0,0,0,0,0,0,-0.0234375,-1,0,0,0,0,85

2503,0,0,0,0,0,0,0,0,0,0,0,0,0,-0.0234375,-1,0,0,0,0,86

2523,0,0,0,0,0,0,0,0,0,0,0,0,0,-0.0234375,-1,0,0,0,0,87

2543,0,0,0,0,0,0,0,0,0,0,0,0,0,-0.0234375,-1,0,0,0,0,88

2563,0,0,0,0,0,0,0,0,0,0,0,0,0,-0.0234375,-1,0,0,0,0,89

2583,0,0,0,0,0,0,0,0,0,0,0,0,0,-0.0234375,-1,0,0,0,0,90

2603,0,0,0,0,0,0,0,0,0,0,0,0,0,-0.0234375,-1,0,0,0,0,91

2623,0,0,0,0,0,0,0,0,0,0,0,0,0,-0.0234375,-1,0,0,0,0,92

2643,0,0,0,0,0,0,0,0,0,0,0,0,0,-0.0234375,-1,0,0,0,0,93

2663,0,0,0,0,0,0,0,0,0,0,0,0,0,-0.0234375,-1,0,0,0,0,94

2683,0,0,0,0,0,0,0,0,0,0,0,0,0,-0.0234375,-1,0,0,0,0,95

2703,0,0,0,0,0,0,0,0,0,0,0,0,0,-0.0234375,-1,0,0,0,0,96

2723,0,0,0,0,0,0,0,0,0,0,0,0,0,-0.0234375,-1,0,0,0,0,97

2743,0,0,0,0,0,0,0,0,0,0,0,0,0,-0.0234375,-1,0,0,0,0,98

2763,0,0,0,0,0,0,0,0,0,0,0,0,0,-0.0234375,-1,0,0,0,0,99

2783,0,0,0,0,0,0,0,0,0,0,0,0,0,-0.0234375,-1,0,0,0,0,100

2803,0,0,0,0,0,0,0,0,0,0,0,0,0,-0.0234375,-1,0,0,0,0,101

2823,0,0,0,0,0,0,0,0,0,0,0,0,0,-0.0234375,-1,0,0,0,0,102

2843,0,0,0,0,0,0,0,0,0,0,0,0,0,-0.0234375,-1,0,0,0,0,103

2863,0,0,0,0,0,0,0,0,0,0,0,0,0,-0.0234375,-1,0,0,0,0,104

2883,0,0,0,0,0,0,0,0,0,0,0,0,0,-0.0234375,-1,0,0,0,0,105

2903,0,0,0,0,0,0,0,0,0,0,0,0,0,-0.0234375,-1,0,0,0,0,106

2923,0,0,0,0,0,0,0,0,0,0,0,0,0,-0.0234375,-1,0,0,0,0,107

2943,0,0,0,0,0,0,0,0,0,0,0,0,0,-0.0234375,-1,0,0,0,0,108

2963,0,0,0,0,0,0,0,0,0,0,0,0,0,-0.0234375,-1,0,0,0,0,109

2983,0,0,0,0,0,0,0,0,0,0,0,0,0,-0.0234375,-1,0,0,0,0,110

3003,0,0,0,0,0,0,0,0,0,0,0,0,0,-0.0234375,-1,0,0,0,0,111

3023,0,0,0,0,0,0,0,0,0,0,0,0,0,-0.0234375,-1,0,0,0,0,112

3043,0,0,0,0,0,0,0,0,0,0,0,0,0,-0.0234375,-1,0,0,0,0,113

3063,0,0,0,0,0,0,0,0,0,0,0,0,0,-0.0234375,-1,0,0,0,0,114

3083,0,0,0,0,0,0,0,0,0,0,0,0,0,-0.0234375,-1,0,0,0,0,115

3103,0,0,0,0,0,0,0,0,0,0,0,0,0,-0.0234375,-1,0,0,0,0,116

3123,0,0,0,0,0,0,0,0,0,0,0,0,0,-0.0234375,-1,0,0,0,0,117

3143,0,0,0,0,0,0,0,0,0,0,0,0,0,-0.0234375,-1,0,0,0,0,118

3163,0,0,0,0,0,0,0,0,0,0,0,0,0,-0.0234375,-1,0,0,0,0,119

3183,0,0,0,0,0,0,0,0,0,0,0,0,0,-0.0234375,-1,0,0,0,0,120

3203,0,0,0,0,0,0,0,0,0,0,0,0,0,-0.0234375,-1,0,0,0,0,121

3223,0,0,0,0,0,0,0,0,0,0,0,0,0,-0.0234375,-1,0,0,0,0,122

3243,0,0,0,0,0,0,0,0,0,0,0,0,0,-0.0234375,-1,0,0,0,0,123

3263,0,0,0,0,0,0,0,0,0,0,0,0,0,-0.0234375,-1,0,0,0,0,124

3283,0,0,0,0,0,0,0,0,0,0,0,0,0,-0.0234375,-1,0,0,0,0,125

3303,0,0,0,0,0,0,0,0,0,0,0,0,0,-0.0234375,-1,0,0,0,0,126

3323,0,0,0,0,0,0,0,0,0,0,0,0,0,-0.0234375,-1,0,0,0,0,127

3343,0,0,0,0,0,0,0,0,0,0,0,0,0,-0.0234375,-1,0,0,0,0,128

3363,0,0,0,0,0,0,0,0,0,0,0,0,0,-0.0234375,-1,0,0,0,0,129

3383,0,0,0,0,0,0,0,0,0,0,0,0,0,-0.0234375,-1,0,0,0,0,130

3403,0,0,0,0,0,0,0,0,0,0,0,0,0,-0.0234375,-1,0,0,0,0,131

3423,0,0,0,0,0,0,0,0,0,0,0,0,0,-0.0234375,-1,0,0,0,0,132

3443,0,0,0,0,0,0,0,0,0,0,0,0,0,-0.0234375,-1,0,0,0,0,133

3463,0,0,0,0,0,0,0,0,0,0,0,0,0,-0.0234375,-1,0,0,0,0,134

3483,0,0,0,0,0,0,0,0,0,0,0,0,0,-0.0234375,-1,0,0,0,0,135

3503,0,0,0,0,0,0,0,0,0,0,0,0,0,-0.0234375,-1,0,0,0,0,136

3523,0,0,0,0,0,0,0,0,0,0,0,0,0,-0.0234375,-1,0,0,0,0,137

3543,0,0,0,0,0,0,0,0,0,0,0,0,0,-0.0234375,-1,0,0,0,0,138

3563,0,0,0,0,0,0,0,0,0,0,0,0,0,-0.0234375,-1,0,0,0,0,139

3583,0,0,0,0,0,0,0,0,0,0,0,0,0,-0.0234375,-1,0,0,0,0,140

3603,0,0,0,0,0,0,0,0,0,0,0,0,0,-0.0234375,-1,0,0,0,0,141

3623,0,0,0,0,0,0,0,0,0,0,0,0,0,-0.0234375,-1,0,0,0,0,142

3643,0,0,0,0,0,0,0,0,0,0,0,0,0,-0.0234375,-1,0,0,0,0,143

3663,0,0,0,0,0,0,0,0,0,0,0,0,0,-0.0234375,-1,0,0,0,0,144

3683,0,0,0,0,0,0,0,0,0,0,0,0,0,-0.0234375,-1,0,0,0,0,145

3703,0,0,0,0,0,0,0,0,0,0,0,0,0,-0.0234375,-1,0,0,0,0,146

3723,0,0,0,0,0,0,0,0,0,0,0,0,0,-0.0234375,-1,0,0,0,0,147

3743,0,0,0,0,0,0,0,0,0,0,0,0,0,-0.0234375,-1,0,0,0,0,148

3763,0,0,0,0,0,0,0,0,0,0,0,0,0,-0.0234375,-1,0,0,0,0,149

3783,0,0,0,0,0,0,0,0,0,0,0,0,0,-0.0234375,-1,0,0,0,0,150

3803,0,0,0,0,0,0,0,0,0,0,0,0,0,-0.0234375,-1,0,0,0,0,151

3823,0,0,0,0,0,0,0,0,0,0,0,0,0,-0.0234375,-1,0,0,0,0,152

3843,0,0,0,0,0,0,0,0,0,0,0,0,0,-0.0234375,-1,0,0,0,0,153

3863,0,0,0,0,0,0,0,0,0,0,0,0,0,-0.0234375,-1,0,0,0,0,154

3883,0,0,0,0,0,0,0,0,0,0,0,0,0,-0.0234375,-1,0,0,0,0,155

3903,0,0,0,0,0,0,0,0,0,0,0,0,0,-0.0234375,-1,0,0,0,0,156

3923,0,0,0,0,0,0,0,0,0,0,0,0,0,-0.0234375,-1,0,0,0,0,157

3943,0,0,0,0,0,0,0,0,0,0,0,0,0,-0.0234375,-1,0,0,0,0,158

3963,0,0,0,0,0,0,0,0,0,0,0,0,0,-0.0234375,-1,0,0,0,0,159

3983,0,0,0,0,0,0,0,0,0,0,0,0,0,-0.0234375,-1,0,0,0,0,160

4003,0,0,0,0,0,0,0,0,0,0,0,0,0,-0.0234375,-1,0,0,0,0,161

4023,0,0,0,0,0,0,0,0,0,0,0,0,0,-0.0234375,-1,0,0,0,0,162

4043,0,0,0,0,0,0,0,0,0,0,0,0,0,-0.0234375,-1,0,0,0,0,163

4063,0,0,0,0,0,0,0,0,0,0,0,0,0,-0.0234375,-1,0,0,0,0,164

4083,0,0,0,0,0,0,0,0,0,0,0,0,0,-0.0234375,-1,0,0,0,0,165

4103,0,0,0,0,0,0,0,0,0,0,0,0,0,-0.0234375,-1,0,0,0,0,166

4123,0,0,0,0,0,0,0,0,0,0,0,0,0,-0.0234375,-1,0,0,0,0,167

4143,0,0,0,0,0,0,0,0,0,0,0,0,0,-0.0234375,-1,0,0,0,0,168

4163,0,0,0,0,0,0,0,0,0,0,0,0,0,-0.0234375,-1,0,0,0,0,169

4183,0,0,0,0,0,0,0,0,0,0,0,0,0,-0.0234375,-1,0,0,0,0,170

4203,0,0,0,0,0,0,0,0,0,0,0,0,0,-0.0234375,-1,0,0,0,0,171

4223,0,0,0,0,0,0,0,0,0,0,0,0,0,-0.0234375,-1,0,0,0,0,172

4243,0,0,0,0,0,0,0,0,0,0,0,0,0,-0.0234375,-1,0,0,0,0,173

4263,0,0,0,0,0,0,0,0,0,0,0,0,0,-0.0234375,-1,0,0,0,0,174

4283,0,0,0,0,0,0,0,0,0,0,0,0,0,-0.0234375,-1,0,0,0,0,175

4303,0,0,0,0,0,0,0,0,0,0,0,0,0,-0.0234375,-1,0,0,0,0,176

4323,0,0,0,0,0,0,0,0,0,0,0,0,0,-0.0234375,-1,0,0,0,0,177

4343,0,0,0,0,0,0,0,0,0,0,0,0,0,-0.0234375,-1,0,0,0,0,178

4363,0,0,0,0,0,0,0,0,0,0,0,0,0,-0.0234375,-1,0,0,0,0,179

4383,0,0,0,0,0,0,0,0,0,0,0,0,0,-0.0234375,-1,0,0,0,0,180

4403,0,0,0,0,0,0,0,0,0,0,0,0,0,-0.0234375,-1,0,0,0,0,181

4423,0,0,0,0,0,0,0,0,0,0,0,0,0,-0.0234375,-1,0,0,0,0,182

4443,0,0,0,0,0,0,0,0,0,0,0,0,0,-0.0234375,-1,0,0,0,0,183

4463,0,0,0,0,0,0,0,0,0,0,0,0,0,-0.0234375,-1,0,0,0,0,184

4483,0,0,0,0,0,0,0,0,0,0,0,0,0,-0.0234375,-1,0,0,0,0,185

4503,0,0,0,0,0,0,0,0,0,0,0,0,0,-0.0234375,-1,0,0,0,0,186

4523,0,0,0,0,0,0,0,0,0,0,0,0,0,-0.0234375,-1,0,0,0,0,187

4543,0,0,0,0,0,0,0,0,0,0,0,0,0,-0.0234375,-1,0,0,0,0,188

4563,0,0,0,0,0,0,0,0,0,0,0,0,0,-0.0234375,-1,0,0,0,0,189

4583,0,0,0,0,0,0,0,0,0,0,0,0,0,-0.0234375,-1,0,0,0,0,190

4603,0,0,0,0,0,0,0,0,0,0,0,0,0,-0.0234375,-1,0,0,0,0,191

4623,0,0,0,0,0,0,0,0,0,0,0,0,0,-0.0234375,-1,0,0,0,0,192

4643,0,0,0,0,0,0,0,0,0,0,0,0,0,-0.0234375,-1,0,0,0,0,193

4663,0,0,0,0,0,0,0,0,0,0,0,0,0,-0.0234375,-1,0,0,0,0,194

4683,0,0,0,0,0,0,0,0,0,0,0,0,0,-0.0234375,-1,0,0,0,0,195

4703,0,0,0,0,0,0,0,0,0,0,0,0,0,-0.0234375,-1,0,0,0,0,196

4723,0,0,0,0,0,0,0,0,0,0,0,0,0,-0.0234375,-1,0,0,0,0,197

4743,0,0,0,0,0,0,0,0,0,0,0,0,0,-0.0234375,-1,0,0,0,0,198

4763,0,0,0,0,0,0,0,0,0,0,0,0,0,-0.0234375,-1,0,0,0,0,199

4783,0,0,0,0,0,0,0,0,0,0,0,0,0,-0.0234375,-1,0,0,0,0,200

4803,0,0,0,0,0,0,0,0,0,0,0,0,0,-0.0234375,-1,0,0,0,0,201

4823,0,0,0,0,0,0,0,0,0,0,0,0,0,-0.0234375,-1,0,0,0,0,202

4843,0,0,0,0,0,0,0,0,0,0,0,0,0,-0.0234375,-1,0,0,0,0,203

4863,0,0,0,0,0,0,0,0,0,0,0,0,0,-0.0234375,-1,0,0,0,0,204

4883,0,0,0,0,0,0,0,0,0,0,0,0,0,-0.0234375,-1,0,0,0,0,205

4903,0,0,0,0,0,0,0,0,0,0,0,0,0,-0.0234375,-1,0,0,0,0,206

4923,0,0,0,0,0,0,0,0,0,0,0,0,0,-0.0234375,-1,0,0,0,0,207

4943,0,0,0,0,0,0,0,0,0,0,0,0,0,-0.0234375,-1,0,0,0,0,208

4963,0,0,0,0,0,0,0,0,0,0,0,0,0,-0.0234375,-1,0,0,0,0,209

4983,0,0,0,0,0,0,0,0,0,0,0,0,0,-0.0234375,-1,0,0,0,0,210

5003,0,0,0,0,0,0,0,0,0,0,0,0,0,-0.0234375,-1,0,0,0,0,211

5023,0,0,0,0,0,0,0,0,0,0,0,0,0,-0.0234375,-1,0,0,0,0,212

5043,0,0,0,0,0,0,0,0,0,0,0,0,0,-0.0234375,-1,0,0,0,0,213

5063,0,0,0,0,0,0,0,0,0,0,0,0,0,-0.0234375,-1,0,0,0,0,214

5083,0,0,0,0,0,0,0,0,0,0,0,0,0,-0.0234375,-1,0,0,0,0,215

5103,0,0,0,0,0,0,0,0,0,0,0,0,0,-0.0234375,-1,0,0,0,0,216

5123,0,0,0,0,0,0,0,0,0,0,0,0,0,-0.0234375,-1,0,0,0,0,217

5143,0,0,0,0,0,0,0,0,0,0,0,0,0,-0.0234375,-1,0,0,0,0,218

5163,0,0,0,0,0,0,0,0,0,0,0,0,0,-0.0234375,-1,0,0,0,0,219

5183,0,0,0,0,0,0,0,0,0,0,0,0,0,-0.0234375,-1,0,0,0,0,220

5203,0,0,0,0,0,0,0,0,0,0,0,0,0,-0.0234375,-1,0,0,0,0,221

5223,0,0,0,0,0,0,0,0,0,0,0,0,0,-0.0234375,-1,0,0,0,0,222

5243,0,0,0,0,0,0,0,0,0,0,0,0,0,-0.0234375,-1,0,0,0,0,223

5263,0,0,0,0,0,0,0,0,0,0,0,0,0,-0.0234375,-1,0,0,0,0,224

5283,0,0,0,0,0,0,0,0,0,0,0,0,0,-0.0234375,-1,0,0,0,0,225

5303,0,0,0,0,0,0,0,0,0,0,0,0,0,-0.0234375,-1,0,0,0,0,226

5323,0,0,0,0,0,0,0,0,0,0,0,0,0,-0.0234375,-1,0,0,0,0,227

5343,0,0,0,0,0,0,0,0,0,0,0,0,0,-0.0234375,-1,0,0,0,0,228

5363,0,0,0,0,0,0,0,0,0,0,0,0,0,-0.0234375,-1,0,0,0,0,229

5383,0,0,0,0,0,0,0,0,0,0,0,0,0,-0.0234375,-1,0,0,0,0,230

5403,0,0,0,0,0,0,0,0,0,0,0,0,0,-0.0234375,-1,0,0,0,0,231

5423,0,0,0,0,0,0,0,0,0,0,0,0,0,-0.0234375,-1,0,0,0,0,232

5443,0,0,0,0,0,0,0,0,0,0,0,0,0,-0.0234375,-1,0,0,0,0,233

5463,0,0,0,0,0,0,0,0,0,0,0,0,0,-0.0234375,-1,0,0,0,0,234

5483,0,0,0,0,0,0,0,0,0,0,0,0,0,-0.0234375,-1,0,0,0,0,235

5503,0,0,0,0,0,0,0,0,0,0,0,0,0,-0.0234375,-1,0,0,0,0,236

5523,0,0,0,0,0,0,0,0,0,0,0,0,0,-0.0234375,-1,0,0,0,0,237

5543,0,0,0,0,0,0,0,0,0,0,0,0,0,-0.0234375,-1,0,0,0,0,238

5563,0,0,0,0,0,0,0,0,0,0,0,0,0,-0.0234375,-1,0,0,0,0,239

5583,0,0,0,0,0,0,0,0,0,0,0,0,0,-0.0234375,-1,0,0,0,0,240

5603,0,0,0,0,0,0,0,0,0,0,0,0,0,-0.0234375,-1,0,0,0,0,241

5623,0,0,0,0,0,0,0,0,0,0,0,0,0,-0.0234375,-1,0,0,0,0,242

5643,0,0,0,0,0,0,0,0,0,0,0,0,0,-0.0234375,-1,0,0,0,0,243

5663,0,0,0,0,0,0,0,0,0,0,0,0,0,-0.0234375,-1,0,0,0,0,244

5683,0,0,0,0,0,0,0,0,0,0,0,0,0,-0.0234375,-1,0,0,0,0,245

5703,0,0,0,0,0,0,0,0,0,0,0,0,0,-0.0234375,-1,0,0,0,0,246

5723,0,0,0,0,0,0,0,0,0,0,0,0,0,-0.0234375,-1,0,0,0,0,247

5743,0,0,0,0,0,0,0,0,0,0,0,0,0,-0.0234375,-1,0,0,0,0,248

5763,0,0,0,0,0,0,0,0,0,0,0,0,0,-0.0234375,-1,0,0,0,0,249

5783,0,0,0,0,0,0,0,0,0,0,0,0,0,-0.0234375,-1,0,0,0,0,250

5803,0,0,0,0,0,0,0,0,0,0,0,0,0,-0.0234375,-1,0,0,0,0,251

5823,0,0,0,0,0,0,0,0,0,0,0,0,0,-0.0234375,-1,0,0,0,0,252

5843,0,0,0,0,0,0,0,0,0,0,0,0,0,-0.0234375,-1,0,0,0,0,253

5863,0,0,0,0,0,0,0,0,0,0,0,0,0,-0.0234375,-1,0,0,0,0,254

5883,0,0,0,0,0,0,0,0,0,0,0,0,0,-0.0234375,-1,0,0,0,0,255

5903,0,0,0,0,0,0,0,0,0,0,0,0,0,-0.0234375,-1,0,0,0,0,256

5923,0,0,0,0,0,0,0,0,0,0,0,0,0,-0.0234375,-1,0,0,0,0,257

5943,0,0,0,0,0,0,0,0,0,0,0,0,0,-0.0234375,-1,0,0,0,0,258

5963,0,0,0,0,0,0,0,0,0,0,0,0,0,-0.0234375,-1,0,0,0,0,259

5983,0,0,0,0,0,0,0,0,0,0,0,0,0,-0.0234375,-1,0,0,0,0,260

6003,0,0,0,0,0,0,0,0,0,0,0,0,0,-0.0234375,-1,0,0,0,0,261

6023,0,0,0,0,0,0,0,0,0,0,0,0,0,-0.0234375,-1,0,0,0,0,262

6043,0,0,0,0,0,0,0,0,0,0,0,0,0,-0.0234375,-1,0,0,0,0,263

6063,0,0,0,0,0,0,0,0,0,0,0,0,0,-0.0234375,-1,0,0,0,0,264

6083,0,0,0,0,0,0,0,0,0,0,0,0,0,-0.0234375,-1,0,0,0,0,265

6103,0,0,0,0,0,0,0,0,0,0,0,0,0,-0.0234375,-1,0,0,0,0,266

6123,0,0,0,0,0,0,0,0,0,0,0,0,0,-0.0234375,-1,0,0,0,0,267

6143,0,0,0,0,0,0,0,0,0,0,0,0,0,-0.0234375,-1,0,0,0,0,268

6163,0,0,0,0,0,0,0,0,0,0,0,0,0,-0.0234375,-1,0,0,0,0,269

6183,0,0,0,0,0,0,0,0,0,0,0,0,0,-0.0234375,-1,0,0,0,0,270

6203,0,0,0,0,0,0,0,0,0,0,0,0,0,-0.0234375,-1,0,0,0,0,271

6223,0,0,0,0,0,0,0,0,0,0,0,0,0,-0.0234375,-1,0,0,0,0,272

6243,0,0,0,0,0,0,0,0,0,0,0,0,0,-0.0234375,-1,0,0,0,0,273

6263,0,0,0,0,0,0,0,0,0,0,0,0,0,-0.0234375,-1,0,0,0,0,274

6283,0,0,0,0,0,0,0,0,0,0,0,0,0,-0.0234375,-1,0,0,0,0,275

6303,0,0,0,0,0,0,0,0,0,0,0,0,0,-0.0234375,-1,0,0,0,0,276

6323,0,0,0,0,0,0,0,0,0,0,0,0,0,-0.0234375,-1,0,0,0,0,277

6343,0,0,0,0,0,0,0,0,0,0,0,0,0,-0.0234375,-1,0,0,0,0,278

6363,0,0,0,0,0,0,0,0,0,0,0,0,0,-0.0234375,-1,0,0,0,0,279

6383,0,0,0,0,0,0,0,0,0,0,0,0,0,-0.0234375,-1,0,0,0,0,280

6403,0,0,0,0,0,0,0,0,0,0,0,0,0,-0.0234375,-1,0,0,0,0,281

6423,0,0,0,0,0,0,0,0,0,0,0,0,0,-0.0234375,-1,0,0,0,0,282

6443,0,0,0,0,0,0,0,0,0,0,0,0,0,-0.0234375,-1,0,0,0,0,283

6463,0,0,0,0,0,0,0,0,0,0,0,0,0,-0.0234375,-1,0,0,0,0,284

6483,0,0,0,0,0,0,0,0,0,0,0,0,0,-0.0234375,-1,0,0,0,0,285

6503,0,0,0,0,0,0,0,0,0,0,0,0,0,-0.0234375,-1,0,0,0,0,286

6523,0,0,0,0,0,0,0,0,0,0,0,0,0,-0.0234375,-1,0,0,0,0,287

6543,0,0,0,0,0,0,0,0,0,0,0,0,0,-0.0234375,-1,0,0,0,0,288

6563,0,0,0,0,0,0,0,0,0,0,0,0,0,-0.0234375,-1,0,0,0,0,289

6583,0,0,0,0,0,0,0,0,0,0,0,0,0,-0.0234375,-1,0,0,0,0,290

6603,0,0,0,0,0,0,0,0,0,0,0,0,0,-0.0234375,-1,0,0,0,0,291

6623,0,0,0,0,0,0,0,0,0,0,0,0,0,-0.0234375,-1,0,0,0,0,292

6643,0,0,0,0,0,0,0,0,0,0,0,0,0,-0.0234375,-1,0,0,0,0,293

6663,0,0,0,0,0,0,0,0,0,0,0,0,0,-0.0234375,-1,0,0,0,0,294

6683,0,0,0,0,0,0,0,0,0,0,0,0,0,-0.0234375,-1,0,0,0,0,295

6703,0,0,0,0,0,0,0,0,0,0,0,0,0,-0.0234375,-1,0,0,0,0,296

6723,0,0,0,0,0,0,0,0,0,0,0,0,0,-0.0234375,-1,0,0,0,0,297

6743,0,0,0,0,0,0,0,0,0,0,0,0,0,-0.0234375,-1,0,0,0,0,298

6763,0,0,0,0,0,0,0,0,0,0,0,0,0,-0.0234375,-1,0,0,0,0,299

6783,0,0,0,0,0,0,0,0,0,0,0,0,0,-0.0234375,-1,0,0,0,0,300

6803,0,0,0,0,0,0,0,0,0,0,0,0,0,-0.0234375,-1,0,0,0,0,301

6823,0,0,0,0,0,0,0,0,0,0,0,0,0,-0.0234375,-1,0,0,0,0,302

6843,0,0,0,0,0,0,0,0,0,0,0,0,0,-0.0234375,-1,0,0,0,0,303

6863,0,0,0,0,0,0,0,0,0,0,0,0,0,-0.0234375,-1,0,0,0,0,304

6883,0,0,0,0,0,0,0,0,0,0,0,0,0,-0.0234375,-1,0,0,0,0,305

6903,0,0,0,0,0,0,0,0,0,0,0,0,0,-0.0234375,-1,0,0,0,0,306

6923,0,0,0,0,0,0,0,0,0,0,0,0,0,-0.0234375,-1,0,0,0,0,307

6943,0,0,0,0,0,0,0,0,0,0,0,0,0,-0.0234375,-1,0,0,0,0,308

6963,0,0,0,0,0,0,0,0,0,0,0,0,0,-0.0234375,-1,0,0,0,0,309

6983,0,0,0,0,0,0,0,0,0,0,0,0,0,-0.0234375,-1,0,0,0,0,310

7003,0,0,0,0,0,0,0,0,0,0,0,0,0,-0.0234375,-1,0,0,0,0,311

7023,0,0,0,0,0,0,0,0,0,0,0,0,0,-0.0234375,-1,0,0,0,0,312

7043,0,0,0,0,0,0,0,0,0,0,0,0,0,-0.0234375,-1,0,0,0,0,313

7063,0,0,0,0,0,0,0,0,0,0,0,0,0,-0.0234375,-1,0,0,0,0,314

7083,0,0,0,0,0,0,0,0,0,0,0,0,0,-0.0234375,-1,0,0,0,0,315

7103,0,0,0,0,0,0,0,0,0,0,0,0,0,-0.0234375,-1,0,0,0,0,316

7123,0,0,0,0,0,0,0,0,0,0,0,0,0,-0.0234375,-1,0,0,0,0,317

7143,0,0,0,0,0,0,0,0,0,0,0,0,0,-0.0234375,-1,0,0,0,0,318

7163,0,0,0,0,0,0,0,0,0,0,0,0,0,-0.0234375,-1,0,0,0,0,319

7183,0,0,0,0,0,0,0,0,0,0,0,0,0,-0.0234375,-1,0,0,0,0,320

7203,0,0,0,0,0,0,0,0,0,0,0,0,0,-0.0234375,-1,0,0,0,0,321

7223,0,0,0,0,0,0,0,0,0,0,0,0,0,-0.0234375,-1,0,0,0,0,322

7243,0,0,0,0,0,0,0,0,0,0,0,0,0,-0.0234375,-1,0,0,0,0,323

7263,0,0,0,0,0,0,0,0,0,0,0,0,0,-0.0234375,-1,0,0,0,0,324

7283,0,0,0,0,0,0,0,0,0,0,0,0,0,-0.0234375,-1,0,0,0,0,325

7303,0,0,0,0,0,0,0,0,0,0,0,0,0,-0.0234375,-1,0,0,0,0,326

7323,0,0,0,0,0,0,0,0,0,0,0,0,0,-0.0234375,-1,0,0,0,0,327

7343,0,0,0,0,0,0,0,0,0,0,0,0,0,-0.0234375,-1,0,0,0,0,328

7363,0,0,0,0,0,0,0,0,0,0,0,0,0,-0.0234375,-1,0,0,0,0,329

7383,0,0,0,0,0,0,0,0,0,0,0,0,0,-0.0234375,-1,0,0,0,0,330

7403,0,0,0,0,0,0,0,0,0,0,0,0,0,-0.0234375,-1,0,0,0,0,331

7423,0,0,0,0,0,0,0,0,0,0,0,0,0,-0.0234375,-1,0,0,0,0,332

7443,0,0,0,0,0,0,0,0,0,0,0,0,0,-0.0234375,-1,0,0,0,0,333

7463,0,0,0,0,0,0,0,0,0,0,0,0,0,-0.0234375,-1,0,0,0,0,334

7483,0,0,0,0,0,0,0,0,0,0,0,0,0,-0.0234375,-1,0,0,0,0,335

7503,0,0,0,0,0,0,0,0,0,0,0,0,0,-0.0234375,-1,0,0,0,0,336

7523,0,0,0,0,0,0,0,0,0,0,0,0,0,-0.0234375,-1,0,0,0,0,337

7543,0,0,0,0,0,0,0,0,0,0,0,0,0,-0.0234375,-1,0,0,0,0,338

7563,0,0,0,0,0,0,0,0,0,0,0,0,0,-0.0234375,-1,0,0,0,0,339

7583,0,0,0,0,0,0,0,0,0,0,0,0,0,-0.0234375,-1,0,0,0,0,340

7603,0,0,0,0,0,0,0,0,0,0,0,0,0,-0.0234375,-1,0,0,0,0,341

7623,0,0,0,0,0,0,0,0,0,0,0,0,0,-0.0234375,-1,0,0,0,0,342

7643,0,0,0,0,0,0,0,0,0,0,0,0,0,-0.0234375,-1,0,0,0,0,343

7663,0,0,0,0,0,0,0,0,0,0,0,0,0,-0.0234375,-1,0,0,0,0,344

7683,0,0,0,0,0,0,0,0,0,0,0,0,0,-0.0234375,-1,0,0,0,0,345

7703,0,0,0,0,0,0,0,0,0,0,0,0,0,-0.0234375,-1,0,0,0,0,346

7723,0,0,0,0,0,0,0,0,0,0,0,0,0,-0.0234375,-1,0,0,0,0,347

7743,0,0,0,0,0,0,0,0,0,0,0,0,0,-0.0234375,-1,0,0,0,0,348

7763,0,0,0,0,0,0,0,0,0,0,0,0,0,-0.0234375,-1,0,0,0,0,349

7783,0,0,0,0,0,0,0,0,0,0,0,0,0,-0.0234375,-1,0,0,0,0,350

7803,0,0,0,0,0,0,0,0,0,0,0,0,0,-0.0234375,-1,0,0,0,0,351

7823,0,0,0,0,0,0,0,0,0,0,0,0,0,-0.0234375,-1,0,0,0,0,352

7843,0,0,0,0,0,0,0,0,0,0,0,0,0,-0.0234375,-1,0,0,0,0,353

7863,0,0,0,0,0,0,0,0,0,0,0,0,0,-0.0234375,-1,0,0,0,0,354

7883,0,0,0,0,0,0,0,0,0,0,0,0,0,-0.0234375,-1,0,0,0,0,355

7903,0,0,0,0,0,0,0,0,0,0,0,0,0,-0.0234375,-1,0,0,0,0,356

7923,0,0,0,0,0,0,0,0,0,0,0,0,0,-0.0234375,-1,0,0,0,0,357

7943,0,0,0,0,0,0,0,0,0,0,0,0,0,-0.0234375,-1,0,0,0,0,358

7963,0,0,0,0,0,0,0,0,0,0,0,0,0,-0.0234375,-1,0,0,0,0,359

7983,0,0,0,0,0,0,0,0,0,0,0,0,0,-0.0234375,-1,0,0,0,0,360

8003,0,0,0,0,0,0,0,0,0,0,0,0,0,-0.0234375,-1,0,0,0,0,361

8023,0,0,0,0,0,0,0,0,0,0,0,0,0,-0.0234375,-1,0,0,0,0,362

8043,0,0,0,0,0,0,0,0,0,0,0,0,0,-0.0234375,-1,0,0,0,0,363

8063,0,0,0,0,0,0,0,0,0,0,0,0,0,-0.0234375,-1,0,0,0,0,364

8083,0,0,0,0,0,0,0,0,0,0,0,0,0,-0.0234375,-1,0,0,0,0,365

8103,0,0,0,0,0,0,0,0,0,0,0,0,0,-0.0234375,-1,0,0,0,0,366

8123,0,0,0,0,0,0,0,0,0,0,0,0,0,-0.0234375,-1,0,0,0,0,367

8143,0,0,0,0,0,0,0,0,0,0,0,0,0,-0.0234375,-1,0,0,0,0,368

8163,0,0,0,0,0,0,0,0,0,0,0,0,0,-0.0234375,-1,0,0,0,0,369

8183,0,0,0,0,0,0,0,0,0,0,0,0,0,-0.0234375,-1,0,0,0,0,370

8203,0,0,0,0,0,0,0,0,0,0,0,0,0,-0.0234375,-1,0,0,0,0,371

8223,0,0,0,0,0,0,0,0,0,0,0,0,0,-0.0234375,-1,0,0,0,0,372

8243,0,0,0,0,0,0,0,0,0,0,0,0,0,-0.0234375,-1,0,0,0,0,373

8263,0,0,0,0,0,0,0,0,0,0,0,0,0,-0.0234375,-1,0,0,0,0,374

8283,0,0,0,0,0,0,0,0,0,0,0,0,0,-0.0234375,-1,0,0,0,0,375

8303,0,0,0,0,0,0,0,0,0,0,0,0,0,-0.0234375,-1,0,0,0,0,376

8323,0,0,0,0,0,0,0,0,0,0,0,0,0,-0.0234375,-1,0,0,0,0,377

8343,0,0,0,0,0,0,0,0,0,0,0,0,0,-0.0234375,-1,0,0,0,0,378

8363,0,0,0,0,0,0,0,0,0,0,0,0,0,-0.0234375,-1,0,0,0,0,379

8383,0,0,0,0,0,0,0,0,0,0,0,0,0,-0.0234375,-1,0,0,0,0,380

8403,0,0,0,0,0,0,0,0,0,0,0,0,0,-0.0234375,-1,0,0,0,0,381

8423,0,0,0,0,0,0,0,0,0,0,0,0,0,-0.0234375,-1,0,0,0,0,382

8443,0,0,0,0,0,0,0,0,0,0,0,0,0,-0.0234375,-1,0,0,0,0,383

8463,0,0,0,0,0,0,0,0,0,0,0,0,0,-0.0234375,-1,0,0,0,0,384

8483,0,0,0,0,0,0,0,0,0,0,0,0,0,-0.0234375,-1,0,0,0,0,385

8503,0,0,0,0,0,0,0,0,0,0,0,0,0,-0.0234375,-1,0,0,0,0,386

8523,0,0,0,0,0,0,0,0,0,0,0,0,0,-0.0234375,-1,0,0,0,0,387

8543,0,0,0,0,0,0,0,0,0,0,0,0,0,-0.0234375,-1,0,0,0,0,388

8563,0,0,0,0,0,0,0,0,0,0,0,0,0,-0.0234375,-1,0,0,0,0,389

8583,0,0,0,0,0,0,0,0,0,0,0,0,0,-0.0234375,-1,0,0,0,0,390

8603,0,0,0,0,0,0,0,0,0,0,0,0,0,-0.0234375,-1,0,0,0,0,391

8623,0,0,0,0,0,0,0,0,0,0,0,0,0,-0.0234375,-1,0,0,0,0,392

8643,0,0,0,0,0,0,0,0,0,0,0,0,0,-0.0234375,-1,0,0,0,0,393

8663,0,0,0,0,0,0,0,0,0,0,0,0,0,-0.0234375,-1,0,0,0,0,394

8683,0,0,0,0,0,0,0,0,0,0,0,0,0,-0.0234375,-1,0,0,0,0,395

8703,0,0,0,0,0,0,0,0,0,0,0,0,0,-0.0234375,-1,0,0,0,0,396

8723,0,0,0,0,0,0,0,0,0,0,0,0,0,-0.0234375,-1,0,0,0,0,397

8743,0,0,0,0,0,0,0,0,0,0,0,0,0,-0.0234375,-1,0,0,0,0,398

8763,0,0,0,0,0,0,0,0,0,0,0,0,0,-0.0234375,-1,0,0,0,0,399

8783,0,0,0,0,0,0,0,0,0,0,0,0,0,-0.0234375,-1,0,0,0,0,400

8803,0,0,0,0,0,0,0,0,0,0,0,0,0,-0.0234375,-1,0,0,0,0,401

8823,0,0,0,0,0,0,0,0,0,0,0,0,0,-0.0234375,-1,0,0,0,0,402

8843,0,0,0,0,0,0,0,0,0,0,0,0,0,-0.0234375,-1,0,0,0,0,403

8863,0,0,0,0,0,0,0,0,0,0,0,0,0,-0.0234375,-1,0,0,0,0,404

8883,0,0,0,0,0,0,0,0,0,0,0,0,0,-0.0234375,-1,0,0,0,0,405

8903,0,0,0,0,0,0,0,0,0,0,0,0,0,-0.0234375,-1,0,0,0,0,406

8923,0,0,0,0,0,0,0,0,0,0,0,0,0,-0.0234375,-1,0,0,0,0,407

8943,0,0,0,0,0,0,0,0,0,0,0,0,0,-0.0234375,-1,0,0,0,0,408

8963,0,0,0,0,0,0,0,0,0,0,0,0,0,-0.0234375,-1,0,0,0,0,409

8983,0,0,0,0,0,0,0,0,0,0,0,0,0,-0.0234375,-1,0,0,0,0,410

9003,0,0,0,0,0,0,0,0,0,0,0,0,0,-0.0234375,-1,0,0,0,0,411

9023,0,0,0,0,0,0,0,0,0,0,0,0,0,-0.0234375,-1,0,0,0,0,412

9043,0,0,0,0,0,0,0,0,0,0,0,0,0,-0.0234375,-1,0,0,0,0,413

9063,0,0,0,0,0,0,0,0,0,0,0,0,0,-0.0234375,-1,0,0,0,0,414

9083,0,0,0,0,0,0,0,0,0,0,0,0,0,-0.0234375,-1,0,0,0,0,415

9103,0,0,0,0,0,0,0,0,0,0,0,0,0,-0.0234375,-1,0,0,0,0,416

9123,0,0,0,0,0,0,0,0,0,0,0,0,0,-0.0234375,-1,0,0,0,0,417

9143,0,0,0,0,0,0,0,0,0,0,0,0,0,-0.0234375,-1,0,0,0,0,418

9163,0,0,0,0,0,0,0,0,0,0,0,0,0,-0.0234375,-1,0,0,0,0,419

9183,0,0,0,0,0,0,0,0,0,0,0,0,0,-0.0234375,-1,0,0,0,0,420

9203,0,0,0,0,0,0,0,0,0,0,0,0,0,-0.0234375,-1,0,0,0,0,421

9223,0,0,0,0,0,0,0,0,0,0,0,0,0,-0.0234375,-1,0,0,0,0,422

9243,0,0,0,0,0,0,0,0,0,0,0,0,0,-0.0234375,-1,0,0,0,0,423

9263,0,0,0,0,0,0,0,0,0,0,0,0,0,-0.0234375,-1,0,0,0,0,424

9283,0,0,0,0,0,0,0,0,0,0,0,0,0,-0.0234375,-1,0,0,0,0,425

9303,0,0,0,0,0,0,0,0,0,0,0,0,0,-0.0234375,-1,0,0,0,0,426

9323,0,0,0,0,0,0,0,0,0,0,0,0,0,-0.0234375,-1,0,0,0,0,427

9343,0,0,0,0,0,0,0,0,0,0,0,0,0,-0.0234375,-1,0,0,0,0,428

9363,0,0,0,0,0,0,0,0,0,0,0,0,0,-0.0234375,-1,0,0,0,0,429

9383,0,0,0,0,0,0,0,0,0,0,0,0,0,-0.0234375,-1,0,0,0,0,430

9403,0,0,0,0,0,0,0,0,0,0,0,0,0,-0.0234375,-1,0,0,0,0,431

9423,0,0,0,0,0,0,0,0,0,0,0,0,0,-0.0234375,-1,0,0,0,0,432

9443,0,0,0,0,0,0,0,0,0,0,0,0,0,-0.0234375,-1,0,0,0,0,433

9463,0,0,0,0,0,0,0,0,0,0,0,0,0,-0.0234375,-1,0,0,0,0,434

9483,0,0,0,0,0,0,0,0,0,0,0,0,0,-0.0234375,-1,0,0,0,0,435

9503,0,0,0,0,0,0,0,0,0,0,0,0,0,-0.0234375,-1,0,0,0,0,436

9523,0,0,0,0,0,0,0,0,0,0,0,0,0,-0.0234375,-1,0,0,0,0,437

9543,0,0,0,0,0,0,0,0,0,0,0,0,0,-0.0234375,-1,0,0,0,0,438

9563,0,0,0,0,0,0,0,0,0,0,0,0,0,-0.0234375,-1,0,0,0,0,439

9583,0,0,0,0,0,0,0,0,0,0,0,0,0,-0.0234375,-1,0,0,0,0,440

9603,0,0,0,0,0,0,0,0,0,0,0,0,0,-0.0234375,-1,0,0,0,0,441

9623,0,0,0,0,0,0,0,0,0,0,0,0,0,-0.0234375,-1,0,0,0,0,442

9643,0,0,0,0,0,0,0,0,0,0,0,0,0,-0.0234375,-1,0,0,0,0,443

9663,0,0,0,0,0,0,0,0,0,0,0,0,0,-0.0234375,-1,0,0,0,0,444

9683,0,0,0,0,0,0,0,0,0,0,0,0,0,-0.0234375,-1,0,0,0,0,445

9703,0,0,0,0,0,0,0,0,0,0,0,0,0,-0.0234375,-1,0,0,0,0,446

9723,0,0,0,0,0,0,0,0,0,0,0,0,0,-0.0234375,-1,0,0,0,0,447

9743,0,0,0,0,0,0,0,0,0,0,0,0,0,-0.0234375,-1,0,0,0,0,448

9763,0,0,0,0,0,0,0,0,0,0,0,0,0,-0.0234375,-1,0,0,0,0,449

9783,0,0,0,0,0,0,0,0,0,0,0,0,0,-0.0234375,-1,0,0,0,0,450

9803,0,0,0,0,0,0,0,0,0,0,0,0,0,-0.0234375,-1,0,0,0,0,451

9823,0,0,0,0,0,0,0,0,0,0,0,0,0,-0.0234375,-1,0,0,0,0,452

9843,0,0,0,0,0,0,0,0,0,0,0,0,0,-0.0234375,-1,0,0,0,0,453

9863,0,0,0,0,0,0,0,0,0,0,0,0,0,-0.0234375,-1,0,0,0,0,454

9883,0,0,0,0,0,0,0,0,0,0,0,0,0,-0.0234375,-1,0,0,0,0,455

9903,0,0,0,0,0,0,0,0,0,0,0,0,0,-0.0234375,-1,0,0,0,0,456

9923,0,0,0,0,0,0,0,0,0,0,0,0,0,-0.0234375,-1,0,0,0,0,457

9943,0,0,0,0,0,0,0,0,0,0,0,0,0,-0.0234375,-1,0,0,0,0,458

9963,0,0,0,0,0,0,0,0,0,0,0,0,0,-0.0234375,-1,0,0,0,0,459

9983,0,0,0,0,0,0,0,0,0,0,0,0,0,-0.0234375,-1,0,0,0,0,460

10003,0,0,0,0,0,0,0,0,0,0,0,0,0,-0.0234375,-1,0,0,0,0,461

10023,0,0,0,0,0,0,0,0,0,0,0,0,0,-0.0234375,-1,0,0,0,0,462

10043,0,0,0,0,0,0,0,0,0,0,0,0,0,-0.0234375,-1,0,0,0,0,463

10063,0,0,0,0,0,0,0,0,0,0,0,0,0,-0.0234375,-1,0,0,0,0,464

10083,0,0,0,0,0,0,0,0,0,0,0,0,0,-0.0234375,-1,0,0,0,0,465

10103,0,0,0,0,0,0,0,0,0,0,0,0,0,-0.0234375,-1,0,0,0,0,466

10123,0,0,0,0,0,0,0,0,0,0,0,0,0,-0.0234375,-1,0,0,0,0,467

10143,0,0,0,0,0,0,0,0,0,0,0,0,0,-0.0234375,-1,0,0,0,0,468

10163,0,0,0,0,0,0,0,0,0,0,0,0,0,-0.0234375,-1,0,0,0,0,469

10183,0,0,0,0,0,0,0,0,0,0,0,0,0,-0.0234375,-1,0,0,0,0,470

10203,0,0,0,0,0,0,0,0,0,0,0,0,0,-0.0234375,-1,0,0,0,0,471

10223,0,0,0,0,0,0,0,0,0,0,0,0,0,-0.0234375,-1,0,0,0,0,472

10243,0,0,0,0,0,0,0,0,0,0,0,0,0,-0.0234375,-1,0,0,0,0,473

10263,0,0,0,0,0,0,0,0,0,0,0,0,0,-0.0234375,-1,0,0,0,0,474

10283,0,0,0,0,0,0,0,0,0,0,0,0,0,-0.0234375,-1,0,0,0,0,475

10303,0,0,0,0,0,0,0,0,0,0,0,0,0,-0.0234375,-1,0,0,0,0,476

10323,0,0,0,0,0,0,0,0,0,0,0,0,0,-0.0234375,-1,0,0,0,0,477

10343,0,0,0,0,0,0,0,0,0,0,0,0,0,-0.0234375,-1,0,0,0,0,478

10363,0,0,0,0,0,0,0,0,0,0,0,0,0,-0.0234375,-1,0,0,0,0,479

10383,0,0,0,0,0,0,0,0,0,0,0,0,0,-0.0234375,-1,0,0,0,0,480

10403,0,0,0,0,0,0,0,0,0,0,0,0,0,-0.0234375,-1,0,0,0,0,481

10423,0,0,0,0,0,0,0,0,0,0,0,0,0,-0.0234375,-1,0,0,0,0,482

10443,0,0,0,0,0,0,0,0,0,0,0,0,0,-0.0234375,-1,0,0,0,0,483

10463,0,0,0,0,0,0,0,0,0,0,0,0,0,-0.0234375,-1,0,0,0,0,484

10483,0,0,0,0,0,0,0,0,0,0,0,0,0,-0.0234375,-1,0,0,0,0,485

10503,0,0,0,0,0,0,0,0,0,0,0,0,0,-0.0234375,-1,0,0,0,0,486

10523,0,0,0,0,0,0,0,0,0,0,0,0,0,-0.0234375,-1,0,0,0,0,487

10543,0,0,0,0,0,0,0,0,0,0,0,0,0,-0.0234375,-1,0,0,0,0,488

10563,0,0,0,0,0,0,0,0,0,0,0,0,0,-0.0234375,-1,0,0,0,0,489

10583,0,0,0,0,0,0,0,0,0,0,0,0,0,-0.0234375,-1,0,0,0,0,490

10603,0,0,0,0,0,0,0,0,0,0,0,0,0,-0.0234375,-1,0,0,0,0,491

10623,0,0,0,0,0,0,0,0,0,0,0,0,0,-0.0234375,-1,0,0,0,0,492

10643,0,0,0,0,0,0,0,0,0,0,0,0,0,-0.0234375,-1,0,0,0,0,493

10663,0,0,0,0,0,0,0,0,0,0,0,0,0,-0.0234375,-1,0,0,0,0,494

10683,0,0,0,0,0,0,0,0,0,0,0,0,0,-0.0234375,-1,0,0,0,0,495

10703,0,0,0,0,0,0,0,0,0,0,0,0,0,-0.0234375,-1,0,0,0,0,496

10723,0,0,0,0,0,0,0,0,0,0,0,0,0,-0.0234375,-1,0,0,0,0,497

10743,0,0,0,0,0,0,0,0,0,0,0,0,0,-0.0234375,-1,0,0,0,0,498

10763,0,0,0,0,0,0,0,0,0,0,0,0,0,-0.0234375,-1,0,0,0,0,499

10783,0,0,0,0,0,0,0,0,0,0,0,0,0,-0.0234375,-1,0,0,0,0,500

10803,0,0,0,0,0,0,0,0,0,0,0,0,0,-0.0234375,-1,0,0,0,0,501

10823,0,0,0,0,0,0,0,0,0,0,0,0,0,-0.0234375,-1,0,0,0,0,502

10843,0,0,0,0,0,0,0,0,0,0,0,0,0,-0.0234375,-1,0,0,0,0,503

10863,0,0,0,0,0,0,0,0,0,0,0,0,0,-0.0234375,-1,0,0,0,0,504

10883,0,0,0,0,0,0,0,0,0,0,0,0,0,-0.0234375,-1,0,0,0,0,505

10903,0,0,0,0,0,0,0,0,0,0,0,0,0,-0.0234375,-1,0,0,0,0,506

10923,0,0,0,0,0,0,0,0,0,0,0,0,0,-0.0234375,-1,0,0,0,0,507

10943,0,0,0,0,0,0,0,0,0,0,0,0,0,-0.0234375,-1,0,0,0,0,508

10963,0,0,0,0,0,0,0,0,0,0,0,0,0,-0.0234375,-1,0,0,0,0,509

10983,0,0,0,0,0,0,0,0,0,0,0,0,0,-0.0234375,-1,0,0,0,0,510

11003,0,0,0,0,0,0,0,0,0,0,0,0,0,-0.0234375,-1,0,0,0,0,511

11023,0,0,0,0,0,0,0,0,0,0,0,0,0,-0.0234375,-1,0,0,0,0,512

11043,0,0,0,0,0,0,0,0,0,0,0,0,0,-0.0234375,-1,0,0,0,0,513

11063,0,0,0,0,0,0,0,0,0,0,0,0,0,-0.0234375,-1,0,0,0,0,514

11083,0,0,0,0,0,0,0,0,0,0,0,0,0,-0.0234375,-1,0,0,0,0,515

11103,0,0,0,0,0,0,0,0,0,0,0,0,0,-0.0234375,-1,0,0,0,0,516

11123,0,0,0,0,0,0,0,0,0,0,0,0,0,-0.0234375,-1,0,0,0,0,517

11143,0,0,0,0,0,0,0,0,0,0,0,0,0,-0.0234375,-1,0,0,0,0,518

11163,0,0,0,0,0,0,0,0,0,0,0,0,0,-0.0234375,-1,0,0,0,0,519

11183,0,0,0,0,0,0,0,0,0,0,0,0,0,-0.0234375,-1,0,0,0,0,520

11203,0,0,0,0,0,0,0,0,0,0,0,0,0,-0.0234375,-1,0,0,0,0,521

11223,0,0,0,0,0,0,0,0,0,0,0,0,0,-0.0234375,-1,0,0,0,0,522

11243,0,0,0,0,0,0,0,0,0,0,0,0,0,-0.0234375,-1,0,0,0,0,523

11263,0,0,0,0,0,0,0,0,0,0,0,0,0,-0.0234375,-1,0,0,0,0,524

11283,0,0,0,0,0,0,0,0,0,0,0,0,0,-0.0234375,-1,0,0,0,0,525

11303,0,0,0,0,0,0,0,0,0,0,0,0,0,-0.0234375,-1,0,0,0,0,526

11323,0,0,0,0,0,0,0,0,0,0,0,0,0,-0.0234375,-1,0,0,0,0,527

11343,0,0,0,0,0,0,0,0,0,0,0,0,0,-0.0234375,-1,0,0,0,0,528

11363,0,0,0,0,0,0,0,0,0,0,0,0,0,-0.0234375,-1,0,0,0,0,529

11383,0,0,0,0,0,0,0,0,0,0,0,0,0,-0.0234375,-1,0,0,0,0,530

11403,0,0,0,0,0,0,0,0,0,0,0,0,0,-0.0234375,-1,0,0,0,0,531

11423,0,0,0,0,0,0,0,0,0,0,0,0,0,-0.0234375,-1,0,0,0,0,532

11443,0,0,0,0,0,0,0,0,0,0,0,0,0,-0.0234375,-1,0,0,0,0,533

11463,0,0,0,0,0,0,0,0,0,0,0,0,0,-0.0234375,-1,0,0,0,0,534

11483,0,0,0,0,0,0,0,0,0,0,0,0,0,-0.0234375,-1,0,0,0,0,535

11503,0,0,0,0,0,0,0,0,0,0,0,0,0,-0.0234375,-1,0,0,0,0,536

11523,0,0,0,0,0,0,0,0,0,0,0,0,0,-0.0234375,-1,0,0,0,0,537

11543,0,0,0,0,0,0,0,0,0,0,0,0,0,-0.0234375,-1,0,0,0,0,538

11563,0,0,0,0,0,0,0,0,0,0,0,0,0,-0.0234375,-1,0,0,0,0,539

11583,0,0,0,0,0,0,0,0,0,0,0,0,0,-0.0234375,-1,0,0,0,0,540

11603,0,0,0,0,0,0,0,0,0,0,0,0,0,-0.0234375,-1,0,0,0,0,541

11623,0,0,0,0,0,0,0,0,0,0,0,0,0,-0.0234375,-1,0,0,0,0,542

11643,0,0,0,0,0,0,0,0,0,0,0,0,0,-0.0234375,-1,0,0,0,0,543

11663,0,0,0,0,0,0,0,0,0,0,0,0,0,-0.0234375,-1,0,0,0,0,544

11683,0,0,0,0,0,0,0,0,0,0,0,0,0,-0.0234375,-1,0,0,0,0,545

11703,0,0,0,0,0,0,0,0,0,0,0,0,0,-0.0234375,-1,0,0,0,0,546

11723,0,0,0,0,0,0,0,0,0,0,0,0,0,-0.0234375,-1,0,0,0,0,547

11743,0,0,0,0,0,0,0,0,0,0,0,0,0,-0.0234375,-1,0,0,0,0,548

11763,0,0,0,0,0,0,0,0,0,0,0,0,0,-0.0234375,-1,0,0,0,0,549

11783,0,0,0,0,0,0,0,0,0,0,0,0,0,-0.0234375,-1,0,0,0,0,550

11803,0,0,0,0,0,0,0,0,0,0,0,0,0,-0.0234375,-1,0,0,0,0,551

11823,0,0,0,0,0,0,0,0,0,0,0,0,0,-0.0234375,-1,0,0,0,0,552

11843,0,0,0,0,0,0,0,0,0,0,0,0,0,-0.0234375,-1,0,0,0,0,553

11863,0,0,0,0,0,0,0,0,0,0,0,0,0,-0.0234375,-1,0,0,0,0,554

11883,0,0,0,0,0,0,0,0,0,0,0,0,0,-0.0234375,-1,0,0,0,0,555

11903,0,0,0,0,0,0,0,0,0,0,0,0,0,-0.0234375,-1,0,0,0,0,556

11923,0,0,0,0,0,0,0,0,0,0,0,0,0,-0.0234375,-1,0,0,0,0,557

11943,0,0,0,0,0,0,0,0,0,0,0,0,0,-0.0234375,-1,0,0,0,0,558

11963,0,0,0,0,0,0,0,0,0,0,0,0,0,-0.0234375,-1,0,0,0,0,559

11983,0,0,0,0,0,0,0,0,0,0,0,0,0,-0.0234375,-1,0,0,0,0,560

12003,0,0,0,0,0,0,0,0,0,0,0,0,0,-0.0234375,-1,0,0,0,0,561

12023,0,0,0,0,0,0,0,0,0,0,0,0,0,-0.0234375,-1,0,0,0,0,562

12043,0,0,0,0,0,0,0,0,0,0,0,0,0,-0.0234375,-1,0,0,0,0,563

12063,0,0,0,0,0,0,0,0,0,0,0,0,0,-0.0234375,-1,0,0,0,0,564

12083,0,0,0,0,0,0,0,0,0,0,0,0,0,-0.0234375,-1,0,0,0,0,565

12103,0,0,0,0,0,0,0,0,0,0,0,0,0,-0.0234375,-1,0,0,0,0,566

12123,0,0,0,0,0,0,0,0,0,0,0,0,0,-0.0234375,-1,0,0,0,0,567

12143,0,0,0,0,0,0,0,0,0,0,0,0,0,-0.0234375,-1,0,0,0,0,568

12163,0,0,0,0,0,0,0,0,0,0,0,0,0,-0.0234375,-1,0,0,0,0,569

12183,0,0,0,0,0,0,0,0,0,0,0,0,0,-0.0234375,-1,0,0,0,0,570

12203,0,0,0,0,0,0,0,0,0,0,0,0,0,-0.0234375,-1,0,0,0,0,571

12223,0,0,0,0,0,0,0,0,0,0,0,0,0,-0.0234375,-1,0,0,0,0,572

12243,0,0,0,0,0,0,0,0,0,0,0,0,0,-0.0234375,-1,0,0,0,0,573

12263,0,0,0,0,0,0,0,0,0,0,0,0,0,-0.0234375,-1,0,0,0,0,574

12283,0,0,0,0,0,0,0,0,0,0,0,0,0,-0.0234375,-1,0,0,0,0,575

12303,0,0,0,0,0,0,0,0,0,0,0,0,0,-0.0234375,-1,0,0,0,0,576

12323,0,0,0,0,0,0,0,0,0,0,0,0,0,-0.0234375,-1,0,0,0,0,577

12343,0,0,0,0,0,0,0,0,0,0,0,0,0,-0.0234375,-1,0,0,0,0,578

12363,0,0,0,0,0,0,0,0,0,0,0,0,0,-0.0234375,-1,0,0,0,0,579

12383,0,0,0,0,0,0,0,0,0,0,0,0,0,-0.0234375,-1,0,0,0,0,580

12403,0,0,0,0,0,0,0,0,0,0,0,0,0,-0.0234375,-1,0,0,0,0,581

12423,0,0,0,0,0,0,0,0,0,0,0,0,0,-0.0234375,-1,0,0,0,0,582

12443,0,0,0,0,0,0,0,0,0,0,0,0,0,-0.0234375,-1,0,0,0,0,583

12463,0,0,0,0,0,0,0,0,0,0,0,0,0,-0.0234375,-1,0,0,0,0,584

12483,0,0,0,0,0,0,0,0,0,0,0,0,0,-0.0234375,-1,0,0,0,0,585

12503,0,0,0,0,0,0,0,0,0,0,0,0,0,-0.0234375,-1,0,0,0,0,586

12523,0,0,0,0,0,0,0,0,0,0,0,0,0,-0.0234375,-1,0,0,0,0,587

12543,0,0,0,0,0,0,0,0,0,0,0,0,0,-0.0234375,-1,0,0,0,0,588

12563,0,0,0,0,0,0,0,0,0,0,0,0,0,-0.0234375,-1,0,0,0,0,589

12583,0,0,0,0,0,0,0,0,0,0,0,0,0,-0.0234375,-1,0,0,0,0,590

12603,0,0,0,0,0,0,0,0,0,0,0,0,0,-0.0234375,-1,0,0,0,0,591

12623,0,0,0,0,0,0,0,0,0,0,0,0,0,-0.0234375,-1,0,0,0,0,592

12643,0,0,0,0,0,0,0,0,0,0,0,0,0,-0.0234375,-1,0,0,0,0,593

12663,0,0,0,0,0,0,0,0,0,0,0,0,0,-0.0234375,-1,0,0,0,0,594

12683,0,0,0,0,0,0,0,0,0,0,0,0,0,-0.0234375,-1,0,0,0,0,595

12703,0,0,0,0,0,0,0,0,0,0,0,0,0,-0.0234375,-1,0,0,0,0,596

12723,0,0,0,0,0,0,0,0,0,0,0,0,0,-0.0234375,-1,0,0,0,0,597

12743,0,0,0,0,0,0,0,0,0,0,0,0,0,-0.0234375,-1,0,0,0,0,598

12763,0,0,0,0,0,0,0,0,0,0,0,0,0,-0.0234375,-1,0,0,0,0,599

12783,0,0,0,0,0,0,0,0,0,0,0,0,0,-0.0234375,-1,0,0,0,0,600

12803,0,0,0,0,0,0,0,0,0,0,0,0,0,-0.0234375,-1,0,0,0,0,601

12823,0,0,0,0,0,0,0,0,0,0,0,0,0,-0.0234375,-1,0,0,0,0,602

12843,0,0,0,0,0,0,0,0,0,0,0,0,0,-0.0234375,-1,0,0,0,0,603

12863,0,0,0,0,0,0,0,0,0,0,0,0,0,-0.0234375,-1,0,0,0,0,604

12883,0,0,0,0,0,0,0,0,0,0,0,0,0,-0.0234375,-1,0,0,0,0,605

12903,0,0,0,0,0,0,0,0,0,0,0,0,0,-0.0234375,-1,0,0,0,0,606

12923,0,0,0,0,0,0,0,0,0,0,0,0,0,-0.0234375,-1,0,0,0,0,607

12943,0,0,0,0,0,0,0,0,0,0,0,0,0,-0.0234375,-1,0,0,0,0,608

12963,0,0,0,0,0,0,0,0,0,0,0,0,0,-0.0234375,-1,0,0,0,0,609

12983,0,0,0,0,0,0,0,0,0,0,0,0,0,-0.0234375,-1,0,0,0,0,610

13003,0,0,0,0,0,0,0,0,0,0,0,0,0,-0.0234375,-1,0,0,0,0,611

13023,0,0,0,0,0,0,0,0,0,0,0,0,0,-0.0234375,-1,0,0,0,0,612

13043,0,0,0,0,0,0,0,0,0,0,0,0,0,-0.0234375,-1,0,0,0,0,613

13063,0,0,0,0,0,0,0,0,0,0,0,0,0,-0.0234375,-1,0,0,0,0,614

13083,0,0,0,0,0,0,0,0,0,0,0,0,0,-0.0234375,-1,0,0,0,0,615

13103,0,0,0,0,0,0,0,0,0,0,0,0,0,-0.0234375,-1,0,0,0,0,616

13123,0,0,0,0,0,0,0,0,0,0,0,0,0,-0.0234375,-1,0,0,0,0,617

13143,0,0,0,0,0,0,0,0,0,0,0,0,0,-0.0234375,-1,0,0,0,0,618

13163,0,0,0,0,0,0,0,0,0,0,0,0,0,-0.0234375,-1,0,0,0,0,619

13183,0,0,0,0,0,0,0,0,0,0,0,0,0,-0.0234375,-1,0,0,0,0,620

13203,0,0,0,0,0,0,0,0,0,0,0,0,0,-0.0234375,-1,0,0,0,0,621

13223,0,0,0,0,0,0,0,0,0,0,0,0,0,-0.0234375,-1,0,0,0,0,622

13243,0,0,0,0,0,0,0,0,0,0,0,0,0,-0.0234375,-1,0,0,0,0,623

13263,0,0,0,0,0,0,0,0,0,0,0,0,0,-0.0234375,-1,0,0,0,0,624

13283,0,0,0,0,0,0,0,0,0,0,0,0,0,-0.0234375,-1,0,0,0,0,625

13303,0,0,0,0,0,0,0,0,0,0,0,0,0,-0.0234375,-1,0,0,0,0,626

13323,0,0,0,0,0,0,0,0,0,0,0,0,0,-0.0234375,-1,0,0,0,0,627

13343,0,0,0,0,0,0,0,0,0,0,0,0,0,-0.0234375,-1,0,0,0,0,628

13363,0,0,0,0,0,0,0,0,0,0,0,0,0,-0.0234375,-1,0,0,0,0,629

13383,0,0,0,0,0,0,0,0,0,0,0,0,0,-0.0234375,-1,0,0,0,0,630

13403,0,0,0,0,0,0,0,0,0,0,0,0,0,-0.0234375,-1,0,0,0,0,631

13423,0,0,0,0,0,0,0,0,0,0,0,0,0,-0.0234375,-1,0,0,0,0,632

13443,0,0,0,0,0,0,0,0,0,0,0,0,0,-0.0234375,-1,0,0,0,0,633

13463,0,0,0,0,0,0,0,0,0,0,0,0,0,-0.0234375,-1,0,0,0,0,634

13483,0,0,0,0,0,0,0,0,0,0,0,0,0,-0.0234375,-1,0,0,0,0,635

13503,0,0,0,0,0,0,0,0,0,0,0,0,0,-0.0234375,-1,0,0,0,0,636

13523,0,0,0,0,0,0,0,0,0,0,0,0,0,-0.0234375,-1,0,0,0,0,637

13543,0,0,0,0,0,0,0,0,0,0,0,0,0,-0.0234375,-1,0,0,0,0,638

13563,0,0,0,0,0,0,0,0,0,0,0,0,0,-0.0234375,-1,0,0,0,0,639

13583,0,0,0,0,0,0,0,0,0,0,0,0,0,-0.0234375,-1,0,0,0,0,640

13603,0,0,0,0,0,0,0,0,0,0,0,0,0,-0.0234375,-1,0,0,0,0,641

13623,0,0,0,0,0,0,0,0,0,0,0,0,0,-0.0234375,-1,0,0,0,0,642

13643,0,0,0,0,0,0,0,0,0,0,0,0,0,-0.0234375,-1,0,0,0,0,643

13663,0,0,0,0,0,0,0,0,0,0,0,0,0,-0.0234375,-1,0,0,0,0,644

13683,0,0,0,0,0,0,0,0,0,0,0,0,0,-0.0234375,-1,0,0,0,0,645

13703,0,0,0,0,0,0,0,0,0,0,0,0,0,-0.0234375,-1,0,0,0,0,646

13723,0,0,0,0,0,0,0,0,0,0,0,0,0,-0.0234375,-1,0,0,0,0,647

13743,0,0,0,0,0,0,0,0,0,0,0,0,0,-0.0234375,-1,0,0,0,0,648

13763,0,0,0,0,0,0,0,0,0,0,0,0,0,-0.0234375,-1,0,0,0,0,649

13783,0,0,0,0,0,0,0,0,0,0,0,0,0,-0.0234375,-1,0,0,0,0,650

13803,0,0,0,0,0,0,0,0,0,0,0,0,0,-0.0234375,-1,0,0,0,0,651

13823,0,0,0,0,0,0,0,0,0,0,0,0,0,-0.0234375,-1,0,0,0,0,652

13843,0,0,0,0,0,0,0,0,0,0,0,0,0,-0.0234375,-1,0,0,0,0,653

13863,0,0,0,0,0,0,0,0,0,0,0,0,0,-0.0234375,-1,0,0,0,0,654

13883,0,0,0,0,0,0,0,0,0,0,0,0,0,-0.0234375,-1,0,0,0,0,655

13903,0,0,0,0,0,0,0,0,0,0,0,0,0,-0.0234375,-1,0,0,0,0,656

13923,0,0,0,0,0,0,0,0,0,0,0,0,0,-0.0234375,-1,0,0,0,0,657

13943,0,0,0,0,0,0,0,0,0,0,0,0,0,-0.0234375,-1,0,0,0,0,658

13963,0,0,0,0,0,0,0,0,0,0,0,0,0,-0.0234375,-1,0,0,0,0,659

13983,0,0,0,0,0,0,0,0,0,0,0,0,0,-0.0234375,-1,0,0,0,0,660

14003,0,0,0,0,0,0,0,0,0,0,0,0,0,-0.0234375,-1,0,0,0,0,661

14023,0,0,0,0,0,0,0,0,0,0,0,0,0,-0.0234375,-1,0,0,0,0,662

14043,0,0,0,0,0,0,0,0,0,0,0,0,0,-0.0234375,-1,0,0,0,0,663

14063,0,0,0,0,0,0,0,0,0,0,0,0,0,-0.0234375,-1,0,0,0,0,664

14083,0,0,0,0,0,0,0,0,0,0,0,0,0,-0.0234375,-1,0,0,0,0,665

14103,0,0,0,0,0,0,0,0,0,0,0,0,0,-0.0234375,-1,0,0,0,0,666

14123,0,0,0,0,0,0,0,0,0,0,0,0,0,-0.0234375,-1,0,0,0,0,667

14143,0,0,0,0,0,0,0,0,0,0,0,0,0,-0.0234375,-1,0,0,0,0,668

14163,0,0,0,0,0,0,0,0,0,0,0,0,0,-0.0234375,-1,0,0,0,0,669

14183,0,0,0,0,0,0,0,0,0,0,0,0,0,-0.0234375,-1,0,0,0,0,670

14203,0,0,0,0,0,0,0,0,0,0,0,0,0,-0.0234375,-1,0,0,0,0,671

14223,0,0,0,0,0,0,0,0,0,0,0,0,0,-0.0234375,-1,0,0,0,0,672

14243,0,0,0,0,0,0,0,0,0,0,0,0,0,-0.0234375,-1,0,0,0,0,673

14263,0,0,0,0,0,0,0,0,0,0,0,0,0,-0.0234375,-1,0,0,0,0,674

14283,0,0,0,0,0,0,0,0,0,0,0,0,0,-0.0234375,-1,0,0,0,0,675

14303,0,0,0,0,0,0,0,0,0,0,0,0,0,-0.0234375,-1,0,0,0,0,676

14323,0,0,0,0,0,0,0,0,0,0,0,0,0,-0.0234375,-1,0,0,0,0,677

14343,0,0,0,0,0,0,0,0,0,0,0,0,0,-0.0234375,-1,0,0,0,0,678

14363,0,0,0,0,0,0,0,0,0,0,0,0,0,-0.0234375,-1,0,0,0,0,679

14383,0,0,0,0,0,0,0,0,0,0,0,0,0,-0.0234375,-1,0,0,0,0,680

14403,0,0,0,0,0,0,0,0,0,0,0,0,0,-0.0234375,-1,0,0,0,0,681

14423,0,0,0,0,0,0,0,0,0,0,0,0,0,-0.0234375,-1,0,0,0,0,682

14443,0,0,0,0,0,0,0,0,0,0,0,0,0,-0.0234375,-1,0,0,0,0,683

14463,0,0,0,0,0,0,0,0,0,0,0,0,0,-0.0234375,-1,0,0,0,0,684

14483,0,0,0,0,0,0,0,0,0,0,0,0,0,-0.0234375,-1,0,0,0,0,685

14503,0,0,0,0,0,0,0,0,0,0,0,0,0,-0.0234375,-1,0,0,0,0,686

14523,0,0,0,0,0,0,0,0,0,0,0,0,0,-0.0234375,-1,0,0,0,0,687

14543,0,0,0,0,0,0,0,0,0,0,0,0,0,-0.0234375,-1,0,0,0,0,688

14563,0,0,0,0,0,0,0,0,0,0,0,0,0,-0.0234375,-1,0,0,0,0,689

14583,0,0,0,0,0,0,0,0,0,0,0,0,0,-0.0234375,-1,0,0,0,0,690

14603,0,0,0,0,0,0,0,0,0,0,0,0,0,-0.0234375,-1,0,0,0,0,691

14623,0,0,0,0,0,0,0,0,0,0,0,0,0,-0.0234375,-1,0,0,0,0,692

14643,0,0,0,0,0,0,0,0,0,0,0,0,0,-0.0234375,-1,0,0,0,0,693

14663,0,0,0,0,0,0,0,0,0,0,0,0,0,-0.0234375,-1,0,0,0,0,694

14683,0,0,0,0,0,0,0,0,0,0,0,0,0,-0.0234375,-1,0,0,0,0,695

14703,0,0,0,0,0,0,0,0,0,0,0,0,0,-0.0234375,-1,0,0,0,0,696

14723,0,0,0,0,0,0,0,0,0,0,0,0,0,-0.0234375,-1,0,0,0,0,697

14743,0,0,0,0,0,0,0,0,0,0,0,0,0,-0.0234375,-1,0,0,0,0,698

14763,0,0,0,0,0,0,0,0,0,0,0,0,0,-0.0234375,-1,0,0,0,0,699

14783,0,0,0,0,0,0,0,0,0,0,0,0,0,-0.0234375,-1,0,0,0,0,700

14803,0,0,0,0,0,0,0,0,0,0,0,0,0,-0.0234375,-1,0,0,0,0,701

14823,0,0,0,0,0,0,0,0,0,0,0,0,0,-0.0234375,-1,0,0,0,0,702

14843,0,0,0,0,0,0,0,0,0,0,0,0,0,-0.0234375,-1,0,0,0,0,703

14863,0,0,0,0,0,0,0,0,0,0,0,0,0,-0.0234375,-1,0,0,0,0,704

14883,0,0,0,0,0,0,0,0,0,0,0,0,0,-0.0234375,-1,0,0,0,0,705

14903,0,0,0,0,0,0,0,0,0,0,0,0,0,-0.0234375,-1,0,0,0,0,706

14923,0,0,0,0,0,0,0,0,0,0,0,0,0,-0.0234375,-1,0,0,0,0,707

14943,0,0,0,0,0,0,0,0,0,0,0,0,0,-0.0234375,-1,0,0,0,0,708

14963,0,0,0,0,0,0,0,0,0,0,0,0,0,-0.0234375,-1,0,0,0,0,709

14983,0,0,0,0,0,0,0,0,0,0,0,0,0,-0.0234375,-1,0,0,0,0,710

15003,0,0,0,0,0,0,0,0,0,0,0,0,0,-0.0234375,-1,0,0,0,0,711

15023,0,0,0,0,0,0,0,0,0,0,0,0,0,-0.0234375,-1,0,0,0,0,712

15043,0,0,0,0,0,0,0,0,0,0,0,0,0,-0.0234375,-1,0,0,0,0,713

15063,0,0,0,0,0,0,0,0,0,0,0,0,0,-0.0234375,-1,0,0,0,0,714

15083,0,0,0,0,0,0,0,0,0,0,0,0,0,-0.0234375,-1,0,0,0,0,715

15103,0,0,0,0,0,0,0,0,0,0,0,0,0,-0.0234375,-1,0,0,0,0,716

15123,0,0,0,0,0,0,0,0,0,0,0,0,0,-0.0234375,-1,0,0,0,0,717

15143,0,0,0,0,0,0,0,0,0,0,0,0,0,-0.0234375,-1,0,0,0,0,718

15163,0,0,0,0,0,0,0,0,0,0,0,0,0,-0.0234375,-1,0,0,0,0,719

15183,0,0,0,0,0,0,0,0,0,0,0,0,0,-0.0234375,-1,0,0,0,0,720

15203,0,0,0,0,0,0,0,0,0,0,0,0,0,-0.0234375,-1,0,0,0,0,721

15223,0,0,0,0,0,0,0,0,0,0,0,0,0,-0.0234375,-1,0,0,0,0,722

15243,0,0,0,0,0,0,0,0,0,0,0,0,0,-0.0234375,-1,0,0,0,0,723

15263,0,0,0,0,0,0,0,0,0,0,0,0,0,-0.0234375,-1,0,0,0,0,724

15283,0,0,0,0,0,0,0,0,0,0,0,0,0,-0.0234375,-1,0,0,0,0,725

15303,0,0,0,0,0,0,0,0,0,0,0,0,0,-0.0234375,-1,0,0,0,0,726

15323,0,0,0,0,0,0,0,0,0,0,0,0,0,-0.0234375,-1,0,0,0,0,727

15343,0,0,0,0,0,0,0,0,0,0,0,0,0,-0.0234375,-1,0,0,0,0,728

15363,0,0,0,0,0,0,0,0,0,0,0,0,0,-0.0234375,-1,0,0,0,0,729

15383,0,0,0,0,0,0,0,0,0,0,0,0,0,-0.0234375,-1,0,0,0,0,730

15403,0,0,0,0,0,0,0,0,0,0,0,0,0,-0.0234375,-1,0,0,0,0,731

15423,0,0,0,0,0,0,0,0,0,0,0,0,0,-0.0234375,-1,0,0,0,0,732

15443,0,0,0,0,0,0,0,0,0,0,0,0,0,-0.0234375,-1,0,0,0,0,733

15463,0,0,0,0,0,0,0,0,0,0,0,0,0,-0.0234375,-1,0,0,0,0,734

15483,0,0,0,0,0,0,0,0,0,0,0,0,0,-0.0234375,-1,0,0,0,0,735

15503,0,0,0,0,0,0,0,0,0,0,0,0,0,-0.0234375,-1,0,0,0,0,736

15523,0,0,0,0,0,0,0,0,0,0,0,0,0,-0.0234375,-1,0,0,0,0,737

15543,0,0,0,0,0,0,0,0,0,0,0,0,0,-0.0234375,-1,0,0,0,0,738

15563,0,0,0,0,0,0,0,0,0,0,0,0,0,-0.0234375,-1,0,0,0,0,739

15583,0,0,0,0,0,0,0,0,0,0,0,0,0,-0.0234375,-1,0,0,0,0,740

15603,0,0,0,0,0,0,0,0,0,0,0,0,0,-0.0234375,-1,0,0,0,0,741

15623,0,0,0,0,0,0,0,0,0,0,0,0,0,-0.0234375,-1,0,0,0,0,742

15643,0,0,0,0,0,0,0,0,0,0,0,0,0,-0.0234375,-1,0,0,0,0,743

15663,0,0,0,0,0,0,0,0,0,0,0,0,0,-0.0234375,-1,0,0,0,0,744

15683,0,0,0,0,0,0,0,0,0,0,0,0,0,-0.0234375,-1,0,0,0,0,745

15703,0,0,0,0,0,0,0,0,0,0,0,0,0,-0.0234375,-1,0,0,0,0,746

15723,0,0,0,0,0,0,0,0,0,0,0,0,0,-0.0234375,-1,0,0,0,0,747

15743,0,0,0,0,0,0,0,0,0,0,0,0,0,-0.0234375,-1,0,0,0,0,748

15763,0,0,0,0,0,0,0,0,0,0,0,0,0,-0.0234375,-1,0,0,0,0,749

15783,0,0,0,0,0,0,0,0,0,0,0,0,0,-0.0234375,-1,0,0,0,0,750

15803,0,0,0,0,0,0,0,0,0,0,0,0,0,-0.0234375,-1,0,0,0,0,751

15823,0,0,0,0,0,0,0,0,0,0,0,0,0,-0.0234375,-1,0,0,0,0,752

15843,0,0,0,0,0,0,0,0,0,0,0,0,0,-0.0234375,-1,0,0,0,0,753

15863,0,0,0,0,0,0,0,0,0,0,0,0,0,-0.0234375,-1,0,0,0,0,754

15883,0,0,0,0,0,0,0,0,0,0,0,0,0,-0.0234375,-1,0,0,0,0,755

15903,0,0,0,0,0,0,0,0,0,0,0,0,0,-0.0234375,-1,0,0,0,0,756

15923,0,0,0,0,0,0,0,0,0,0,0,0,0,-0.0234375,-1,0,0,0,0,757

15943,0,0,0,0,0,0,0,0,0,0,0,0,0,-0.0234375,-1,0,0,0,0,758

15963,0,0,0,0,0,0,0,0,0,0,0,0,0,-0.0234375,-1,0,0,0,0,759

15983,0,0,0,0,0,0,0,0,0,0,0,0,0,-0.0234375,-1,0,0,0,0,760

16003,0,0,0,0,0,0,0,0,0,0,0,0,0,-0.0234375,-1,0,0,0,0,761

16023,0,0,0,0,0,0,0,0,0,0,0,0,0,-0.0234375,-1,0,0,0,0,762

16043,0,0,0,0,0,0,0,0,0,0,0,0,0,-0.0234375,-1,0,0,0,0,763

16063,0,0,0,0,0,0,0,0,0,0,0,0,0,-0.0234375,-1,0,0,0,0,764

16083,0,0,0,0,0,0,0,0,0,0,0,0,0,-0.0234375,-1,0,0,0,0,765

16103,0,0,0,0,0,0,0,0,0,0,0,0,0,-0.0234375,-1,0,0,0,0,766

16123,0,0,0,0,0,0,0,0,0,0,0,0,0,-0.0234375,-1,0,0,0,0,767

16143,0,0,0,0,0,0,0,0,0,0,0,0,0,-0.0234375,-1,0,0,0,0,768

16163,0,0,0,0,0,0,0,0,0,0,0,0,0,-0.0234375,-1,0,0,0,0,769

16183,0,0,0,0,0,0,0,0,0,0,0,0,0,-0.0234375,-1,0,0,0,0,770

16203,0,0,0,0,0,0,0,0,0,0,0,0,0,-0.0234375,-1,0,0,0,0,771

16223,0,0,0,0,0,0,0,0,0,0,0,0,0,-0.0234375,-1,0,0,0,0,772

16243,0,0,0,0,0,0,0,0,0,0,0,0,0,-0.0234375,-1,0,0,0,0,773

16263,0,0,0,0,0,0,0,0,0,0,0,0,0,-0.0234375,-1,0,0,0,0,774

16283,0,0,0,0,0,0,0,0,0,0,0,0,0,-0.0234375,-1,0,0,0,0,775

16303,0,0,0,0,0,0,0,0,0,0,0,0,0,-0.0234375,-1,0,0,0,0,776

16323,0,0,0,0,0,0,0,0,0,0,0,0,0,-0.0234375,-1,0,0,0,0,777

16343,0,0,0,0,0,0,0,0,0,0,0,0,0,-0.0234375,-1,0,0,0,0,778

16363,0,0,0,0,0,0,0,0,0,0,0,0,0,-0.0234375,-1,0,0,0,0,779

16383,0,0,0,0,0,0,0,0,0,0,0,0,0,-0.0234375,-1,0,0,0,0,780

16403,0,0,0,0,0,0,0,0,0,0,0,0,0,-0.0234375,-1,0,0,0,0,781

16423,0,0,0,0,0,0,0,0,0,0,0,0,0,-0.0234375,-1,0,0,0,0,782

16443,0,0,0,0,0,0,0,0,0,0,0,0,0,-0.0234375,-1,0,0,0,0,783

16463,0,0,0,0,0,0,0,0,0,0,0,0,0,-0.0234375,-1,0,0,0,0,784

16483,0,0,0,0,0,0,0,0,0,0,0,0,0,-0.0234375,-1,0,0,0,0,785

16503,0,0,0,0,0,0,0,0,0,0,0,0,0,-0.0234375,-1,0,0,0,0,786

16523,0,0,0,0,0,0,0,0,0,0,0,0,0,-0.0234375,-1,0,0,0,0,787

16543,0,0,0,0,0,0,0,0,0,0,0,0,0,-0.0234375,-1,0,0,0,0,788

16563,0,0,0,0,0,0,0,0,0,0,0,0,0,-0.0234375,-1,0,0,0,0,789

16583,0,0,0,0,0,0,0,0,0,0,0,0,0,-0.0234375,-1,0,0,0,0,790

16603,0,0,0,0,0,0,0,0,0,0,0,0,0,-0.0234375,-1,0,0,0,0,791

16623,0,0,0,0,0,0,0,0,0,0,0,0,0,-0.0234375,-1,0,0,0,0,792

16643,0,0,0,0,0,0,0,0,0,0,0,0,0,-0.0234375,-1,0,0,0,0,793

16663,0,0,0,0,0,0,0,0,0,0,0,0,0,-0.0234375,-1,0,0,0,0,794

16683,0,0,0,0,0,0,0,0,0,0,0,0,0,-0.0234375,-1,0,0,0,0,795

16703,0,0,0,0,0,0,0,0,0,0,0,0,0,-0.0234375,-1,0,0,0,0,796

16723,0,0,0,0,0,0,0,0,0,0,0,0,0,-0.0234375,-1,0,0,0,0,797

16743,0,0,0,0,0,0,0,0,0,0,0,0,0,-0.0234375,-1,0,0,0,0,798

16763,0,0,0,0,0,0,0,0,0,0,0,0,0,-0.0234375,-1,0,0,0,0,799

16783,0,0,0,0,0,0,0,0,0,0,0,0,0,-0.0234375,-1,0,0,0,0,800

16803,0,0,0,0,0,0,0,0,0,0,0,0,0,-0.0234375,-1,0,0,0,0,801

16823,0,0,0,0,0,0,0,0,0,0,0,0,0,-0.0234375,-1,0,0,0,0,802

16843,0,0,0,0,0,0,0,0,0,0,0,0,0,-0.0234375,-1,0,0,0,0,803

16863,0,0,0,0,0,0,0,0,0,0,0,0,0,-0.0234375,-1,0,0,0,0,804

16883,0,0,0,0,0,0,0,0,0,0,0,0,0,-0.0234375,-1,0,0,0,0,805

16903,0,0,0,0,0,0,0,0,0,0,0,0,0,-0.0234375,-1,0,0,0,0,806

16923,0,0,0,0,0,0,0,0,0,0,0,0,0,-0.0234375,-1,0,0,0,0,807

16943,0,0,0,0,0,0,0,0,0,0,0,0,0,-0.0234375,-1,0,0,0,0,808

16963,0,0,0,0,0,0,0,0,0,0,0,0,0,-0.0234375,-1,0,0,0,0,809

16983,0,0,0,0,0,0,0,0,0,0,0,0,0,-0.0234375,-1,0,0,0,0,810

17003,0,0,0,0,0,0,0,0,0,0,0,0,0,-0.0234375,-1,0,0,0,0,811

17023,0,0,0,0,0,0,0,0,0,0,0,0,0,-0.0234375,-1,0,0,0,0,812

17043,0,0,0,0,0,0,0,0,0,0,0,0,0,-0.0234375,-1,0,0,0,0,813

17063,0,0,0,0,0,0,0,0,0,0,0,0,0,-0.0234375,-1,0,0,0,0,814

17083,0,0,0,0,0,0,0,0,0,0,0,0,0,-0.0234375,-1,0,0,0,0,815

17103,0,0,0,0,0,0,0,0,0,0,0,0,0,-0.0234375,-1,0,0,0,0,816

17123,0,0,0,0,0,0,0,0,0,0,0,0,0,-0.0234375,-1,0,0,0,0,817

17143,0,0,0,0,0,0,0,0,0,0,0,0,0,-0.0234375,-1,0,0,0,0,818

17163,0,0,0,0,0,0,0,0,0,0,0,0,0,-0.0234375,-1,0,0,0,0,819

17183,0,0,0,0,0,0,0,0,0,0,0,0,0,-0.0234375,-1,0,0,0,0,820

17203,0,0,0,0,0,0,0,0,0,0,0,0,0,-0.0234375,-1,0,0,0,0,821

17223,0,0,0,0,0,0,0,0,0,0,0,0,0,-0.0234375,-1,0,0,0,0,822

17243,0,0,0,0,0,0,0,0,0,0,0,0,0,-0.0234375,-1,0,0,0,0,823

17263,0,0,0,0,0,0,0,0,0,0,0,0,0,-0.0234375,-1,0,0,0,0,824

17283,0,0,0,0,0,0,0,0,0,0,0,0,0,-0.0234375,-1,0,0,0,0,825

17303,0,0,0,0,0,0,0,0,0,0,0,0,0,-0.0234375,-1,0,0,0,0,826

17323,0,0,0,0,0,0,0,0,0,0,0,0,0,-0.0234375,-1,0,0,0,0,827

17343,0,0,0,0,0,0,0,0,0,0,0,0,0,-0.0234375,-1,0,0,0,0,828

17363,0,0,0,0,0,0,0,0,0,0,0,0,0,-0.0234375,-1,0,0,0,0,829

17383,0,0,0,0,0,0,0,0,0,0,0,0,0,-0.0234375,-1,0,0,0,0,830

17403,0,0,0,0,0,0,0,0,0,0,0,0,0,-0.0234375,-1,0,0,0,0,831

17423,0,0,0,0,0,0,0,0,0,0,0,0,0,-0.0234375,-1,0,0,0,0,832

17443,0,0,0,0,0,0,0,0,0,0,0,0,0,-0.0234375,-1,0,0,0,0,833

17463,0,0,0,0,0,0,0,0,0,0,0,0,0,-0.0234375,-1,0,0,0,0,834

17483,0,0,0,0,0,0,0,0,0,0,0,0,0,-0.0234375,-1,0,0,0,0,835

17503,0,0,0,0,0,0,0,0,0,0,0,0,0,-0.0234375,-1,0,0,0,0,836

17523,0,0,0,0,0,0,0,0,0,0,0,0,0,-0.0234375,-1,0,0,0,0,837

17543,0,0,0,0,0,0,0,0,0,0,0,0,0,-0.0234375,-1,0,0,0,0,838

17563,0,0,0,0,0,0,0,0,0,0,0,0,0,-0.0234375,-1,0,0,0,0,839

17583,0,0,0,0,0,0,0,0,0,0,0,0,0,-0.0234375,-1,0,0,0,0,840

17603,0,0,0,0,0,0,0,0,0,0,0,0,0,-0.0234375,-1,0,0,0,0,841

17623,0,0,0,0,0,0,0,0,0,0,0,0,0,-0.0234375,-1,0,0,0,0,842

17643,0,0,0,0,0,0,0,0,0,0,0,0,0,-0.0234375,-1,0,0,0,0,843

17663,0,0,0,0,0,0,0,0,0,0,0,0,0,-0.0234375,-1,0,0,0,0,844

17683,0,0,0,0,0,0,0,0,0,0,0,0,0,-0.0234375,-1,0,0,0,0,845

17703,0,0,0,0,0,0,0,0,0,0,0,0,0,-0.0234375,-1,0,0,0,0,846

17723,0,0,0,0,0,0,0,0,0,0,0,0,0,-0.0234375,-1,0,0,0,0,847

17743,0,0,0,0,0,0,0,0,0,0,0,0,0,-0.0234375,-1,0,0,0,0,848

17763,0,0,0,0,0,0,0,0,0,0,0,0,0,-0.0234375,-1,0,0,0,0,849

17783,0,0,0,0,0,0,0,0,0,0,0,0,0,-0.0234375,-1,0,0,0,0,850

17803,0,0,0,0,0,0,0,0,0,0,0,0,0,-0.0234375,-1,0,0,0,0,851

17823,0,0,0,0,0,0,0,0,0,0,0,0,0,-0.0234375,-1,0,0,0,0,852

17843,0,0,0,0,0,0,0,0,0,0,0,0,0,-0.0234375,-1,0,0,0,0,853

17863,0,0,0,0,0,0,0,0,0,0,0,0,0,-0.0234375,-1,0,0,0,0,854

17883,0,0,0,0,0,0,0,0,0,0,0,0,0,-0.0234375,-1,0,0,0,0,855

17903,0,0,0,0,0,0,0,0,0,0,0,0,0,-0.0234375,-1,0,0,0,0,856

17923,0,0,0,0,0,0,0,0,0,0,0,0,0,-0.0234375,-1,0,0,0,0,857

17943,0,0,0,0,0,0,0,0,0,0,0,0,0,-0.0234375,-1,0,0,0,0,858

17963,0,0,0,0,0,0,0,0,0,0,0,0,0,-0.0234375,-1,0,0,0,0,859

17983,0,0,0,0,0,0,0,0,0,0,0,0,0,-0.0234375,-1,0,0,0,0,860

18003,0,0,0,0,0,0,0,0,0,0,0,0,0,-0.0234375,-1,0,0,0,0,861

18023,0,0,0,0,0,0,0,0,0,0,0,0,0,-0.0234375,-1,0,0,0,0,862

18043,0,0,0,0,0,0,0,0,0,0,0,0,0,-0.0234375,-1,0,0,0,0,863

18063,0,0,0,0,0,0,0,0,0,0,0,0,0,-0.0234375,-1,0,0,0,0,864

18083,0,0,0,0,0,0,0,0,0,0,0,0,0,-0.0234375,-1,0,0,0,0,865

18103,0,0,0,0,0,0,0,0,0,0,0,0,0,-0.0234375,-1,0,0,0,0,866

18123,0,0,0,0,0,0,0,0,0,0,0,0,0,-0.0234375,-1,0,0,0,0,867

18143,0,0,0,0,0,0,0,0,0,0,0,0,0,-0.0234375,-1,0,0,0,0,868

18163,0,0,0,0,0,0,0,0,0,0,0,0,0,-0.0234375,-1,0,0,0,0,869

18183,0,0,0,0,0,0,0,0,0,0,0,0,0,-0.0234375,-1,0,0,0,0,870

18203,0,0,0,0,0,0,0,0,0,0,0,0,0,-0.0234375,-1,0,0,0,0,871

18223,0,0,0,0,0,0,0,0,0,0,0,0,0,-0.0234375,-1,0,0,0,0,872

18243,0,0,0,0,0,0,0,0,0,0,0,0,0,-0.0234375,-1,0,0,0,0,873

18263,0,0,0,0,0,0,0,0,0,0,0,0,0,-0.0234375,-1,0,0,0,0,874

18283,0,0,0,0,0,0,0,0,0,0,0,0,0,-0.0234375,-1,0,0,0,0,875

18303,0,0,0,0,0,0,0,0,0,0,0,0,0,-0.0234375,-1,0,0,0,0,876

18323,0,0,0,0,0,0,0,0,0,0,0,0,0,-0.0234375,-1,0,0,0,0,877

18343,0,0,0,0,0,0,0,0,0,0,0,0,0,-0.0234375,-1,0,0,0,0,878

18363,0,0,0,0,0,0,0,0,0,0,0,0,0,-0.0234375,-1,0,0,0,0,879

18383,0,0,0,0,0,0,0,0,0,0,0,0,0,-0.0234375,-1,0,0,0,0,880

18403,0,0,0,0,0,0,0,0,0,0,0,0,0,-0.0234375,-1,0,0,0,0,881

18423,0,0,0,0,0,0,0,0,0,0,0,0,0,-0.0234375,-1,0,0,0,0,882

18443,0,0,0,0,0,0,0,0,0,0,0,0,0,-0.0234375,-1,0,0,0,0,883

18463,0,0,0,0,0,0,0,0,0,0,0,0,0,-0.0234375,-1,0,0,0,0,884

18483,0,0,0,0,0,0,0,0,0,0,0,0,0,-0.0234375,-1,0,0,0,0,885

18503,0,0,0,0,0,0,0,0,0,0,0,0,0,-0.0234375,-1,0,0,0,0,886

18523,0,0,0,0,0,0,0,0,0,0,0,0,0,-0.0234375,-1,0,0,0,0,887

18543,0,0,0,0,0,0,0,0,0,0,0,0,0,-0.0234375,-1,0,0,0,0,888

18563,0,0,0,0,0,0,0,0,0,0,0,0,0,-0.0234375,-1,0,0,0,0,889

18583,0,0,0,0,0,0,0,0,0,0,0,0,0,-0.0234375,-1,0,0,0,0,890

18603,0,0,0,0,0,0,0,0,0,0,0,0,0,-0.0234375,-1,0,0,0,0,891

18623,0,0,0,0,0,0,0,0,0,0,0,0,0,-0.0234375,-1,0,0,0,0,892

18643,0,0,0,0,0,0,0,0,0,0,0,0,0,-0.0234375,-1,0,0,0,0,893

18663,0,0,0,0,0,0,0,0,0,0,0,0,0,-0.0234375,-1,0,0,0,0,894

18683,0,0,0,0,0,0,0,0,0,0,0,0,0,-0.0234375,-1,0,0,0,0,895

18703,0,0,0,0,0,0,0,0,0,0,0,0,0,-0.0234375,-1,0,0,0,0,896

18723,0,0,0,0,0,0,0,0,0,0,0,0,0,-0.0234375,-1,0,0,0,0,897

18743,0,0,0,0,0,0,0,0,0,0,0,0,0,-0.0234375,-1,0,0,0,0,898

18763,0,0,0,0,0,0,0,0,0,0,0,0,0,-0.0234375,-1,0,0,0,0,899

18783,0,0,0,0,0,0,0,0,0,0,0,0,0,-0.0234375,-1,0,0,0,0,900

18803,0,0,0,0,0,0,0,0,0,0,0,0,0,-0.0234375,-1,0,0,0,0,901

18823,0,0,0,0,0,0,0,0,0,0,0,0,0,-0.0234375,-1,0,0,0,0,902

18843,0,0,0,0,0,0,0,0,0,0,0,0,0,-0.0234375,-1,0,0,0,0,903

18863,0,0,0,0,0,0,0,0,0,0,0,0,0,-0.0234375,-1,0,0,0,0,904

18883,0,0,0,0,0,0,0,0,0,0,0,0,0,-0.0234375,-1,0,0,0,0,905

18903,0,0,0,0,0,0,0,0,0,0,0,0,0,-0.0234375,-1,0,0,0,0,906

18923,0,0,0,0,0,0,0,0,0,0,0,0,0,-0.0234375,-1,0,0,0,0,907

18943,0,0,0,0,0,0,0,0,0,0,0,0,0,-0.0234375,-1,0,0,0,0,908

18963,0,0,0,0,0,0,0,0,0,0,0,0,0,-0.0234375,-1,0,0,0,0,909

18983,0,0,0,0,0,0,0,0,0,0,0,0,0,-0.0234375,-1,0,0,0,0,910

19003,0,0,0,0,0,0,0,0,0,0,0,0,0,-0.0234375,-1,0,0,0,0,911

19023,0,0,0,0,0,0,0,0,0,0,0,0,0,-0.0234375,-1,0,0,0,0,912

19043,0,0,0,0,0,0,0,0,0,0,0,0,0,-0.0234375,-1,0,0,0,0,913

19063,0,0,0,0,0,0,0,0,0,0,0,0,0,-0.0234375,-1,0,0,0,0,914

19083,0,0,0,0,0,0,0,0,0,0,0,0,0,-0.0234375,-1,0,0,0,0,915

19103,0,0,0,0,0,0,0,0,0,0,0,0,0,-0.0234375,-1,0,0,0,0,916

19123,0,0,0,0,0,0,0,0,0,0,0,0,0,-0.0234375,-1,0,0,0,0,917

19143,0,0,0,0,0,0,0,0,0,0,0,0,0,-0.0234375,-1,0,0,0,0,918

19163,0,0,0,0,0,0,0,0,0,0,0,0,0,-0.0234375,-1,0,0,0,0,919

19183,0,0,0,0,0,0,0,0,0,0,0,0,0,-0.0234375,-1,0,0,0,0,920

19203,0,0,0,0,0,0,0,0,0,0,0,0,0,-0.0234375,-1,0,0,0,0,921

19223,0,0,0,0,0,0,0,0,0,0,0,0,0,-0.0234375,-1,0,0,0,0,922

19243,0,0,0,0,0,0,0,0,0,0,0,0,0,-0.0234375,-1,0,0,0,0,923

19263,0,0,0,0,0,0,0,0,0,0,0,0,0,-0.0234375,-1,0,0,0,0,924

19283,0,0,0,0,0,0,0,0,0,0,0,0,0,-0.0234375,-1,0,0,0,0,925

19303,0,0,0,0,0,0,0,0,0,0,0,0,0,-0.0234375,-1,0,0,0,0,926

19323,0,0,0,0,0,0,0,0,0,0,0,0,0,-0.0234375,-1,0,0,0,0,927

19343,0,0,0,0,0,0,0,0,0,0,0,0,0,-0.0234375,-1,0,0,0,0,928

19363,0,0,0,0,0,0,0,0,0,0,0,0,0,-0.0234375,-1,0,0,0,0,929

19383,0,0,0,0,0,0,0,0,0,0,0,0,0,-0.0234375,-1,0,0,0,0,930

19403,0,0,0,0,0,0,0,0,0,0,0,0,0,-0.0234375,-1,0,0,0,0,931

19423,0,0,0,0,0,0,0,0,0,0,0,0,0,-0.0234375,-1,0,0,0,0,932

19443,0,0,0,0,0,0,0,0,0,0,0,0,0,-0.0234375,-1,0,0,0,0,933

19463,0,0,0,0,0,0,0,0,0,0,0,0,0,-0.0234375,-1,0,0,0,0,934

19483,0,0,0,0,0,0,0,0,0,0,0,0,0,-0.0234375,-1,0,0,0,0,935

19503,0,0,0,0,0,0,0,0,0,0,0,0,0,-0.0234375,-1,0,0,0,0,936

19523,0,0,0,0,0,0,0,0,0,0,0,0,0,-0.0234375,-1,0,0,0,0,937

19543,0,0,0,0,0,0,0,0,0,0,0,0,0,-0.0234375,-1,0,0,0,0,938

19563,0,0,0,0,0,0,0,0,0,0,0,0,0,-0.0234375,-1,0,0,0,0,939

19583,0,0,0,0,0,0,0,0,0,0,0,0,0,-0.0234375,-1,0,0,0,0,940

19603,0,0,0,0,0,0,0,0,0,0,0,0,0,-0.0234375,-1,0,0,0,0,941

19623,0,0,0,0,0,0,0,0,0,0,0,0,0,-0.0234375,-1,0,0,0,0,942

19643,0,0,0,0,0,0,0,0,0,0,0,0,0,-0.0234375,-1,0,0,0,0,943

19663,0,0,0,0,0,0,0,0,0,0,0,0,0,-0.0234375,-1,0,0,0,0,944

19683,0,0,0,0,0,0,0,0,0,0,0,0,0,-0.0234375,-1,0,0,0,0,945

19703,0,0,0,0,0,0,0,0,0,0,0,0,0,-0.0234375,-1,0,0,0,0,946

19723,0,0,0,0,0,0,0,0,0,0,0,0,0,-0.0234375,-1,0,0,0,0,947

19743,0,0,0,0,0,0,0,0,0,0,0,0,0,-0.0234375,-1,0,0,0,0,948

19763,0,0,0,0,0,0,0,0,0,0,0,0,0,-0.0234375,-1,0,0,0,0,949

19783,0,0,0,0,0,0,0,0,0,0,0,0,0,-0.0234375,-1,0,0,0,0,950

19803,0,0,0,0,0,0,0,0,0,0,0,0,0,-0.0234375,-1,0,0,0,0,951

19823,0,0,0,0,0,0,0,0,0,0,0,0,0,-0.0234375,-1,0,0,0,0,952

19843,0,0,0,0,0,0,0,0,0,0,0,0,0,-0.0234375,-1,0,0,0,0,953

19863,0,0,0,0,0,0,0,0,0,0,0,0,0,-0.0234375,-1,0,0,0,0,954

19883,0,0,0,0,0,0,0,0,0,0,0,0,0,-0.0234375,-1,0,0,0,0,955

19903,0,0,0,0,0,0,0,0,0,0,0,0,0,-0.0234375,-1,0,0,0,0,956

19923,0,0,0,0,0,0,0,0,0,0,0,0,0,-0.0234375,-1,0,0,0,0,957

19943,0,0,0,0,0,0,0,0,0,0,0,0,0,-0.0234375,-1,0,0,0,0,958

19963,0,0,0,0,0,0,0,0,0,0,0,0,0,-0.0234375,-1,0,0,0,0,959

19983,0,0,0,0,0,0,0,0,0,0,0,0,0,-0.0234375,-1,0,0,0,0,960

20003,0,0,0,0,0,0,0,0,0,0,0,0,0,-0.0234375,-1,0,0,0,0,961

20023,0,0,0,0,0,0,0,0,0,0,0,0,0,-0.0234375,-1,0,0,0,0,962

20043,0,0,0,0,0,0,0,0,0,0,0,0,0,-0.0234375,-1,0,0,0,0,963

20063,0,0,0,0,0,0,0,0,0,0,0,0,0,-0.0234375,-1,0,0,0,0,964

20083,0,0,0,0,0,0,0,0,0,0,0,0,0,-0.0234375,-1,0,0,0,0,965

20103,0,0,0,0,0,0,0,0,0,0,0,0,0,-0.0234375,-1,0,0,0,0,966

20123,0,0,0,0,0,0,0,0,0,0,0,0,0,-0.0234375,-1,0,0,0,0,967

20143,0,0,0,0,0,0,0,0,0,0,0,0,0,-0.0234375,-1,0,0,0,0,968

20163,0,0,0,0,0,0,0,0,0,0,0,0,0,-0.0234375,-1,0,0,0,0,969

20183,0,0,0,0,0,0,0,0,0,0,0,0,0,-0.0234375,-1,0,0,0,0,970

20203,0,0,0,0,0,0,0,0,0,0,0,0,0,-0.0234375,-1,0,0,0,0,971

20223,0,0,0,0,0,0,0,0,0,0,0,0,0,-0.0234375,-1,0,0,0,0,972

20243,0,0,0,0,0,0,0,0,0,0,0,0,0,-0.0234375,-1,0,0,0,0,973

20263,0,0,0,0,0,0,0,0,0,0,0,0,0,-0.0234375,-1,0,0,0,0,974

20283,0,0,0,0,0,0,0,0,0,0,0,0,0,-0.0234375,-1,0,0,0,0,975

20303,0,0,0,0,0,0,0,0,0,0,0,0,0,-0.0234375,-1,0,0,0,0,976

20323,0,0,0,0,0,0,0,0,0,0,0,0,0,-0.0234375,-1,0,0,0,0,977

20343,0,0,0,0,0,0,0,0,0,0,0,0,0,-0.0234375,-1,0,0,0,0,978

20363,0,0,0,0,0,0,0,0,0,0,0,0,0,-0.0234375,-1,0,0,0,0,979

20383,0,0,0,0,0,0,0,0,0,0,0,0,0,-0.0234375,-1,0,0,0,0,980

20403,0,0,0,0,0,0,0,0,0,0,0,0,0,-0.0234375,-1,0,0,0,0,981

20423,0,0,0,0,0,0,0,0,0,0,0,0,0,-0.0234375,-1,0,0,0,0,982

20443,0,0,0,0,0,0,0,0,0,0,0,0,0,-0.0234375,-1,0,0,0,0,983

20463,0,0,0,0,0,0,0,0,0,0,0,0,0,-0.0234375,-1,0,0,0,0,984

20483,0,0,0,0,0,0,0,0,0,0,0,0,0,-0.0234375,-1,0,0,0,0,985

20503,0,0,0,0,0,0,0,0,0,0,0,0,0,-0.0234375,-1,0,0,0,0,986

20523,0,0,0,0,0,0,0,0,0,0,0,0,0,-0.0234375,-1,0,0,0,0,987

20543,0,0,0,0,0,0,0,0,0,0,0,0,0,-0.0234375,-1,0,0,0,0,988

20563,0,0,0,0,0,0,0,0,0,0,0,0,0,-0.0234375,-1,0,0,0,0,989

20583,0,0,0,0,0,0,0,0,0,0,0,0,0,-0.0234375,-1,0,0,0,0,990

20603,0,0,0,0,0,0,0,0,0,0,0,0,0,-0.0234375,-1,0,0,0,0,991

20623,0,0,0,0,0,0,0,0,0,0,0,0,0,-0.0234375,-1,0,0,0,0,992

20643,0,0,0,0,0,0,0,0,0,0,0,0,0,-0.0234375,-1,0,0,0,0,993

20663,0,0,0,0,0,0,0,0,0,0,0,0,0,-0.0234375,-1,0,0,0,0,994

20683,0,0,0,0,0,0,0,0,0,0,0,0,0,-0.0234375,-1,0,0,0,0,995

20703,0,0,0,0,0,0,0,0,0,0,0,0,0,-0.0234375,-1,0,0,0,0,996

20723,0,0,0,0,0,0,0,0,0,0,0,0,0,-0.0234375,-1,0,0,0,0,997

20743,0,0,0,0,0,0,0,0,0,0,0,0,0,-0.0234375,-1,0,0,0,0,998

20763,0,0,0,0,0,0,0,0,0,0,0,0,0,-0.0234375,-1,0,0,0,0,999

20783,0,0,0,0,0,0,0,0,0,0,0,0,0,-0.0234375,-1,0,0,0,0,1000

20803,0,0,0,0,0,0,0,0,0,0,0,0,0,-0.0234375,-1,0,0,0,0,1001

20823,0,0,0,0,0,0,0,0,0,0,0,0,0,-0.0234375,-1,0,0,0,0,1002

20843,0,0,0,0,0,0,0,0,0,0,0,0,0,-0.0234375,-1,0,0,0,0,1003

20863,0,0,0,0,0,0,0,0,0,0,0,0,0,-0.0234375,-1,0,0,0,0,1004

20883,0,0,0,0,0,0,0,0,0,0,0,0,0,-0.0234375,-1,0,0,0,0,1005

20903,0,0,0,0,0,0,0,0,0,0,0,0,0,-0.0234375,-1,0,0,0,0,1006

20923,0,0,0,0,0,0,0,0,0,0,0,0,0,-0.0234375,-1,0,0,0,0,1007

20943,0,0,0,0,0,0,0,0,0,0,0,0,0,-0.0234375,-1,0,0,0,0,1008

20963,0,0,0,0,0,0,0,0,0,0,0,0,0,-0.0234375,-1,0,0,0,0,1009

20983,0,0,0,0,0,0,0,0,0,0,0,0,0,-0.0234375,-1,0,0,0,0,1010

21003,0,0,0,0,0,0,0,0,0,0,0,0,0,-0.0234375,-1,0,0,0,0,1011

21023,0,0,0,0,0,0,0,0,0,0,0,0,0,-0.0234375,-1,0,0,0,0,1012

21043,0,0,0,0,0,0,0,0,0,0,0,0,0,-0.0234375,-1,0,0,0,0,1013

21063,0,0,0,0,0,0,0,0,0,0,0,0,0,-0.0234375,-1,0,0,0,0,1014

21083,0,0,0,0,0,0,0,0,0,0,0,0,0,-0.0234375,-1,0,0,0,0,1015

21103,0,0,0,0,0,0,0,0,0,0,0,0,0,-0.0234375,-1,0,0,0,0,1016

21123,0,0,0,0,0,0,0,0,0,0,0,0,0,-0.0234375,-1,0,0,0,0,1017

21143,0,0,0,0,0,0,0,0,0,0,0,0,0,-0.0234375,-1,0,0,0,0,1018

21163,0,0,0,0,0,0,0,0,0,0,0,0,0,-0.0234375,-1,0,0,0,0,1019

21183,0,0,0,0,0,0,0,0,0,0,0,0,0,-0.0234375,-1,0,0,0,0,1020

21203,0,0,0,0,0,0,0,0,0,0,0,0,0,-0.0234375,-1,0,0,0,0,1021

21223,0,0,0,0,0,0,0,0,0,0,0,0,0,-0.0234375,-1,0,0,0,0,1022

21243,0,0,0,0,0,0,0,0,0,0,0,0,0,-0.0234375,-1,0,0,0,0,1023

21263,0,0,0,0,0,0,0,0,0,0,0,0,0,-0.0234375,-1,0,0,0,0,1024

21283,0,0,0,0,0,0,0,0,0,0,0,0,0,-0.0234375,-1,0,0,0,0,1025

21303,0,0,0,0,0,0,0,0,0,0,0,0,0,-0.0234375,-1,0,0,0,0,1026

21323,0,0,0,0,0,0,0,0,0,0,0,0,0,-0.0234375,-1,0,0,0,0,1027

21343,0,0,0,0,0,0,0,0,0,0,0,0,0,-0.0234375,-1,0,0,0,0,1028

21363,0,0,0,0,0,0,0,0,0,0,0,0,0,-0.0234375,-1,0,0,0,0,1029

21383,0,0,0,0,0,0,0,0,0,0,0,0,0,-0.0234375,-1,0,0,0,0,1030

21403,0,0,0,0,0,0,0,0,0,0,0,0,0,-0.0234375,-1,0,0,0,0,1031

21423,0,0,0,0,0,0,0,0,0,0,0,0,0,-0.0234375,-1,0,0,0,0,1032

21443,0,0,0,0,0,0,0,0,0,0,0,0,0,-0.0234375,-1,0,0,0,0,1033

21463,0,0,0,0,0,0,0,0,0,0,0,0,0,-0.0234375,-1,0,0,0,0,1034

21483,0,0,0,0,0,0,0,0,0,0,0,0,0,-0.0234375,-1,0,0,0,0,1035

21503,0,0,0,0,0,0,0,0,0,0,0,0,0,-0.0234375,-1,0,0,0,0,1036

21523,0,0,0,0,0,0,0,0,0,0,0,0,0,-0.0234375,-1,0,0,0,0,1037

21543,0,0,0,0,0,0,0,0,0,0,0,0,0,-0.0234375,-1,0,0,0,0,1038

21563,0,0,0,0,0,0,0,0,0,0,0,0,0,-0.0234375,-1,0,0,0,0,1039

21583,0,0,0,0,0,0,0,0,0,0,0,0,0,-0.0234375,-1,0,0,0,0,1040

21603,0,0,0,0,0,0,0,0,0,0,0,0,0,-0.0234375,-1,0,0,0,0,1041

21623,0,0,0,0,0,0,0,0,0,0,0,0,0,-0.0234375,-1,0,0,0,0,1042

21643,0,0,0,0,0,0,0,0,0,0,0,0,0,-0.0234375,-1,0,0,0,0,1043

21663,0,0,0,0,0,0,0,0,0,0,0,0,0,-0.0234375,-1,0,0,0,0,1044

21683,0,0,0,0,0,0,0,0,0,0,0,0,0,-0.0234375,-1,0,0,0,0,1045

21703,0,0,0,0,0,0,0,0,0,0,0,0,0,-0.0234375,-1,0,0,0,0,1046

21723,0,0,0,0,0,0,0,0,0,0,0,0,0,-0.0234375,-1,0,0,0,0,1047

21743,0,0,0,0,0,0,0,0,0,0,0,0,0,-0.0234375,-1,0,0,0,0,1048

21763,0,0,0,0,0,0,0,0,0,0,0,0,0,-0.0234375,-1,0,0,0,0,1049

21783,0,0,0,0,0,0,0,0,0,0,0,0,0,-0.0234375,-1,0,0,0,0,1050

21803,0,0,0,0,0,0,0,0,0,0,0,0,0,-0.0234375,-1,0,0,0,0,1051

21823,0,0,0,0,0,0,0,0,0,0,0,0,0,-0.0234375,-1,0,0,0,0,1052

21843,0,0,0,0,0,0,0,0,0,0,0,0,0,-0.0234375,-1,0,0,0,0,1053

21863,0,0,0,0,0,0,0,0,0,0,0,0,0,-0.0234375,-1,0,0,0,0,1054

21883,0,0,0,0,0,0,0,0,0,0,0,0,0,-0.0234375,-1,0,0,0,0,1055

21903,0,0,0,0,0,0,0,0,0,0,0,0,0,-0.0234375,-1,0,0,0,0,1056

21923,0,0,0,0,0,0,0,0,0,0,0,0,0,-0.0234375,-1,0,0,0,0,1057

21943,0,0,0,0,0,0,0,0,0,0,0,0,0,-0.0234375,-1,0,0,0,0,1058

21963,0,0,0,0,0,0,0,0,0,0,0,0,0,-0.0234375,-1,0,0,0,0,1059

21983,0,0,0,0,0,0,0,0,0,0,0,0,0,-0.0234375,-1,0,0,0,0,1060

22003,0,0,0,0,0,0,0,0,0,0,0,0,0,-0.0234375,-1,0,0,0,0,1061

22023,0,0,0,0,0,0,0,0,0,0,0,0,0,-0.0234375,-1,0,0,0,0,1062

22043,0,0,0,0,0,0,0,0,0,0,0,0,0,-0.0234375,-1,0,0,0,0,1063

22063,0,0,0,0,0,0,0,0,0,0,0,0,0,-0.0234375,-1,0,0,0,0,1064

22083,0,0,0,0,0,0,0,0,0,0,0,0,0,-0.0234375,-1,0,0,0,0,1065

22103,0,0,0,0,0,0,0,0,0,0,0,0,0,-0.0234375,-1,0,0,0,0,1066

22123,0,0,0,0,0,0,0,0,0,0,0,0,0,-0.0234375,-1,0,0,0,0,1067

22143,0,0,0,0,0,0,0,0,0,0,0,0,0,-0.0234375,-1,0,0,0,0,1068

22163,0,0,0,0,0,0,0,0,0,0,0,0,0,-0.0234375,-1,0,0,0,0,1069

22183,0,0,0,0,0,0,0,0,0,0,0,0,0,-0.0234375,-1,0,0,0,0,1070

22203,0,0,0,0,0,0,0,0,0,0,0,0,0,-0.0234375,-1,0,0,0,0,1071

22223,0,0,0,0,0,0,0,0,0,0,0,0,0,-0.0234375,-1,0,0,0,0,1072

22243,0,0,0,0,0,0,0,0,0,0,0,0,0,-0.0234375,-1,0,0,0,0,1073

22263,0,0,0,0,0,0,0,0,0,0,0,0,0,-0.0234375,-1,0,0,0,0,1074

22283,0,0,0,0,0,0,0,0,0,0,0,0,0,-0.0234375,-1,0,0,0,0,1075

22303,0,0,0,0,0,0,0,0,0,0,0,0,0,-0.0234375,-1,0,0,0,0,1076

22323,0,0,0,0,0,0,0,0,0,0,0,0,0,-0.0234375,-1,0,0,0,0,1077

22343,0,0,0,0,0,0,0,0,0,0,0,0,0,-0.0234375,-1,0,0,0,0,1078

22363,0,0,0,0,0,0,0,0,0,0,0,0,0,-0.0234375,-1,0,0,0,0,1079

22383,0,0,0,0,0,0,0,0,0,0,0,0,0,-0.0234375,-1,0,0,0,0,1080

22403,0,0,0,0,0,0,0,0,0,0,0,0,0,-0.0234375,-1,0,0,0,0,1081

22423,0,0,0,0,0,0,0,0,0,0,0,0,0,-0.0234375,-1,0,0,0,0,1082

22443,0,0,0,0,0,0,0,0,0,0,0,0,0,-0.0234375,-1,0,0,0,0,1083

22463,0,0,0,0,0,0,0,0,0,0,0,0,0,-0.0234375,-1,0,0,0,0,1084

22483,0,0,0,0,0,0,0,0,0,0,0,0,0,-0.0234375,-1,0,0,0,0,1085

22503,0,0,0,0,0,0,0,0,0,0,0,0,0,-0.0234375,-1,0,0,0,0,1086

22523,0,0,0,0,0,0,0,0,0,0,0,0,0,-0.0234375,-1,0,0,0,0,1087

22543,0,0,0,0,0,0,0,0,0,0,0,0,0,-0.0234375,-1,0,0,0,0,1088

22563,0,0,0,0,0,0,0,0,0,0,0,0,0,-0.0234375,-1,0,0,0,0,1089

22583,0,0,0,0,0,0,0,0,0,0,0,0,0,-0.0234375,-1,0,0,0,0,1090

22603,0,0,0,0,0,0,0,0,0,0,0,0,0,-0.0234375,-1,0,0,0,0,1091

22623,0,0,0,0,0,0,0,0,0,0,0,0,0,-0.0234375,-1,0,0,0,0,1092

22643,0,0,0,0,0,0,0,0,0,0,0,0,0,-0.0234375,-1,0,0,0,0,1093

22663,0,0,0,0,0,0,0,0,0,0,0,0,0,-0.0234375,-1,0,0,0,0,1094

22683,0,0,0,0,0,0,0,0,0,0,0,0,0,-0.0234375,-1,0,0,0,0,1095

22703,0,0,0,0,0,0,0,0,0,0,0,0,0,-0.0234375,-1,0,0,0,0,1096

22723,0,0,0,0,0,0,0,0,0,0,0,0,0,-0.0234375,-1,0,0,0,0,1097

22743,0,0,0,0,0,0,0,0,0,0,0,0,0,-0.0234375,-1,0,0,0,0,1098

22763,0,0,0,0,0,0,0,0,0,0,0,0,0,-0.0234375,-1,0,0,0,0,1099

22783,0,0,0,0,0,0,0,0,0,0,0,0,0,-0.0234375,-1,0,0,0,0,1100

22803,0,0,0,0,0,0,0,0,0,0,0,0,0,-0.0234375,-1,0,0,0,0,1101

22823,0,0,0,0,0,0,0,0,0,0,0,0,0,-0.0234375,-1,0,0,0,0,1102

22843,0,0,0,0,0,0,0,0,0,0,0,0,0,-0.0234375,-1,0,0,0,0,1103

22863,0,0,0,0,0,0,0,0,0,0,0,0,0,-0.0234375,-1,0,0,0,0,1104

22883,0,0,0,0,0,0,0,0,0,0,0,0,0,-0.0234375,-1,0,0,0,0,1105

22923,0,0,0,0,0,0,0,0,0,0,0,0,0,-0.0234375,-1,0,0,0,0,1106

22943,0,0,0,0,0,0,0,0,0,0,0,0,0,-0.0234375,-1,0,0,0,0,1107

22963,0,0,0,0,0,0,0,0,0,0,0,0,0,-0.0234375,-1,0,0,0,0,1108

22983,0,0,0,0,0,0,0,0,0,0,0,0,0,-0.0234375,-1,0,0,0,0,1109

23003,0,0,0,0,0,0,0,0,0,0,0,0,0,-0.0234375,-1,0,0,0,0,1110

23023,0,0,0,0,0,0,0,0,0,0,0,0,0,-0.0234375,-1,0,0,0,0,1111

23043,0,0,0,0,0,0,0,0,0,0,0,0,0,-0.0234375,-1,0,0,0,0,1112

23063,0,0,0,0,0,0,0,0,0,0,0,0,0,-0.0234375,-1,0,0,0,0,1113

23083,0,0,0,0,0,0,0,0,0,0,0,0,0,-0.0234375,-1,0,0,0,0,1114

23103,0,0,0,0,0,0,0,0,0,0,0,0,0,-0.0234375,-1,0,0,0,0,1115

23123,0,0,0,0,0,0,0,0,0,0,0,0,0,-0.0234375,-1,0,0,0,0,1116

23143,0,0,0,0,0,0,0,0,0,0,0,0,0,-0.0234375,-1,0,0,0,0,1117

23163,0,0,0,0,0,0,0,0,0,0,0,0,0,-0.0234375,-1,0,0,0,0,1118

23183,0,0,0,0,0,0,0,0,0,0,0,0,0,-0.0234375,-1,0,0,0,0,1119

23203,0,0,0,0,0,0,0,0,0,0,0,0,0,-0.0234375,-1,0,0,0,0,1120

23223,0,0,0,0,0,0,0,0,0,0,0,0,0,-0.0234375,-1,0,0,0,0,1121

23243,0,0,0,0,0,0,0,0,0,0,0,0,0,-0.0234375,-1,0,0,0,0,1122

23263,0,0,0,0,0,0,0,0,0,0,0,0,0,-0.0234375,-1,0,0,0,0,1123

23283,0,0,0,0,0,0,0,0,0,0,0,0,0,-0.0234375,-1,0,0,0,0,1124

23303,0,0,0,0,0,0,0,0,0,0,0,0,0,-0.0234375,-1,0,0,0,0,1125

23323,0,0,0,0,0,0,0,0,0,0,0,0,0,-0.0234375,-1,0,0,0,0,1126

23343,0,0,0,0,0,0,0,0,0,0,0,0,0,-0.0234375,-1,0,0,0,0,1127

23363,0,0,0,0,0,0,0,0,0,0,0,0,0,-0.0234375,-1,0,0,0,0,1128

23383,0,0,0,0,0,0,0,0,0,0,0,0,0,-0.0234375,-1,0,0,0,0,1129

23403,0,0,0,0,0,0,0,0,0,0,0,0,0,-0.0234375,-1,0,0,0,0,1130

23423,0,0,0,0,0,0,0,0,0,0,0,0,0,-0.0234375,-1,0,0,0,0,1131

23443,0,0,0,0,0,0,0,0,0,0,0,0,0,-0.0234375,-1,0,0,0,0,1132

23463,0,0,0,0,0,0,0,0,0,0,0,0,0,-0.0234375,-1,0,0,0,0,1133

23483,0,0,0,0,0,0,0,0,0,0,0,0,0,-0.0234375,-1,0,0,0,0,1134

23503,0,0,0,0,0,0,0,0,0,0,0,0,0,-0.0234375,-1,0,0,0,0,1135

23523,0,0,0,0,0,0,0,0,0,0,0,0,0,-0.0234375,-1,0,0,0,0,1136

23543,0,0,0,0,0,0,0,0,0,0,0,0,0,-0.0234375,-1,0,0,0,0,1137

23563,0,0,0,0,0,0,0,0,0,0,0,0,0,-0.0234375,-1,0,0,0,0,1138

23583,0,0,0,0,0,0,0,0,0,0,0,0,0,-0.0234375,-1,0,0,0,0,1139

23603,0,0,0,0,0,0,0,0,0,0,0,0,0,-0.0234375,-1,0,0,0,0,1140

23623,0,0,0,0,0,0,0,0,0,0,0,0,0,-0.0234375,-1,0,0,0,0,1141

23643,0,0,0,0,0,0,0,0,0,0,0,0,0,-0.0234375,-1,0,0,0,0,1142

23663,0,0,0,0,0,0,0,0,0,0,0,0,0,-0.0234375,-1,0,0,0,0,1143

23683,0,0,0,0,0,0,0,0,0,0,0,0,0,-0.0234375,-1,0,0,0,0,1144

23703,0,0,0,0,0,0,0,0,0,0,0,0,0,-0.0234375,-1,0,0,0,0,1145

23723,0,0,0,0,0,0,0,0,0,0,0,0,0,-0.0234375,-1,0,0,0,0,1146

23743,0,0,0,0,0,0,0,0,0,0,0,0,0,-0.0234375,-1,0,0,0,0,1147

23763,0,0,0,0,0,0,0,0,0,0,0,0,0,-0.0234375,-1,0,0,0,0,1148

23783,0,0,0,0,0,0,0,0,0,0,0,0,0,-0.0234375,-1,0,0,0,0,1149

23803,0,0,0,0,0,0,0,0,0,0,0,0,0,-0.0234375,-1,0,0,0,0,1150

23823,0,0,0,0,0,0,0,0,0,0,0,0,0,-0.0234375,-1,0,0,0,0,1151

23843,0,0,0,0,0,0,0,0,0,0,0,0,0,-0.0234375,-1,0,0,0,0,1152

23863,0,0,0,0,0,0,0,0,0,0,0,0,0,-0.0234375,-1,0,0,0,0,1153

23883,0,0,0,0,0,0,0,0,0,0,0,0,0,-0.0234375,-1,0,0,0,0,1154

23903,0,0,0,0,0,0,0,0,0,0,0,0,0,-0.0234375,-1,0,0,0,0,1155

23923,0,0,0,0,0,0,0,0,0,0,0,0,0,-0.0234375,-1,0,0,0,0,1156

23943,0,0,0,0,0,0,0,0,0,0,0,0,0,-0.0234375,-1,0,0,0,0,1157

23963,0,0,0,0,0,0,0,0,0,0,0,0,0,-0.0234375,-1,0,0,0,0,1158

23983,0,0,0,0,0,0,0,0,0,0,0,0,0,-0.0234375,-1,0,0,0,0,1159

24003,0,0,0,0,0,0,0,0,0,0,0,0,0,-0.0234375,-1,0,0,0,0,1160

24023,0,0,0,0,0,0,0,0,0,0,0,0,0,-0.0234375,-1,0,0,0,0,1161

24043,0,0,0,0,0,0,0,0,0,0,0,0,0,-0.0234375,-1,0,0,0,0,1162

24063,0,0,0,0,0,0,0,0,0,0,0,0,0,-0.0234375,-1,0,0,0,0,1163

24083,0,0,0,0,0,0,0,0,0,0,0,0,0,-0.0234375,-1,0,0,0,0,1164

24103,0,0,0,0,0,0,0,0,0,0,0,0,0,-0.0234375,-1,0,0,0,0,1165

24123,0,0,0,0,0,0,0,0,0,0,0,0,0,-0.0234375,-1,0,0,0,0,1166

24143,0,0,0,0,0,0,0,0,0,0,0,0,0,-0.0234375,-1,0,0,0,0,1167

24163,0,0,0,0,0,0,0,0,0,0,0,0,0,-0.0234375,-1,0,0,0,0,1168

24183,0,0,0,0,0,0,0,0,0,0,0,0,0,-0.0234375,-1,0,0,0,0,1169

24203,0,0,0,0,0,0,0,0,0,0,0,0,0,-0.0234375,-1,0,0,0,0,1170

24223,0,0,0,0,0,0,0,0,0,0,0,0,0,-0.0234375,-1,0,0,0,0,1171

24243,0,0,0,0,0,0,0,0,0,0,0,0,0,-0.0234375,-1,0,0,0,0,1172

24263,0,0,0,0,0,0,0,0,0,0,0,0,0,-0.0234375,-1,0,0,0,0,1173

24283,0,0,0,0,0,0,0,0,0,0,0,0,0,-0.0234375,-1,0,0,0,0,1174

24303,0,0,0,0,0,0,0,0,0,0,0,0,0,-0.0234375,-1,0,0,0,0,1175

24323,0,0,0,0,0,0,0,0,0,0,0,0,0,-0.0234375,-1,0,0,0,0,1176

24343,0,0,0,0,0,0,0,0,0,0,0,0,0,-0.0234375,-1,0,0,0,0,1177

24363,0,0,0,0,0,0,0,0,0,0,0,0,0,-0.0234375,-1,0,0,0,0,1178

24383,0,0,0,0,0,0,0,0,0,0,0,0,0,-0.0234375,-1,0,0,0,0,1179

24403,0,0,0,0,0,0,0,0,0,0,0,0,0,-0.0234375,-1,0,0,0,0,1180

24423,0,0,0,0,0,0,0,0,0,0,0,0,0,-0.0234375,-1,0,0,0,0,1181

24443,0,0,0,0,0,0,0,0,0,0,0,0,0,-0.0234375,-1,0,0,0,0,1182

24463,0,0,0,0,0,0,0,0,0,0,0,0,0,-0.0234375,-1,0,0,0,0,1183

24483,0,0,0,0,0,0,0,0,0,0,0,0,0,-0.0234375,-1,0,0,0,0,1184

24503,0,0,0,0,0,0,0,0,0,0,0,0,0,-0.0234375,-1,0,0,0,0,1185

24523,0,0,0,0,0,0,0,0,0,0,0,0,0,-0.0234375,-1,0,0,0,0,1186

24543,0,0,0,0,0,0,0,0,0,0,0,0,0,-0.0234375,-1,0,0,0,0,1187

24563,0,0,0,0,0,0,0,0,0,0,0,0,0,-0.0234375,-1,0,0,0,0,1188

24583,0,0,0,0,0,0,0,0,0,0,0,0,0,-0.0234375,-1,0,0,0,0,1189

24603,0,0,0,0,0,0,0,0,0,0,0,0,0,-0.0234375,-1,0,0,0,0,1190

24623,0,0,0,0,0,0,0,0,0,0,0,0,0,-0.0234375,-1,0,0,0,0,1191

24643,0,0,0,0,0,0,0,0,0,0,0,0,0,-0.0234375,-1,0,0,0,0,1192

24663,0,0,0,0,0,0,0,0,0,0,0,0,0,-0.0234375,-1,0,0,0,0,1193

24683,0,0,0,0,0,0,0,0,0,0,0,0,0,-0.0234375,-1,0,0,0,0,1194

24703,0,0,0,0,0,0,0,0,0,0,0,0,0,-0.0234375,-1,0,0,0,0,1195

24723,0,0,0,0,0,0,0,0,0,0,0,0,0,-0.0234375,-1,0,0,0,0,1196

24743,0,0,0,0,0,0,0,0,0,0,0,0,0,-0.0234375,-1,0,0,0,0,1197

24763,0,0,0,0,0,0,0,0,0,0,0,0,0,-0.0234375,-1,0,0,0,0,1198

24783,0,0,0,0,0,0,0,0,0,0,0,0,0,-0.0234375,-1,0,0,0,0,1199

24803,0,0,0,0,0,0,0,0,0,0,0,0,0,-0.0234375,-1,0,0,0,0,1200

24823,0,0,0,0,0,0,0,0,0,0,0,0,0,-0.0234375,-1,0,0,0,0,1201

24843,0,0,0,0,0,0,0,0,0,0,0,0,0,-0.0234375,-1,0,0,0,0,1202

24863,0,0,0,0,0,0,0,0,0,0,0,0,0,-0.0234375,-1,0,0,0,0,1203

24883,0,0,0,0,0,0,0,0,0,0,0,0,0,-0.0234375,-1,0,0,0,0,1204

24903,0,0,0,0,0,0,0,0,0,0,0,0,0,-0.0234375,-1,0,0,0,0,1205

24923,0,0,0,0,0,0,0,0,0,0,0,0,0,-0.0234375,-1,0,0,0,0,1206

24943,0,0,0,0,0,0,0,0,0,0,0,0,0,-0.0234375,-1,0,0,0,0,1207

24963,0,0,0,0,0,0,0,0,0,0,0,0,0,-0.0234375,-1,0,0,0,0,1208

24983,0,0,0,0,0,0,0,0,0,0,0,0,0,-0.0234375,-1,0,0,0,0,1209

25003,0,0,0,0,0,0,0,0,0,0,0,0,0,-0.0234375,-1,0,0,0,0,1210

25023,0,0,0,0,0,0,0,0,0,0,0,0,0,-0.0234375,-1,0,0,0,0,1211

25043,0,0,0,0,0,0,0,0,0,0,0,0,0,-0.0234375,-1,0,0,0,0,1212

25063,0,0,0,0,0,0,0,0,0,0,0,0,0,-0.0234375,-1,0,0,0,0,1213

25083,0,0,0,0,0,0,0,0,0,0,0,0,0,-0.0234375,-1,0,0,0,0,1214

25103,0,0,0,0,0,0,0,0,0,0,0,0,0,-0.0234375,-1,0,0,0,0,1215

25123,0,0,0,0,0,0,0,0,0,0,0,0,0,-0.0234375,-1,0,0,0,0,1216

25143,0,0,0,0,0,0,0,0,0,0,0,0,0,-0.0234375,-1,0,0,0,0,1217

25163,0,0,0,0,0,0,0,0,0,0,0,0,0,-0.0234375,-1,0,0,0,0,1218

25183,0,0,0,0,0,0,0,0,0,0,0,0,0,-0.0234375,-1,0,0,0,0,1219

25203,0,0,0,0,0,0,0,0,0,0,0,0,0,-0.0234375,-1,0,0,0,0,1220

25223,0,0,0,0,0,0,0,0,0,0,0,0,0,-0.0234375,-1,0,0,0,0,1221

25243,0,0,0,0,0,0,0,0,0,0,0,0,0,-0.0234375,-1,0,0,0,0,1222

25263,0,0,0,0,0,0,0,0,0,0,0,0,0,-0.0234375,-1,0,0,0,0,1223

25283,0,0,0,0,0,0,0,0,0,0,0,0,0,-0.0234375,-1,0,0,0,0,1224

25303,0,0,0,0,0,0,0,0,0,0,0,0,0,-0.0234375,-1,0,0,0,0,1225

25323,0,0,0,0,0,0,0,0,0,0,0,0,0,-0.0234375,-1,0,0,0,0,1226

25343,0,0,0,0,0,0,0,0,0,0,0,0,0,-0.0234375,-1,0,0,0,0,1227

25363,0,0,0,0,0,0,0,0,0,0,0,0,0,-0.0234375,-1,0,0,0,0,1228

25383,0,0,0,0,0,0,0,0,0,0,0,0,0,-0.0234375,-1,0,0,0,0,1229

25403,0,0,0,0,0,0,0,0,0,0,0,0,0,-0.0234375,-1,0,0,0,0,1230

25423,0,0,0,0,0,0,0,0,0,0,0,0,0,-0.0234375,-1,0,0,0,0,1231

25443,0,0,0,0,0,0,0,0,0,0,0,0,0,-0.0234375,-1,0,0,0,0,1232

25463,0,0,0,0,0,0,0,0,0,0,0,0,0,-0.0234375,-1,0,0,0,0,1233

25483,0,0,0,0,0,0,0,0,0,0,0,0,0,-0.0234375,-1,0,0,0,0,1234

25503,0,0,0,0,0,0,0,0,0,0,0,0,0,-0.0234375,-1,0,0,0,0,1235

25523,0,0,0,0,0,0,0,0,0,0,0,0,0,-0.0234375,-1,0,0,0,0,1236

25543,0,0,0,0,0,0,0,0,0,0,0,0,0,-0.0234375,-1,0,0,0,0,1237

25563,0,0,0,0,0,0,0,0,0,0,0,0,0,-0.0234375,-1,0,0,0,0,1238

25583,0,0,0,0,0,0,0,0,0,0,0,0,0,-0.0234375,-1,0,0,0,0,1239

25603,0,0,0,0,0,0,0,0,0,0,0,0,0,-0.0234375,-1,0,0,0,0,1240

25623,0,0,0,0,0,0,0,0,0,0,0,0,0,-0.0234375,-1,0,0,0,0,1241

25643,0,0,0,0,0,0,0,0,0,0,0,0,0,-0.0234375,-1,0,0,0,0,1242

25663,0,0,0,0,0,0,0,0,0,0,0,0,0,-0.0234375,-1,0,0,0,0,1243

25683,0,0,0,0,0,0,0,0,0,0,0,0,0,-0.0234375,-1,0,0,0,0,1244

25703,0,0,0,0,0,0,0,0,0,0,0,0,0,-0.0234375,-1,0,0,0,0,1245

25723,0,0,0,0,0,0,0,0,0,0,0,0,0,-0.0234375,-1,0,0,0,0,1246

25743,0,0,0,0,0,0,0,0,0,0,0,0,0,-0.0234375,-1,0,0,0,0,1247

25763,0,0,0,0,0,0,0,0,0,0,0,0,0,-0.0234375,-1,0,0,0,0,1248

25783,0,0,0,0,0,0,0,0,0,0,0,0,0,-0.0234375,-1,0,0,0,0,1249

25803,0,0,0,0,0,0,0,0,0,0,0,0,0,-0.0234375,-1,0,0,0,0,1250

25823,0,0,0,0,0,0,0,0,0,0,0,0,0,-0.0234375,-1,0,0,0,0,1251

25843,0,0,0,0,0,0,0,0,0,0,0,0,0,-0.0234375,-1,0,0,0,0,1252

25863,0,0,0,0,0,0,0,0,0,0,0,0,0,-0.0234375,-1,0,0,0,0,1253

25883,0,0,0,0,0,0,0,0,0,0,0,0,0,-0.0234375,-1,0,0,0,0,1254

25903,0,0,0,0,0,0,0,0,0,0,0,0,0,-0.0234375,-1,0,0,0,0,1255

25923,0,0,0,0,0,0,0,0,0,0,0,0,0,-0.0234375,-1,0,0,0,0,1256

25943,0,0,0,0,0,0,0,0,0,0,0,0,0,-0.0234375,-1,0,0,0,0,1257

25963,0,0,0,0,0,0,0,0,0,0,0,0,0,-0.0234375,-1,0,0,0,0,1258

25983,0,0,0,0,0,0,0,0,0,0,0,0,0,-0.0234375,-1,0,0,0,0,1259

26003,0,0,0,0,0,0,0,0,0,0,0,0,0,-0.0234375,-1,0,0,0,0,1260

26023,0,0,0,0,0,0,0,0,0,0,0,0,0,-0.0234375,-1,0,0,0,0,1261

26043,0,0,0,0,0,0,0,0,0,0,0,0,0,-0.0234375,-1,0,0,0,0,1262

26063,0,0,0,0,0,0,0,0,0,0,0,0,0,-0.0234375,-1,0,0,0,0,1263

26083,0,0,0,0,0,0,0,0,0,0,0,0,0,-0.0234375,-1,0,0,0,0,1264

26103,0,0,0,0,0,0,0,0,0,0,0,0,0,-0.0234375,-1,0,0,0,0,1265

26123,0,0,0,0,0,0,0,0,0,0,0,0,0,-0.0234375,-1,0,0,0,0,1266

26143,0,0,0,0,0,0,0,0,0,0,0,0,0,-0.0234375,-1,0,0,0,0,1267

26163,0,0,0,0,0,0,0,0,0,0,0,0,0,-0.0234375,-1,0,0,0,0,1268

26183,0,0,0,0,0,0,0,0,0,0,0,0,0,-0.0234375,-1,0,0,0,0,1269

26203,0,0,0,0,0,0,0,0,0,0,0,0,0,-0.0234375,-1,0,0,0,0,1270

26223,0,0,0,0,0,0,0,0,0,0,0,0,0,-0.0234375,-1,0,0,0,0,1271

26243,0,0,0,0,0,0,0,0,0,0,0,0,0,-0.0234375,-1,0,0,0,0,1272

26263,0,0,0,0,0,0,0,0,0,0,0,0,0,-0.0234375,-1,0,0,0,0,1273

26283,0,0,0,0,0,0,0,0,0,0,0,0,0,-0.0234375,-1,0,0,0,0,1274

26303,0,0,0,0,0,0,0,0,0,0,0,0,0,-0.0234375,-1,0,0,0,0,1275

26323,0,0,0,0,0,0,0,0,0,0,0,0,0,-0.0234375,-1,0,0,0,0,1276

26343,0,0,0,0,0,0,0,0,0,0,0,0,0,-0.0234375,-1,0,0,0,0,1277

26363,0,0,0,0,0,0,0,0,0,0,0,0,0,-0.0234375,-1,0,0,0,0,1278

26383,0,0,0,0,0,0,0,0,0,0,0,0,0,-0.0234375,-1,0,0,0,0,1279

26403,0,0,0,0,0,0,0,0,0,0,0,0,0,-0.0234375,-1,0,0,0,0,1280

26423,0,0,0,0,0,0,0,0,0,0,0,0,0,-0.0234375,-1,0,0,0,0,1281

26443,0,0,0,0,0,0,0,0,0,0,0,0,0,-0.0234375,-1,0,0,0,0,1282

26463,0,0,0,0,0,0,0,0,0,0,0,0,0,-0.0234375,-1,0,0,0,0,1283

26483,0,0,0,0,0,0,0,0,0,0,0,0,0,-0.0234375,-1,0,0,0,0,1284

26503,0,0,0,0,0,0,0,0,0,0,0,0,0,-0.0234375,-1,0,0,0,0,1285

26523,0,0,0,0,0,0,0,0,0,0,0,0,0,-0.0234375,-1,0,0,0,0,1286

26543,0,0,0,0,0,0,0,0,0,0,0,0,0,-0.0234375,-1,0,0,0,0,1287

26563,0,0,0,0,0,0,0,0,0,0,0,0,0,-0.0234375,-1,0,0,0,0,1288

26583,0,0,0,0,0,0,0,0,0,0,0,0,0,-0.0234375,-1,0,0,0,0,1289

26603,0,0,0,0,0,0,0,0,0,0,0,0,0,-0.0234375,-1,0,0,0,0,1290

26623,0,0,0,0,0,0,0,0,0,0,0,0,0,-0.0234375,-1,0,0,0,0,1291

26643,0,0,0,0,0,0,0,0,0,0,0,0,0,-0.0234375,-1,0,0,0,0,1292

26663,0,0,0,0,0,0,0,0,0,0,0,0,0,-0.0234375,-1,0,0,0,0,1293

26683,0,0,0,0,0,0,0,0,0,0,0,0,0,-0.0234375,-1,0,0,0,0,1294

26703,0,0,0,0,0,0,0,0,0,0,0,0,0,-0.0234375,-1,0,0,0,0,1295

26723,0,0,0,0,0,0,0,0,0,0,0,0,0,-0.0234375,-1,0,0,0,0,1296

26743,0,0,0,0,0,0,0,0,0,0,0,0,0,-0.0234375,-1,0,0,0,0,1297

26763,0,0,0,0,0,0,0,0,0,0,0,0,0,-0.0234375,-1,0,0,0,0,1298

26783,0,0,0,0,0,0,0,0,0,0,0,0,0,-0.0234375,-1,0,0,0,0,1299

26803,0,0,0,0,0,0,0,0,0,0,0,0,0,-0.0234375,-1,0,0,0,0,1300

26823,0,0,0,0,0,0,0,0,0,0,0,0,0,-0.0234375,-1,0,0,0,0,1301

26843,0,0,0,0,0,0,0,0,0,0,0,0,0,-0.0234375,-1,0,0,0,0,1302

26863,0,0,0,0,0,0,0,0,0,0,0,0,0,-0.0234375,-1,0,0,0,0,1303

26883,0,0,0,0,0,0,0,0,0,0,0,0,0,-0.0234375,-1,0,0,0,0,1304

26903,0,0,0,0,0,0,0,0,0,0,0,0,0,-0.0234375,-1,0,0,0,0,1305

26923,0,0,0,0,0,0,0,0,0,0,0,0,0,-0.0234375,-1,0,0,0,0,1306

26943,0,0,0,0,0,0,0,0,0,0,0,0,0,-0.0234375,-1,0,0,0,0,1307

26963,0,0,0,0,0,0,0,0,0,0,0,0,0,-0.0234375,-1,0,0,0,0,1308

26983,0,0,0,0,0,0,0,0,0,0,0,0,0,-0.0234375,-1,0,0,0,0,1309

27003,0,0,0,0,0,0,0,0,0,0,0,0,0,-0.0234375,-1,0,0,0,0,1310

27023,0,0,0,0,0,0,0,0,0,0,0,0,0,-0.0234375,-1,0,0,0,0,1311

27043,0,0,0,0,0,0,0,0,0,0,0,0,0,-0.0234375,-1,0,0,0,0,1312

27063,0,0,0,0,0,0,0,0,0,0,0,0,0,-0.0234375,-1,0,0,0,0,1313

27083,0,0,0,0,0,0,0,0,0,0,0,0,0,-0.0234375,-1,0,0,0,0,1314

27103,0,0,0,0,0,0,0,0,0,0,0,0,0,-0.0234375,-1,0,0,0,0,1315

27123,0,0,0,0,0,0,0,0,0,0,0,0,0,-0.0234375,-1,0,0,0,0,1316

27143,0,0,0,0,0,0,0,0,0,0,0,0,0,-0.0234375,-1,0,0,0,0,1317

27163,0,0,0,0,0,0,0,0,0,0,0,0,0,-0.0234375,-1,0,0,0,0,1318

27183,0,0,0,0,0,0,0,0,0,0,0,0,0,-0.0234375,-1,0,0,0,0,1319

27203,0,0,0,0,0,0,0,0,0,0,0,0,0,-0.0234375,-1,0,0,0,0,1320

27223,0,0,0,0,0,0,0,0,0,0,0,0,0,-0.0234375,-1,0,0,0,0,1321

27243,0,0,0,0,0,0,0,0,0,0,0,0,0,-0.0234375,-1,0,0,0,0,1322

27263,0,0,0,0,0,0,0,0,0,0,0,0,0,-0.0234375,-1,0,0,0,0,1323

27283,0,0,0,0,0,0,0,0,0,0,0,0,0,-0.0234375,-1,0,0,0,0,1324

27303,0,0,0,0,0,0,0,0,0,0,0,0,0,-0.0234375,-1,0,0,0,0,1325

27323,0,0,0,0,0,0,0,0,0,0,0,0,0,-0.0234375,-1,0,0,0,0,1326

27343,0,0,0,0,0,0,0,0,0,0,0,0,0,-0.0234375,-1,0,0,0,0,1327

27363,0,0,0,0,0,0,0,0,0,0,0,0,0,-0.0234375,-1,0,0,0,0,1328

27383,0,0,0,0,0,0,0,0,0,0,0,0,0,-0.0234375,-1,0,0,0,0,1329

27403,0,0,0,0,0,0,0,0,0,0,0,0,0,-0.0234375,-1,0,0,0,0,1330

27423,0,0,0,0,0,0,0,0,0,0,0,0,0,-0.0234375,-1,0,0,0,0,1331

27443,0,0,0,0,0,0,0,0,0,0,0,0,0,-0.0234375,-1,0,0,0,0,1332

27463,0,0,0,0,0,0,0,0,0,0,0,0,0,-0.0234375,-1,0,0,0,0,1333

27483,0,0,0,0,0,0,0,0,0,0,0,0,0,-0.0234375,-1,0,0,0,0,1334

27503,0,0,0,0,0,0,0,0,0,0,0,0,0,-0.0234375,-1,0,0,0,0,1335

27523,0,0,0,0,0,0,0,0,0,0,0,0,0,-0.0234375,-1,0,0,0,0,1336

27543,0,0,0,0,0,0,0,0,0,0,0,0,0,-0.0234375,-1,0,0,0,0,1337

27563,0,0,0,0,0,0,0,0,0,0,0,0,0,-0.0234375,-1,0,0,0,0,1338

27583,0,0,0,0,0,0,0,0,0,0,0,0,0,-0.0234375,-1,0,0,0,0,1339

27603,0,0,0,0,0,0,0,0,0,0,0,0,0,-0.0234375,-1,0,0,0,0,1340

27623,0,0,0,0,0,0,0,0,0,0,0,0,0,-0.0234375,-1,0,0,0,0,1341

27643,0,0,0,0,0,0,0,0,0,0,0,0,0,-0.0234375,-1,0,0,0,0,1342

27663,0,0,0,0,0,0,0,0,0,0,0,0,0,-0.0234375,-1,0,0,0,0,1343

27683,0,0,0,0,0,0,0,0,0,0,0,0,0,-0.0234375,-1,0,0,0,0,1344

27703,0,0,0,0,0,0,0,0,0,0,0,0,0,-0.0234375,-1,0,0,0,0,1345

27723,0,0,0,0,0,0,0,0,0,0,0,0,0,-0.0234375,-1,0,0,0,0,1346

27743,0,0,0,0,0,0,0,0,0,0,0,0,0,-0.0234375,-1,0,0,0,0,1347

27763,0,0,0,0,0,0,0,0,0,0,0,0,0,-0.0234375,-1,0,0,0,0,1348

27783,0,0,0,0,0,0,0,0,0,0,0,0,0,-0.0234375,-1,0,0,0,0,1349

27803,0,0,0,0,0,0,0,0,0,0,0,0,0,-0.0234375,-1,0,0,0,0,1350

27823,0,0,0,0,0,0,0,0,0,0,0,0,0,-0.0234375,-1,0,0,0,0,1351

27843,0,0,0,0,0,0,0,0,0,0,0,0,0,-0.0234375,-1,0,0,0,0,1352

27863,0,0,0,0,0,0,0,0,0,0,0,0,0,-0.0234375,-1,0,0,0,0,1353

27883,0,0,0,0,0,0,0,0,0,0,0,0,0,-0.0234375,-1,0,0,0,0,1354

27903,0,0,0,0,0,0,0,0,0,0,0,0,0,-0.0234375,-1,0,0,0,0,1355

27923,0,0,0,0,0,0,0,0,0,0,0,0,0,-0.0234375,-1,0,0,0,0,1356

27943,0,0,0,0,0,0,0,0,0,0,0,0,0,-0.0234375,-1,0,0,0,0,1357

27963,0,0,0,0,0,0,0,0,0,0,0,0,0,-0.0234375,-1,0,0,0,0,1358

27983,0,0,0,0,0,0,0,0,0,0,0,0,0,-0.0234375,-1,0,0,0,0,1359

28003,0,0,0,0,0,0,0,0,0,0,0,0,0,-0.0234375,-1,0,0,0,0,1360

28023,0,0,0,0,0,0,0,0,0,0,0,0,0,-0.0234375,-1,0,0,0,0,1361

28043,0,0,0,0,0,0,0,0,0,0,0,0,0,-0.0234375,-1,0,0,0,0,1362

28063,0,0,0,0,0,0,0,0,0,0,0,0,0,-0.0234375,-1,0,0,0,0,1363

28083,0,0,0,0,0,0,0,0,0,0,0,0,0,-0.0234375,-1,0,0,0,0,1364

28103,0,0,0,0,0,0,0,0,0,0,0,0,0,-0.0234375,-1,0,0,0,0,1365

28123,0,0,0,0,0,0,0,0,0,0,0,0,0,-0.0234375,-1,0,0,0,0,1366

28143,0,0,0,0,0,0,0,0,0,0,0,0,0,-0.0234375,-1,0,0,0,0,1367

28163,0,0,0,0,0,0,0,0,0,0,0,0,0,-0.0234375,-1,0,0,0,0,1368

28183,0,0,0,0,0,0,0,0,0,0,0,0,0,-0.0234375,-1,0,0,0,0,1369

28203,0,0,0,0,0,0,0,0,0,0,0,0,0,-0.0234375,-1,0,0,0,0,1370

28223,0,0,0,0,0,0,0,0,0,0,0,0,0,-0.0234375,-1,0,0,0,0,1371

28243,0,0,0,0,0,0,0,0,0,0,0,0,0,-0.0234375,-1,0,0,0,0,1372

28263,0,0,0,0,0,0,0,0,0,0,0,0,0,-0.0234375,-1,0,0,0,0,1373

28283,0,0,0,0,0,0,0,0,0,0,0,0,0,-0.0234375,-1,0,0,0,0,1374

28303,0,0,0,0,0,0,0,0,0,0,0,0,0,-0.0234375,-1,0,0,0,0,1375

28323,0,0,0,0,0,0,0,0,0,0,0,0,0,-0.0234375,-1,0,0,0,0,1376

28343,0,0,0,0,0,0,0,0,0,0,0,0,0,-0.0234375,-1,0,0,0,0,1377

28363,0,0,0,0,0,0,0,0,0,0,0,0,0,-0.0234375,-1,0,0,0,0,1378

28383,0,0,0,0,0,0,0,0,0,0,0,0,0,-0.0234375,-1,0,0,0,0,1379

28403,0,0,0,0,0,0,0,0,0,0,0,0,0,-0.0234375,-1,0,0,0,0,1380

28423,0,0,0,0,0,0,0,0,0,0,0,0,0,-0.0234375,-1,0,0,0,0,1381

28443,0,0,0,0,0,0,0,0,0,0,0,0,0,-0.0234375,-1,0,0,0,0,1382

28463,0,0,0,0,0,0,0,0,0,0,0,0,0,-0.0234375,-1,0,0,0,0,1383

28483,0,0,0,0,0,0,0,0,0,0,0,0,0,-0.0234375,-1,0,0,0,0,1384

28503,0,0,0,0,0,0,0,0,0,0,0,0,0,-0.0234375,-1,0,0,0,0,1385

28523,0,0,0,0,0,0,0,0,0,0,0,0,0,-0.0234375,-1,0,0,0,0,1386

28543,0,0,0,0,0,0,0,0,0,0,0,0,0,-0.0234375,-1,0,0,0,0,1387

28563,0,0,0,0,0,0,0,0,0,0,0,0,0,-0.0234375,-1,0,0,0,0,1388

28583,0,0,0,0,0,0,0,0,0,0,0,0,0,-0.0234375,-1,0,0,0,0,1389

28603,0,0,0,0,0,0,0,0,0,0,0,0,0,-0.0234375,-1,0,0,0,0,1390

28623,0,0,0,0,0,0,0,0,0,0,0,0,0,-0.0234375,-1,0,0,0,0,1391

28643,0,0,0,0,0,0,0,0,0,0,0,0,0,-0.0234375,-1,0,0,0,0,1392

28663,0,0,0,0,0,0,0,0,0,0,0,0,0,-0.0234375,-1,0,0,0,0,1393

28683,0,0,0,0,0,0,0,0,0,0,0,0,0,-0.0234375,-1,0,0,0,0,1394

28703,0,0,0,0,0,0,0,0,0,0,0,0,0,-0.0234375,-1,0,0,0,0,1395

28723,0,0,0,0,0,0,0,0,0,0,0,0,0,-0.0234375,-1,0,0,0,0,1396

28743,0,0,0,0,0,0,0,0,0,0,0,0,0,-0.0234375,-1,0,0,0,0,1397

28763,0,0,0,0,0,0,0,0,0,0,0,0,0,-0.0234375,-1,0,0,0,0,1398

28783,0,0,0,0,0,0,0,0,0,0,0,0,0,-0.0234375,-1,0,0,0,0,1399

28803,0,0,0,0,0,0,0,0,0,0,0,0,0,-0.0234375,-1,0,0,0,0,1400

28823,0,0,0,0,0,0,0,0,0,0,0,0,0,-0.0234375,-1,0,0,0,0,1401

28843,0,0,0,0,0,0,0,0,0,0,0,0,0,-0.0234375,-1,0,0,0,0,1402

28863,0,0,0,0,0,0,0,0,0,0,0,0,0,-0.0234375,-1,0,0,0,0,1403

28883,0,0,0,0,0,0,0,0,0,0,0,0,0,-0.0234375,-1,0,0,0,0,1404

28903,0,0,0,0,0,0,0,0,0,0,0,0,0,-0.0234375,-1,0,0,0,0,1405

28923,0,0,0,0,0,0,0,0,0,0,0,0,0,-0.0234375,-1,0,0,0,0,1406

28943,0,0,0,0,0,0,0,0,0,0,0,0,0,-0.0234375,-1,0,0,0,0,1407

28963,0,0,0,0,0,0,0,0,0,0,0,0,0,-0.0234375,-1,0,0,0,0,1408

28983,0,0,0,0,0,0,0,0,0,0,0,0,0,-0.0234375,-1,0,0,0,0,1409

29003,0,0,0,0,0,0,0,0,0,0,0,0,0,-0.0234375,-1,0,0,0,0,1410

29023,0,0,0,0,0,0,0,0,0,0,0,0,0,-0.0234375,-1,0,0,0,0,1411

29043,0,0,0,0,0,0,0,0,0,0,0,0,0,-0.0234375,-1,0,0,0,0,1412

29063,0,0,0,0,0,0,0,0,0,0,0,0,0,-0.0234375,-1,0,0,0,0,1413

29083,0,0,0,0,0,0,0,0,0,0,0,0,0,-0.0234375,-1,0,0,0,0,1414

29103,0,0,0,0,0,0,0,0,0,0,0,0,0,-0.0234375,-1,0,0,0,0,1415

29123,0,0,0,0,0,0,0,0,0,0,0,0,0,-0.0234375,-1,0,0,0,0,1416

29143,0,0,0,0,0,0,0,0,0,0,0,0,0,-0.0234375,-1,0,0,0,0,1417

29163,0,0,0,0,0,0,0,0,0,0,0,0,0,-0.0234375,-1,0,0,0,0,1418

29183,0,0,0,0,0,0,0,0,0,0,0,0,0,-0.0234375,-1,0,0,0,0,1419

29203,0,0,0,0,0,0,0,0,0,0,0,0,0,-0.0234375,-1,0,0,0,0,1420

29223,0,0,0,0,0,0,0,0,0,0,0,0,0,-0.0234375,-1,0,0,0,0,1421

29243,0,0,0,0,0,0,0,0,0,0,0,0,0,-0.0234375,-1,0,0,0,0,1422

29263,0,0,0,0,0,0,0,0,0,0,0,0,0,-0.0234375,-1,0,0,0,0,1423

29283,0,0,0,0,0,0,0,0,0,0,0,0,0,-0.0234375,-1,0,0,0,0,1424

29303,0,0,0,0,0,0,0,0,0,0,0,0,0,-0.0234375,-1,0,0,0,0,1425

29323,0,0,0,0,0,0,0,0,0,0,0,0,0,-0.0234375,-1,0,0,0,0,1426

29343,0,0,0,0,0,0,0,0,0,0,0,0,0,-0.0234375,-1,0,0,0,0,1427

29363,0,0,0,0,0,0,0,0,0,0,0,0,0,-0.0234375,-1,0,0,0,0,1428

29383,0,0,0,0,0,0,0,0,0,0,0,0,0,-0.0234375,-1,0,0,0,0,1429

29403,0,0,0,0,0,0,0,0,0,0,0,0,0,-0.0234375,-1,0,0,0,0,1430

29423,0,0,0,0,0,0,0,0,0,0,0,0,0,-0.0234375,-1,0,0,0,0,1431

29443,0,0,0,0,0,0,0,0,0,0,0,0,0,-0.0234375,-1,0,0,0,0,1432

29463,0,0,0,0,0,0,0,0,0,0,0,0,0,-0.0234375,-1,0,0,0,0,1433

29483,0,0,0,0,0,0,0,0,0,0,0,0,0,-0.0234375,-1,0,0,0,0,1434

29503,0,0,0,0,0,0,0,0,0,0,0,0,0,-0.0234375,-1,0,0,0,0,1435

29523,0,0,0,0,0,0,0,0,0,0,0,0,0,-0.0234375,-1,0,0,0,0,1436

29543,0,0,0,0,0,0,0,0,0,0,0,0,0,-0.0234375,-1,0,0,0,0,1437

29563,0,0,0,0,0,0,0,0,0,0,0,0,0,-0.0234375,-1,0,0,0,0,1438

29583,0,0,0,0,0,0,0,0,0,0,0,0,0,-0.0234375,-1,0,0,0,0,1439

29603,0,0,0,0,0,0,0,0,0,0,0,0,0,-0.0234375,-1,0,0,0,0,1440

29623,0,0,0,0,0,0,0,0,0,0,0,0,0,-0.0234375,-1,0,0,0,0,1441

29643,0,0,0,0,0,0,0,0,0,0,0,0,0,-0.0234375,-1,0,0,0,0,1442

29663,0,0,0,0,0,0,0,0,0,0,0,0,0,-0.0234375,-1,0,0,0,0,1443

29683,0,0,0,0,0,0,0,0,0,0,0,0,0,-0.0234375,-1,0,0,0,0,1444

29703,0,0,0,0,0,0,0,0,0,0,0,0,0,-0.0234375,-1,0,0,0,0,1445

29723,0,0,0,0,0,0,0,0,0,0,0,0,0,-0.0234375,-1,0,0,0,0,1446

29743,0,0,0,0,0,0,0,0,0,0,0,0,0,-0.0234375,-1,0,0,0,0,1447

29763,0,0,0,0,0,0,0,0,0,0,0,0,0,-0.0234375,-1,0,0,0,0,1448

29783,0,0,0,0,0,0,0,0,0,0,0,0,0,-0.0234375,-1,0,0,0,0,1449

29803,0,0,0,0,0,0,0,0,0,0,0,0,0,-0.0234375,-1,0,0,0,0,1450

29823,0,0,0,0,0,0,0,0,0,0,0,0,0,-0.0234375,-1,0,0,0,0,1451

29843,0,0,0,0,0,0,0,0,0,0,0,0,0,-0.0234375,-1,0,0,0,0,1452

29863,0,0,0,0,0,0,0,0,0,0,0,0,0,-0.0234375,-1,0,0,0,0,1453

29883,0,0,0,0,0,0,0,0,0,0,0,0,0,-0.0234375,-1,0,0,0,0,1454

29903,0,0,0,0,0,0,0,0,0,0,0,0,0,-0.0234375,-1,0,0,0,0,1455

29923,0,0,0,0,0,0,0,0,0,0,0,0,0,-0.0234375,-1,0,0,0,0,1456

29943,0,0,0,0,0,0,0,0,0,0,0,0,0,-0.0234375,-1,0,0,0,0,1457

29963,0,0,0,0,0,0,0,0,0,0,0,0,0,-0.0234375,-1,0,0,0,0,1458

29983,0,0,0,0,0,0,0,0,0,0,0,0,0,-0.0234375,-1,0,0,0,0,1459

30003,0,0,0,0,0,0,0,0,0,0,0,0,0,-0.0234375,-1,0,0,0,0,1460

30023,0,0,0,0,0,0,0,0,0,0,0,0,0,-0.0234375,-1,0,0,0,0,1461

30043,0,0,0,0,0,0,0,0,0,0,0,0,0,-0.0234375,-1,0,0,0,0,1462

30063,0,0,0,0,0,0,0,0,0,0,0,0,0,-0.0234375,-1,0,0,0,0,1463

30083,0,0,0,0,0,0,0,0,0,0,0,0,0,-0.0234375,-1,0,0,0,0,1464

30103,0,0,0,0,0,0,0,0,0,0,0,0,0,-0.0234375,-1,0,0,0,0,1465

30123,0,0,0,0,0,0,0,0,0,0,0,0,0,-0.0234375,-1,0,0,0,0,1466

30143,0,0,0,0,0,0,0,0,0,0,0,0,0,-0.0234375,-1,0,0,0,0,1467

30163,0,0,0,0,0,0,0,0,0,0,0,0,0,-0.0234375,-1,0,0,0,0,1468

30183,0,0,0,0,0,0,0,0,0,0,0,0,0,-0.0234375,-1,0,0,0,0,1469

30203,0,0,0,0,0,0,0,0,0,0,0,0,0,-0.0234375,-1,0,0,0,0,1470

30223,0,0,0,0,0,0,0,0,0,0,0,0,0,-0.0234375,-1,0,0,0,0,1471

30243,0,0,0,0,0,0,0,0,0,0,0,0,0,-0.0234375,-1,0,0,0,0,1472

30263,0,0,0,0,0,0,0,0,0,0,0,0,0,-0.0234375,-1,0,0,0,0,1473

30283,0,0,0,0,0,0,0,0,0,0,0,0,0,-0.0234375,-1,0,0,0,0,1474

30303,0,0,0,0,0,0,0,0,0,0,0,0,0,-0.0234375,-1,0,0,0,0,1475

30323,0,0,0,0,0,0,0,0,0,0,0,0,0,-0.0234375,-1,0,0,0,0,1476

30343,0,0,0,0,0,0,0,0,0,0,0,0,0,-0.0234375,-1,0,0,0,0,1477

30363,0,0,0,0,0,0,0,0,0,0,0,0,0,-0.0234375,-1,0,0,0,0,1478

30383,0,0,0,0,0,0,0,0,0,0,0,0,0,-0.0234375,-1,0,0,0,0,1479

30403,0,0,0,0,0,0,0,0,0,0,0,0,0,-0.0234375,-1,0,0,0,0,1480

30423,0,0,0,0,0,0,0,0,0,0,0,0,0,-0.0234375,-1,0,0,0,0,1481

30443,0,0,0,0,0,0,0,0,0,0,0,0,0,-0.0234375,-1,0,0,0,0,1482

30463,0,0,0,0,0,0,0,0,0,0,0,0,0,-0.0234375,-1,0,0,0,0,1483

30483,0,0,0,0,0,0,0,0,0,0,0,0,0,-0.0234375,-1,0,0,0,0,1484

30503,0,0,0,0,0,0,0,0,0,0,0,0,0,-0.0234375,-1,0,0,0,0,1485

30523,0,0,0,0,0,0,0,0,0,0,0,0,0,-0.0234375,-1,0,0,0,0,1486

30543,0,0,0,0,0,0,0,0,0,0,0,0,0,-0.0234375,-1,0,0,0,0,1487

30563,0,0,0,0,0,0,0,0,0,0,0,0,0,-0.0234375,-1,0,0,0,0,1488

30583,0,0,0,0,0,0,0,0,0,0,0,0,0,-0.0234375,-1,0,0,0,0,1489

30603,0,0,0,0,0,0,0,0,0,0,0,0,0,-0.0234375,-1,0,0,0,0,1490

30623,0,0,0,0,0,0,0,0,0,0,0,0,0,-0.0234375,-1,0,0,0,0,1491

30643,0,0,0,0,0,0,0,0,0,0,0,0,0,-0.0234375,-1,0,0,0,0,1492

30663,0,0,0,0,0,0,0,0,0,0,0,0,0,-0.0234375,-1,0,0,0,0,1493

30683,0,0,0,0,0,0,0,0,0,0,0,0,0,-0.0234375,-1,0,0,0,0,1494

30703,0,0,0,0,0,0,0,0,0,0,0,0,0,-0.0234375,-1,0,0,0,0,1495

30723,0,0,0,0,0,0,0,0,0,0,0,0,0,-0.0234375,-1,0,0,0,0,1496

30743,0,0,0,0,0,0,0,0,0,0,0,0,0,-0.0234375,-1,0,0,0,0,1497

30763,0,0,0,0,0,0,0,0,0,0,0,0,0,-0.0234375,-1,0,0,0,0,1498

30783,0,0,0,0,0,0,0,0,0,0,0,0,0,-0.0234375,-1,0,0,0,0,1499

30803,0,0,0,0,0,0,0,0,0,0,0,0,0,-0.0234375,-1,0,0,0,0,1500

30823,0,0,0,0,0,0,0,0,0,0,0,0,0,-0.0234375,-1,0,0,0,0,1501

30843,0,0,0,0,0,0,0,0,0,0,0,0,0,-0.0234375,-1,0,0,0,0,1502

30863,0,0,0,0,0,0,0,0,0,0,0,0,0,-0.0234375,-1,0,0,0,0,1503

30883,0,0,0,0,0,0,0,0,0,0,0,0,0,-0.0234375,-1,0,0,0,0,1504

30903,0,0,0,0,0,0,0,0,0,0,0,0,0,-0.0234375,-1,0,0,0,0,1505

30923,0,0,0,0,0,0,0,0,0,0,0,0,0,-0.0234375,-1,0,0,0,0,1506

30943,0,0,0,0,0,0,0,0,0,0,0,0,0,-0.0234375,-1,0,0,0,0,1507

30963,0,0,0,0,0,0,0,0,0,0,0,0,0,-0.0234375,-1,0,0,0,0,1508

30983,0,0,0,0,0,0,0,0,0,0,0,0,0,-0.0234375,-1,0,0,0,0,1509

31003,0,0,0,0,0,0,0,0,0,0,0,0,0,-0.0234375,-1,0,0,0,0,1510

31043,0,0,0,0,0,0,0,0,0,0,0,0,0,-0.0234375,-1,0,0,0,0,1511

31063,0,0,0,0,0,0,0,0,0,0,0,0,0,-0.0234375,-1,0,0,0,0,1512

31083,0,0,0,0,0,0,0,0,0,0,0,0,0,-0.0234375,-1,0,0,0,0,1513

31103,0,0,0,0,0,0,0,0,0,0,0,0,0,-0.0234375,-1,0,0,0,0,1514

31123,0,0,0,0,0,0,0,0,0,0,0,0,0,-0.0234375,-1,0,0,0,0,1515

31143,0,0,0,0,0,0,0,0,0,0,0,0,0,-0.0234375,-1,0,0,0,0,1516

31163,0,0,0,0,0,0,0,0,0,0,0,0,0,-0.0234375,-1,0,0,0,0,1517

31183,0,0,0,0,0,0,0,0,0,0,0,0,0,-0.0234375,-1,0,0,0,0,1518

31203,0,0,0,0,0,0,0,0,0,0,0,0,0,-0.0234375,-1,0,0,0,0,1519

31223,0,0,0,0,0,0,0,0,0,0,0,0,0,-0.0234375,-1,0,0,0,0,1520

31243,0,0,0,0,0,0,0,0,0,0,0,0,0,-0.0234375,-1,0,0,0,0,1521

31263,0,0,0,0,0,0,0,0,0,0,0,0,0,-0.0234375,-1,0,0,0,0,1522

31283,0,0,0,0,0,0,0,0,0,0,0,0,0,-0.0234375,-1,0,0,0,0,1523

31303,0,0,0,0,0,0,0,0,0,0,0,0,0,-0.0234375,-1,0,0,0,0,1524

31323,0,0,0,0,0,0,0,0,0,0,0,0,0,-0.0234375,-1,0,0,0,0,1525

31343,0,0,0,0,0,0,0,0,0,0,0,0,0,-0.0234375,-1,0,0,0,0,1526

31363,0,0,0,0,0,0,0,0,0,0,0,0,0,-0.0234375,-1,0,0,0,0,1527

31383,0,0,0,0,0,0,0,0,0,0,0,0,0,-0.0234375,-1,0,0,0,0,1528

31403,0,0,0,0,0,0,0,0,0,0,0,0,0,-0.0234375,-1,0,0,0,0,1529

31423,0,0,0,0,0,0,0,0,0,0,0,0,0,-0.0234375,-1,0,0,0,0,1530

31443,0,0,0,0,0,0,0,0,0,0,0,0,0,-0.0234375,-1,0,0,0,0,1531

31463,0,0,0,0,0,0,0,0,0,0,0,0,0,-0.0234375,-1,0,0,0,0,1532

31483,0,0,0,0,0,0,0,0,0,0,0,0,0,-0.0234375,-1,0,0,0,0,1533

31503,0,0,0,0,0,0,0,0,0,0,0,0,0,-0.0234375,-1,0,0,0,0,1534

31523,0,0,0,0,0,0,0,0,0,0,0,0,0,-0.0234375,-1,0,0,0,0,1535

31543,0,0,0,0,0,0,0,0,0,0,0,0,0,-0.0234375,-1,0,0,0,0,1536

31563,0,0,0,0,0,0,0,0,0,0,0,0,0,-0.0234375,-1,0,0,0,0,1537

31583,0,0,0,0,0,0,0,0,0,0,0,0,0,-0.0234375,-1,0,0,0,0,1538

31603,0,0,0,0,0,0,0,0,0,0,0,0,0,-0.0234375,-1,0,0,0,0,1539

31623,0,0,0,0,0,0,0,0,0,0,0,0,0,-0.0234375,-1,0,0,0,0,1540

31643,0,0,0,0,0,0,0,0,0,0,0,0,0,-0.0234375,-1,0,0,0,0,1541

31663,0,0,0,0,0,0,0,0,0,0,0,0,0,-0.0234375,-1,0,0,0,0,1542

31683,0,0,0,0,0,0,0,0,0,0,0,0,0,-0.0234375,-1,0,0,0,0,1543

31703,0,0,0,0,0,0,0,0,0,0,0,0,0,-0.0234375,-1,0,0,0,0,1544

31723,0,0,0,0,0,0,0,0,0,0,0,0,0,-0.0234375,-1,0,0,0,0,1545

31743,0,0,0,0,0,0,0,0,0,0,0,0,0,-0.0234375,-1,0,0,0,0,1546

31763,0,0,0,0,0,0,0,0,0,0,0,0,0,-0.0234375,-1,0,0,0,0,1547

31783,0,0,0,0,0,0,0,0,0,0,0,0,0,-0.0234375,-1,0,0,0,0,1548

31803,0,0,0,0,0,0,0,0,0,0,0,0,0,-0.0234375,-1,0,0,0,0,1549

31823,0,0,0,0,0,0,0,0,0,0,0,0,0,-0.0234375,-1,0,0,0,0,1550

31843,0,0,0,0,0,0,0,0,0,0,0,0,0,-0.0234375,-1,0,0,0,0,1551

31863,0,0,0,0,0,0,0,0,0,0,0,0,0,-0.0234375,-1,0,0,0,0,1552

31883,0,0,0,0,0,0,0,0,0,0,0,0,0,-0.0234375,-1,0,0,0,0,1553

31903,0,0,0,0,0,0,0,0,0,0,0,0,0,-0.0234375,-1,0,0,0,0,1554

31923,0,0,0,0,0,0,0,0,0,0,0,0,0,-0.0234375,-1,0,0,0,0,1555

31943,0,0,0,0,0,0,0,0,0,0,0,0,0,-0.0234375,-1,0,0,0,0,1556

31963,0,0,0,0,0,0,0,0,0,0,0,0,0,-0.0234375,-1,0,0,0,0,1557

31983,0,0,0,0,0,0,0,0,0,0,0,0,0,-0.0234375,-1,0,0,0,0,1558

32003,0,0,0,0,0,0,0,0,0,0,0,0,0,-0.0234375,-1,0,0,0,0,1559

32023,0,0,0,0,0,0,0,0,0,0,0,0,0,-0.0234375,-1,0,0,0,0,1560

32043,0,0,0,0,0,0,0,0,0,0,0,0,0,-0.0234375,-1,0,0,0,0,1561

32063,0,0,0,0,0,0,0,0,0,0,0,0,0,-0.0234375,-1,0,0,0,0,1562

32083,0,0,0,0,0,0,0,0,0,0,0,0,0,-0.0234375,-1,0,0,0,0,1563

32103,0,0,0,0,0,0,0,0,0,0,0,0,0,-0.0234375,-1,0,0,0,0,1564

32123,0,0,0,0,0,0,0,0,0,0,0,0,0,-0.0234375,-1,0,0,0,0,1565

32143,0,0,0,0,0,0,0,0,0,0,0,0,0,-0.0234375,-1,0,0,0,0,1566

32163,0,0,0,0,0,0,0,0,0,0,0,0,0,-0.0234375,-1,0,0,0,0,1567

32183,0,0,0,0,0,0,0,0,0,0,0,0,0,-0.0234375,-1,0,0,0,0,1568

32203,0,0,0,0,0,0,0,0,0,0,0,0,0,-0.0234375,-1,0,0,0,0,1569

32223,0,0,0,0,0,0,0,0,0,0,0,0,0,-0.0234375,-1,0,0,0,0,1570

32243,0,0,0,0,0,0,0,0,0,0,0,0,0,-0.0234375,-1,0,0,0,0,1571

32263,0,0,0,0,0,0,0,0,0,0,0,0,0,-0.0234375,-1,0,0,0,0,1572

32283,0,0,0,0,0,0,0,0,0,0,0,0,0,-0.0234375,-1,0,0,0,0,1573

32303,0,0,0,0,0,0,0,0,0,0,0,0,0,-0.0234375,-1,0,0,0,0,1574

32323,0,0,0,0,0,0,0,0,0,0,0,0,0,-0.0234375,-1,0,0,0,0,1575

32343,0,0,0,0,0,0,0,0,0,0,0,0,0,-0.0234375,-1,0,0,0,0,1576

32363,0,0,0,0,0,0,0,0,0,0,0,0,0,-0.0234375,-1,0,0,0,0,1577

32383,0,0,0,0,0,0,0,0,0,0,0,0,0,-0.0234375,-1,0,0,0,0,1578

32403,0,0,0,0,0,0,0,0,0,0,0,0,0,-0.0234375,-1,0,0,0,0,1579

32423,0,0,0,0,0,0,0,0,0,0,0,0,0,-0.0234375,-1,0,0,0,0,1580

32443,0,0,0,0,0,0,0,0,0,0,0,0,0,-0.0234375,-1,0,0,0,0,1581

32463,0,0,0,0,0,0,0,0,0,0,0,0,0,-0.0234375,-1,0,0,0,0,1582

32483,0,0,0,0,0,0,0,0,0,0,0,0,0,-0.0234375,-1,0,0,0,0,1583

32503,0,0,0,0,0,0,0,0,0,0,0,0,0,-0.0234375,-1,0,0,0,0,1584

32523,0,0,0,0,0,0,0,0,0,0,0,0,0,-0.0234375,-1,0,0,0,0,1585

32543,0,0,0,0,0,0,0,0,0,0,0,0,0,-0.0234375,-1,0,0,0,0,1586

32563,0,0,0,0,0,0,0,0,0,0,0,0,0,-0.0234375,-1,0,0,0,0,1587

32583,0,0,0,0,0,0,0,0,0,0,0,0,0,-0.0234375,-1,0,0,0,0,1588

32603,0,0,0,0,0,0,0,0,0,0,0,0,0,-0.0234375,-1,0,0,0,0,1589

32623,0,0,0,0,0,0,0,0,0,0,0,0,0,-0.0234375,-1,0,0,0,0,1590

32643,0,0,0,0,0,0,0,0,0,0,0,0,0,-0.0234375,-1,0,0,0,0,1591

32663,0,0,0,0,0,0,0,0,0,0,0,0,0,-0.0234375,-1,0,0,0,0,1592

32683,0,0,0,0,0,0,0,0,0,0,0,0,0,-0.0234375,-1,0,0,0,0,1593

32703,0,0,0,0,0,0,0,0,0,0,0,0,0,-0.0234375,-1,0,0,0,0,1594

32723,0,0,0,0,0,0,0,0,0,0,0,0,0,-0.0234375,-1,0,0,0,0,1595

32743,0,0,0,0,0,0,0,0,0,0,0,0,0,-0.0234375,-1,0,0,0,0,1596

32763,0,0,0,0,0,0,0,0,0,0,0,0,0,-0.0234375,-1,0,0,0,0,1597

32783,0,0,0,0,0,0,0,0,0,0,0,0,0,-0.0234375,-1,0,0,0,0,1598

32803,0,0,0,0,0,0,0,0,0,0,0,0,0,-0.0234375,-1,0,0,0,0,1599

32823,0,0,0,0,0,0,0,0,0,0,0,0,0,-0.0234375,-1,0,0,0,0,1600

32843,0,0,0,0,0,0,0,0,0,0,0,0,0,-0.0234375,-1,0,0,0,0,1601

32863,0,0,0,0,0,0,0,0,0,0,0,0,0,-0.0234375,-1,0,0,0,0,1602

32883,0,0,0,0,0,0,0,0,0,0,0,0,0,-0.0234375,-1,0,0,0,0,1603

32903,0,0,0,0,0,0,0,0,0,0,0,0,0,-0.0234375,-1,0,0,0,0,1604

32923,0,0,0,0,0,0,0,0,0,0,0,0,0,-0.0234375,-1,0,0,0,0,1605

32943,0,0,0,0,0,0,0,0,0,0,0,0,0,-0.0234375,-1,0,0,0,0,1606

32963,0,0,0,0,0,0,0,0,0,0,0,0,0,-0.0234375,-1,0,0,0,0,1607

32983,0,0,0,0,0,0,0,0,0,0,0,0,0,-0.0234375,-1,0,0,0,0,1608

33003,0,0,0,0,0,0,0,0,0,0,0,0,0,-0.0234375,-1,0,0,0,0,1609

33023,0,0,0,0,0,0,0,0,0,0,0,0,0,-0.0234375,-1,0,0,0,0,1610

33043,0,0,0,0,0,0,0,0,0,0,0,0,0,-0.0234375,-1,0,0,0,0,1611

33063,0,0,0,0,0,0,0,0,0,0,0,0,0,-0.0234375,-1,0,0,0,0,1612

33083,0,0,0,0,0,0,0,0,0,0,0,0,0,-0.0234375,-1,0,0,0,0,1613

33103,0,0,0,0,0,0,0,0,0,0,0,0,0,-0.0234375,-1,0,0,0,0,1614

33123,0,0,0,0,0,0,0,0,0,0,0,0,0,-0.0234375,-1,0,0,0,0,1615

33143,0,0,0,0,0,0,0,0,0,0,0,0,0,-0.0234375,-1,0,0,0,0,1616

33163,0,0,0,0,0,0,0,0,0,0,0,0,0,-0.0234375,-1,0,0,0,0,1617

33183,0,0,0,0,0,0,0,0,0,0,0,0,0,-0.0234375,-1,0,0,0,0,1618

33203,0,0,0,0,0,0,0,0,0,0,0,0,0,-0.0234375,-1,0,0,0,0,1619

33223,0,0,0,0,0,0,0,0,0,0,0,0,0,-0.0234375,-1,0,0,0,0,1620

33243,0,0,0,0,0,0,0,0,0,0,0,0,0,-0.0234375,-1,0,0,0,0,1621

33263,0,0,0,0,0,0,0,0,0,0,0,0,0,-0.0234375,-1,0,0,0,0,1622

33283,0,0,0,0,0,0,0,0,0,0,0,0,0,-0.0234375,-1,0,0,0,0,1623

33303,0,0,0,0,0,0,0,0,0,0,0,0,0,-0.0234375,-1,0,0,0,0,1624

33323,0,0,0,0,0,0,0,0,0,0,0,0,0,-0.0234375,-1,0,0,0,0,1625

33343,0,0,0,0,0,0,0,0,0,0,0,0,0,-0.0234375,-1,0,0,0,0,1626

33363,0,0,0,0,0,0,0,0,0,0,0,0,0,-0.0234375,-1,0,0,0,0,1627

33383,0,0,0,0,0,0,0,0,0,0,0,0,0,-0.0234375,-1,0,0,0,0,1628

33403,0,0,0,0,0,0,0,0,0,0,0,0,0,-0.0234375,-1,0,0,0,0,1629

33423,0,0,0,0,0,0,0,0,0,0,0,0,0,-0.0234375,-1,0,0,0,0,1630

33443,0,0,0,0,0,0,0,0,0,0,0,0,0,-0.0234375,-1,0,0,0,0,1631

33463,0,0,0,0,0,0,0,0,0,0,0,0,0,-0.0234375,-1,0,0,0,0,1632

33483,0,0,0,0,0,0,0,0,0,0,0,0,0,-0.0234375,-1,0,0,0,0,1633

33503,0,0,0,0,0,0,0,0,0,0,0,0,0,-0.0234375,-1,0,0,0,0,1634

33523,0,0,0,0,0,0,0,0,0,0,0,0,0,-0.0234375,-1,0,0,0,0,1635

33543,0,0,0,0,0,0,0,0,0,0,0,0,0,-0.0234375,-1,0,0,0,0,1636

33563,0,0,0,0,0,0,0,0,0,0,0,0,0,-0.0234375,-1,0,0,0,0,1637

33583,0,0,0,0,0,0,0,0,0,0,0,0,0,-0.0234375,-1,0,0,0,0,1638

33603,0,0,0,0,0,0,0,0,0,0,0,0,0,-0.0234375,-1,0,0,0,0,1639

33623,0,0,0,0,0,0,0,0,0,0,0,0,0,-0.0234375,-1,0,0,0,0,1640

33643,0,0,0,0,0,0,0,0,0,0,0,0,0,-0.0234375,-1,0,0,0,0,1641

33663,0,0,0,0,0,0,0,0,0,0,0,0,0,-0.0234375,-1,0,0,0,0,1642

33683,0,0,0,0,0,0,0,0,0,0,0,0,0,-0.0234375,-1,0,0,0,0,1643

33703,0,0,0,0,0,0,0,0,0,0,0,0,0,-0.0234375,-1,0,0,0,0,1644

33723,0,0,0,0,0,0,0,0,0,0,0,0,0,-0.0234375,-1,0,0,0,0,1645

33743,0,0,0,0,0,0,0,0,0,0,0,0,0,-0.0234375,-1,0,0,0,0,1646

33763,0,0,0,0,0,0,0,0,0,0,0,0,0,-0.0234375,-1,0,0,0,0,1647

33783,0,0,0,0,0,0,0,0,0,0,0,0,0,-0.0234375,-1,0,0,0,0,1648

33803,0,0,0,0,0,0,0,0,0,0,0,0,0,-0.0234375,-1,0,0,0,0,1649

33823,0,0,0,0,0,0,0,0,0,0,0,0,0,-0.0234375,-1,0,0,0,0,1650

33843,0,0,0,0,0,0,0,0,0,0,0,0,0,-0.0234375,-1,0,0,0,0,1651

33863,0,0,0,0,0,0,0,0,0,0,0,0,0,-0.0234375,-1,0,0,0,0,1652

33883,0,0,0,0,0,0,0,0,0,0,0,0,0,-0.0234375,-1,0,0,0,0,1653

33903,0,0,0,0,0,0,0,0,0,0,0,0,0,-0.0234375,-1,0,0,0,0,1654

33923,0,0,0,0,0,0,0,0,0,0,0,0,0,-0.0234375,-1,0,0,0,0,1655

33943,0,0,0,0,0,0,0,0,0,0,0,0,0,-0.0234375,-1,0,0,0,0,1656

33963,0,0,0,0,0,0,0,0,0,0,0,0,0,-0.0234375,-1,0,0,0,0,1657

33983,0,0,0,0,0,0,0,0,0,0,0,0,0,-0.0234375,-1,0,0,0,0,1658

34003,0,0,0,0,0,0,0,0,0,0,0,0,0,-0.0234375,-1,0,0,0,0,1659

34023,0,0,0,0,0,0,0,0,0,0,0,0,0,-0.0234375,-1,0,0,0,0,1660

34043,0,0,0,0,0,0,0,0,0,0,0,0,0,-0.0234375,-1,0,0,0,0,1661

34063,0,0,0,0,0,0,0,0,0,0,0,0,0,-0.0234375,-1,0,0,0,0,1662

34083,0,0,0,0,0,0,0,0,0,0,0,0,0,-0.0234375,-1,0,0,0,0,1663

34103,0,0,0,0,0,0,0,0,0,0,0,0,0,-0.0234375,-1,0,0,0,0,1664

34123,0,0,0,0,0,0,0,0,0,0,0,0,0,-0.0234375,-1,0,0,0,0,1665

34143,0,0,0,0,0,0,0,0,0,0,0,0,0,-0.0234375,-1,0,0,0,0,1666

34163,0,0,0,0,0,0,0,0,0,0,0,0,0,-0.0234375,-1,0,0,0,0,1667

34183,0,0,0,0,0,0,0,0,0,0,0,0,0,-0.0234375,-1,0,0,0,0,1668

34203,0,0,0,0,0,0,0,0,0,0,0,0,0,-0.0234375,-1,0,0,0,0,1669

34223,0,0,0,0,0,0,0,0,0,0,0,0,0,-0.0234375,-1,0,0,0,0,1670

34243,0,0,0,0,0,0,0,0,0,0,0,0,0,-0.0234375,-1,0,0,0,0,1671

34263,0,0,0,0,0,0,0,0,0,0,0,0,0,-0.0234375,-1,0,0,0,0,1672

34283,0,0,0,0,0,0,0,0,0,0,0,0,0,-0.0234375,-1,0,0,0,0,1673

34303,0,0,0,0,0,0,0,0,0,0,0,0,0,-0.0234375,-1,0,0,0,0,1674

34323,0,0,0,0,0,0,0,0,0,0,0,0,0,-0.0234375,-1,0,0,0,0,1675

34343,0,0,0,0,0,0,0,0,0,0,0,0,0,-0.0234375,-1,0,0,0,0,1676

34363,0,0,0,0,0,0,0,0,0,0,0,0,0,-0.0234375,-1,0,0,0,0,1677

34383,0,0,0,0,0,0,0,0,0,0,0,0,0,-0.0234375,-1,0,0,0,0,1678

34403,0,0,0,0,0,0,0,0,0,0,0,0,0,-0.0234375,-1,0,0,0,0,1679

34423,0,0,0,0,0,0,0,0,0,0,0,0,0,-0.0234375,-1,0,0,0,0,1680

34443,0,0,0,0,0,0,0,0,0,0,0,0,0,-0.0234375,-1,0,0,0,0,1681

34463,0,0,0,0,0,0,0,0,0,0,0,0,0,-0.0234375,-1,0,0,0,0,1682

34483,0,0,0,0,0,0,0,0,0,0,0,0,0,-0.0234375,-1,0,0,0,0,1683

34503,0,0,0,0,0,0,0,0,0,0,0,0,0,-0.0234375,-1,0,0,0,0,1684

34523,0,0,0,0,0,0,0,0,0,0,0,0,0,-0.0234375,-1,0,0,0,0,1685

34543,0,0,0,0,0,0,0,0,0,0,0,0,0,-0.0234375,-1,0,0,0,0,1686

34563,0,0,0,0,0,0,0,0,0,0,0,0,0,-0.0234375,-1,0,0,0,0,1687

34583,0,0,0,0,0,0,0,0,0,0,0,0,0,-0.0234375,-1,0,0,0,0,1688

34603,0,0,0,0,0,0,0,0,0,0,0,0,0,-0.0234375,-1,0,0,0,0,1689

