hansonl02/frc-robot-code/162/joystick_status_gamepad.csv
timestamp,button1,button2,button3,button4,button5,button6,button7,button8,button9,button10,button11,button12,button13,axis1,axis2,axis3,axis4,axis5,axis6,queue_index
747,0,0,0,0,0,0,0,0,0,0,0,0,0,-0.015625,0,0,0.023622,0.015748,0,0

765,0,0,0,0,0,0,0,0,0,0,0,0,0,-0.015625,0,0,0.023622,0.015748,0,1

785,0,0,0,0,0,0,0,0,0,0,0,0,0,-0.015625,0,0,0.023622,0.015748,0,2

805,0,0,0,0,0,0,0,0,0,0,0,0,0,-0.015625,0,0,0.023622,0.015748,0,3

825,0,0,0,0,0,0,0,0,0,0,0,0,0,-0.015625,0,0,0.023622,0.015748,0,4

845,0,0,0,0,0,0,0,0,0,0,0,0,0,-0.015625,0,0,0.023622,0.015748,0,5

885,0,0,0,0,0,0,0,0,0,0,0,0,0,-0.015625,0,0,0.023622,0.015748,0,6

905,0,0,0,0,0,0,0,0,0,0,0,0,0,-0.015625,0,0,0.023622,0.015748,0,7

925,0,0,0,0,0,0,0,0,0,0,0,0,0,-0.015625,0,0,0.023622,0.015748,0,8

945,0,0,0,0,0,0,0,0,0,0,0,0,0,-0.015625,0,0,0.023622,0.015748,0,9

965,0,0,0,0,0,0,0,0,0,0,0,0,0,-0.015625,0,0,0.023622,0.015748,0,10

985,0,0,0,0,0,0,0,0,0,0,0,0,0,-0.015625,0,0,0.023622,0.015748,0,11

1005,0,0,0,0,0,0,0,0,0,0,0,0,0,-0.015625,0,0,0.023622,0.015748,0,12

1025,0,0,0,0,0,0,0,0,0,0,0,0,0,-0.015625,0,0,0.023622,0.015748,0,13

1045,0,0,0,0,0,0,0,0,0,0,0,0,0,-0.015625,0,0,0.023622,0.015748,0,14

1065,0,0,0,0,0,0,0,0,0,0,0,0,0,-0.015625,0,0,0.023622,0.015748,0,15

1085,0,0,0,0,0,0,0,0,0,0,0,0,0,-0.015625,0,0,0.023622,0.015748,0,16

1105,0,0,0,0,0,0,0,0,0,0,0,0,0,-0.015625,0,0,0.023622,0.015748,0,17

1125,0,0,0,0,0,0,0,0,0,0,0,0,0,-0.015625,0,0,0.023622,0.015748,0,18

1145,0,0,0,0,0,0,0,0,0,0,0,0,0,-0.015625,0,0,0.023622,0.015748,0,19

1165,0,0,0,0,0,0,0,0,0,0,0,0,0,-0.015625,0,0,0.023622,0.015748,0,20

1185,0,0,0,0,0,0,0,0,0,0,0,0,0,-0.015625,0,0,0.023622,0.015748,0,21

1205,0,0,0,0,0,0,0,0,0,0,0,0,0,-0.015625,0,0,0.023622,0.015748,0,22

1225,0,0,0,0,0,0,0,0,0,0,0,0,0,-0.015625,0,0,0.023622,0.015748,0,23

1245,0,0,0,0,0,0,0,0,0,0,0,0,0,-0.015625,0,0,0.023622,0.015748,0,24

1265,0,0,0,0,0,0,0,0,0,0,0,0,0,-0.015625,0,0,0.023622,0.015748,0,25

1285,0,0,0,0,0,0,0,0,0,0,0,0,0,-0.015625,0,0,0.023622,0.015748,0,26

1305,0,0,0,0,0,0,0,0,0,0,0,0,0,-0.015625,0,0,0.023622,0.015748,0,27

1325,0,0,0,0,0,0,0,0,0,0,0,0,0,-0.015625,0,0,0.023622,0.015748,0,28

1345,0,0,0,0,0,0,0,0,0,0,0,0,0,-0.015625,0,0,0.023622,0.015748,0,29

1365,0,0,0,0,0,0,0,0,0,0,0,0,0,-0.015625,0,0,0.023622,0.015748,0,30

1385,0,0,0,0,0,0,0,0,0,0,0,0,0,-0.015625,0,0,0.023622,0.015748,0,31

1405,0,0,0,0,0,0,0,0,0,0,0,0,0,-0.015625,0,0,0.023622,0.015748,0,32

1425,0,0,0,0,0,0,0,0,0,0,0,0,0,-0.015625,0,0,0.023622,0.015748,0,33

1445,0,0,0,0,0,0,0,0,0,0,0,0,0,-0.015625,0,0,0.023622,0.015748,0,34

1465,0,0,0,0,0,0,0,0,0,0,0,0,0,-0.015625,0,0,0.023622,0.015748,0,35

1485,0,0,0,0,0,0,0,0,0,0,0,0,0,-0.015625,0,0,0.023622,0.015748,0,36

1505,0,0,0,0,0,0,0,0,0,0,0,0,0,-0.015625,0,0,0.023622,0.015748,0,37

1525,0,0,0,0,0,0,0,0,0,0,0,0,0,-0.015625,0,0,0.023622,0.015748,0,38

1545,0,0,0,0,0,0,0,0,0,0,0,0,0,-0.015625,0,0,0.023622,0.015748,0,39

1565,0,0,0,0,0,0,0,0,0,0,0,0,0,-0.015625,0,0,0.023622,0.015748,0,40

1585,0,0,0,0,0,0,0,0,0,0,0,0,0,-0.015625,0,0,0.023622,0.015748,0,41

1605,0,0,0,0,0,0,0,0,0,0,0,0,0,-0.015625,0,0,0.023622,0.015748,0,42

1625,0,0,0,0,0,0,0,0,0,0,0,0,0,-0.015625,0,0,0.023622,0.015748,0,43

1645,0,0,0,0,0,0,0,0,0,0,0,0,0,-0.015625,0,0,0.023622,0.015748,0,44

1665,0,0,0,0,0,0,0,0,0,0,0,0,0,-0.015625,0,0,0.023622,0.015748,0,45

1685,0,0,0,0,0,0,0,0,0,0,0,0,0,-0.015625,0,0,0.023622,0.015748,0,46

1705,0,0,0,0,0,0,0,0,0,0,0,0,0,-0.015625,0,0,0.023622,0.015748,0,47

1725,0,0,0,0,0,0,0,0,0,0,0,0,0,-0.015625,0,0,0.023622,0.015748,0,48

1745,0,0,0,0,0,0,0,0,0,0,0,0,0,-0.015625,0,0,0.023622,0.015748,0,49

1765,0,0,0,0,0,0,0,0,0,0,0,0,0,-0.015625,0,0,0.023622,0.015748,0,50

1785,0,0,0,0,0,0,0,0,0,0,0,0,0,-0.015625,0,0,0.023622,0.015748,0,51

1805,0,0,0,0,0,0,0,0,0,0,0,0,0,-0.015625,0,0,0.023622,0.015748,0,52

1825,0,0,0,0,0,0,0,0,0,0,0,0,0,-0.015625,0,0,0.023622,0.015748,0,53

1845,0,0,0,0,0,0,0,0,0,0,0,0,0,-0.015625,0,0,0.023622,0.015748,0,54

1865,0,0,0,0,0,0,0,0,0,0,0,0,0,-0.015625,0,0,0.023622,0.015748,0,55

1885,0,0,0,0,0,0,0,0,0,0,0,0,0,-0.015625,0,0,0.023622,0.015748,0,56

1905,0,0,0,0,0,0,0,0,0,0,0,0,0,-0.015625,0,0,0.023622,0.015748,0,57

1925,0,0,0,0,0,0,0,0,0,0,0,0,0,-0.015625,0,0,0.023622,0.015748,0,58

1945,0,0,0,0,0,0,0,0,0,0,0,0,0,-0.015625,0,0,0.023622,0.015748,0,59

1965,0,0,0,0,0,0,0,0,0,0,0,0,0,-0.015625,0,0,0.023622,0.015748,0,60

1985,0,0,0,0,0,0,0,0,0,0,0,0,0,-0.015625,0,0,0.023622,0.015748,0,61

2005,0,0,0,0,0,0,0,0,0,0,0,0,0,-0.015625,0,0,0.023622,0.015748,0,62

2025,0,0,0,0,0,0,0,0,0,0,0,0,0,-0.015625,0,0,0.023622,0.015748,0,63

2045,0,0,0,0,0,0,0,0,0,0,0,0,0,-0.015625,0,0,0.023622,0.015748,0,64

2065,0,0,0,0,0,0,0,0,0,0,0,0,0,-0.015625,0,0,0.023622,0.015748,0,65

2085,0,0,0,0,0,0,0,0,0,0,0,0,0,-0.015625,0,0,0.023622,0.015748,0,66

2105,0,0,0,0,0,0,0,0,0,0,0,0,0,-0.015625,0,0,0.023622,0.015748,0,67

2125,0,0,0,0,0,0,0,0,0,0,0,0,0,-0.015625,0,0,0.023622,0.015748,0,68

2145,0,0,0,0,0,0,0,0,0,0,0,0,0,-0.015625,0,0,0.023622,0.015748,0,69

2165,0,0,0,0,0,0,0,0,0,0,0,0,0,-0.015625,0,0,0.023622,0.015748,0,70

2185,0,0,0,0,0,0,0,0,0,0,0,0,0,-0.015625,0,0,0.023622,0.015748,0,71

2205,0,0,0,0,0,0,0,0,0,0,0,0,0,-0.015625,0,0,0.023622,0.015748,0,72

2225,0,0,0,0,0,0,0,0,0,0,0,0,0,-0.015625,0,0,0.023622,0.015748,0,73

2245,0,0,0,0,0,0,0,0,0,0,0,0,0,-0.015625,0,0,0.023622,0.015748,0,74

2265,0,0,0,0,0,0,0,0,0,0,0,0,0,-0.015625,0,0,0.023622,0.015748,0,75

2285,0,0,0,0,0,0,0,0,0,0,0,0,0,-0.015625,0,0,0.023622,0.015748,0,76

2305,0,0,0,0,0,0,0,0,0,0,0,0,0,-0.015625,0,0,0.023622,0.015748,0,77

2325,0,0,0,0,0,0,0,0,0,0,0,0,0,-0.015625,0,0,0.023622,0.015748,0,78

2345,0,0,0,0,0,0,0,0,0,0,0,0,0,-0.015625,0,0,0.023622,0.015748,0,79

2365,0,0,0,0,0,0,0,0,0,0,0,0,0,-0.015625,0,0,0.023622,0.015748,0,80

2385,0,0,0,0,0,0,0,0,0,0,0,0,0,-0.015625,0,0,0.023622,0.015748,0,81

2405,0,0,0,0,0,0,0,0,0,0,0,0,0,-0.015625,0,0,0.023622,0.015748,0,82

2425,0,0,0,0,0,0,0,0,0,0,0,0,0,-0.015625,0,0,0.023622,0.015748,0,83

2445,0,0,0,0,0,0,0,0,0,0,0,0,0,-0.015625,0,0,0.023622,0.015748,0,84

2465,0,0,0,0,0,0,0,0,0,0,0,0,0,-0.015625,0,0,0.023622,0.015748,0,85

2485,0,0,0,0,0,0,0,0,0,0,0,0,0,-0.015625,0,0,0.023622,0.015748,0,86

2505,0,0,0,0,0,0,0,0,0,0,0,0,0,-0.015625,0,0,0.023622,0.015748,0,87

2525,0,0,0,0,0,0,0,0,0,0,0,0,0,-0.015625,0,0,0.023622,0.015748,0,88

2545,0,0,0,0,0,0,0,0,0,0,0,0,0,-0.015625,0,0,0.023622,0.015748,0,89

2565,0,0,0,0,0,0,0,0,0,0,0,0,0,-0.015625,0,0,0.023622,0.015748,0,90

2585,0,0,0,0,0,0,0,0,0,0,0,0,0,-0.015625,0,0,0.023622,0.015748,0,91

2605,0,0,0,0,0,0,0,0,0,0,0,0,0,-0.015625,0,0,0.023622,0.015748,0,92

2625,0,0,0,0,0,0,0,0,0,0,0,0,0,-0.015625,0,0,0.023622,0.015748,0,93

2645,0,0,0,0,0,0,0,0,0,0,0,0,0,-0.015625,0,0,0.023622,0.015748,0,94

2665,0,0,0,0,0,0,0,0,0,0,0,0,0,-0.015625,0,0,0.023622,0.015748,0,95

2685,0,0,0,0,0,0,0,0,0,0,0,0,0,-0.015625,0,0,0.023622,0.015748,0,96

2705,0,0,0,0,0,0,0,0,0,0,0,0,0,-0.015625,0,0,0.023622,0.015748,0,97

2725,0,0,0,0,0,0,0,0,0,0,0,0,0,-0.015625,0,0,0.023622,0.015748,0,98

2745,0,0,0,0,0,0,0,0,0,0,0,0,0,-0.015625,0,0,0.023622,0.015748,0,99

2765,0,0,0,0,0,0,0,0,0,0,0,0,0,-0.015625,0,0,0.023622,0.015748,0,100

2785,0,0,0,0,0,0,0,0,0,0,0,0,0,-0.015625,0,0,0.023622,0.015748,0,101

2805,0,0,0,0,0,0,0,0,0,0,0,0,0,-0.015625,0,0,0.023622,0.015748,0,102

2825,0,0,0,0,0,0,0,0,0,0,0,0,0,-0.015625,0,0,0.023622,0.015748,0,103

2845,0,0,0,0,0,0,0,0,0,0,0,0,0,-0.015625,0,0,0.023622,0.015748,0,104

2865,0,0,0,0,0,0,0,0,0,0,0,0,0,-0.015625,0,0,0.023622,0.015748,0,105

2885,0,0,0,0,0,0,0,0,0,0,0,0,0,-0.015625,0,0,0.023622,0.015748,0,106

2905,0,0,0,0,0,0,0,0,0,0,0,0,0,-0.015625,0,0,0.023622,0.015748,0,107

2925,0,0,0,0,0,0,0,0,0,0,0,0,0,-0.015625,0,0,0.023622,0.015748,0,108

2945,0,0,0,0,0,0,0,0,0,0,0,0,0,-0.015625,0,0,0.023622,0.015748,0,109

2965,0,0,0,0,0,0,0,0,0,0,0,0,0,-0.015625,0,0,0.023622,0.015748,0,110

2985,0,0,0,0,0,0,0,0,0,0,0,0,0,-0.015625,0,0,0.023622,0.015748,0,111

3005,0,0,0,0,0,0,0,0,0,0,0,0,0,-0.015625,0,0,0.023622,0.015748,0,112

3025,0,0,0,0,0,0,0,0,0,0,0,0,0,-0.015625,0,0,0.023622,0.015748,0,113

3045,0,0,0,0,0,0,0,0,0,0,0,0,0,-0.015625,0,0,0.023622,0.015748,0,114

3065,0,0,0,0,0,0,0,0,0,0,0,0,0,-0.015625,0,0,0.023622,0.015748,0,115

3085,0,0,0,0,0,0,0,0,0,0,0,0,0,-0.015625,0,0,0.023622,0.015748,0,116

3105,0,0,0,0,0,0,0,0,0,0,0,0,0,-0.015625,0,0,0.023622,0.015748,0,117

3125,0,0,0,0,0,0,0,0,0,0,0,0,0,-0.015625,0,0,0.023622,0.015748,0,118

3145,0,0,0,0,0,0,0,0,0,0,0,0,0,-0.015625,0,0,0.023622,0.015748,0,119

3165,0,0,0,0,0,0,0,0,0,0,0,0,0,-0.015625,0,0,0.023622,0.015748,0,120

3185,0,0,0,0,0,0,0,0,0,0,0,0,0,-0.015625,0,0,0.023622,0.015748,0,121

3205,0,0,0,0,0,0,0,0,0,0,0,0,0,-0.015625,0,0,0.023622,0.015748,0,122

3225,0,0,0,0,0,0,0,0,0,0,0,0,0,-0.015625,0,0,0.023622,0.015748,0,123

3245,0,0,0,0,0,0,0,0,0,0,0,0,0,-0.015625,0,0,0.023622,0.015748,0,124

3265,0,0,0,0,0,0,0,0,0,0,0,0,0,-0.015625,0,0,0.023622,0.015748,0,125

3285,0,0,0,0,0,0,0,0,0,0,0,0,0,-0.015625,0,0,0.023622,0.015748,0,126

3305,0,0,0,0,0,0,0,0,0,0,0,0,0,-0.015625,0,0,0.023622,0.015748,0,127

3325,0,0,0,0,0,0,0,0,0,0,0,0,0,-0.015625,0,0,0.023622,0.015748,0,128

3345,0,0,0,0,0,0,0,0,0,0,0,0,0,-0.015625,0,0,0.023622,0.015748,0,129

3365,0,0,0,0,0,0,0,0,0,0,0,0,0,-0.015625,0,0,0.023622,0.015748,0,130

3385,0,0,0,0,0,0,0,0,0,0,0,0,0,-0.015625,0,0,0.023622,0.015748,0,131

3405,0,0,0,0,0,0,0,0,0,0,0,0,0,-0.015625,0,0,0.023622,0.015748,0,132

3425,0,0,0,0,0,0,0,0,0,0,0,0,0,-0.015625,0,0,0.023622,0.015748,0,133

3445,0,0,0,0,0,0,0,0,0,0,0,0,0,-0.015625,0,0,0.023622,0.015748,0,134

3465,0,0,0,0,0,0,0,0,0,0,0,0,0,-0.015625,0,0,0.023622,0.015748,0,135

3485,0,0,0,0,0,0,0,0,0,0,0,0,0,-0.015625,0,0,0.023622,0.015748,0,136

3505,0,0,0,0,0,0,0,0,0,0,0,0,0,-0.015625,0,0,0.023622,0.015748,0,137

3525,0,0,0,0,0,0,0,0,0,0,0,0,0,-0.015625,0,0,0.023622,0.015748,0,138

3545,0,0,0,0,0,0,0,0,0,0,0,0,0,-0.015625,0,0,0.023622,0.015748,0,139

3565,0,0,0,0,0,0,0,0,0,0,0,0,0,-0.015625,0,0,0.023622,0.015748,0,140

3585,0,0,0,0,0,0,0,0,0,0,0,0,0,-0.015625,0,0,0.023622,0.015748,0,141

3605,0,0,0,0,0,0,0,0,0,0,0,0,0,-0.015625,0,0,0.023622,0.015748,0,142

3625,0,0,0,0,0,0,0,0,0,0,0,0,0,-0.015625,0,0,0.023622,0.015748,0,143

3645,0,0,0,0,0,0,0,0,0,0,0,0,0,-0.015625,0,0,0.023622,0.015748,0,144

3665,0,0,0,0,0,0,0,0,0,0,0,0,0,-0.015625,0,0,0.023622,0.015748,0,145

3685,0,0,0,0,0,0,0,0,0,0,0,0,0,-0.015625,0,0,0.023622,0.015748,0,146

3705,0,0,0,0,0,0,0,0,0,0,0,0,0,-0.015625,0,0,0.023622,0.015748,0,147

3725,0,0,0,0,0,0,0,0,0,0,0,0,0,-0.015625,0,0,0.023622,0.015748,0,148

3745,0,0,0,0,0,0,0,0,0,0,0,0,0,-0.015625,0,0,0.023622,0.015748,0,149

3765,0,0,0,0,0,0,0,0,0,0,0,0,0,-0.015625,0,0,0.023622,0.015748,0,150

3785,0,0,0,0,0,0,0,0,0,0,0,0,0,-0.015625,0,0,0.023622,0.015748,0,151

3805,0,0,0,0,0,0,0,0,0,0,0,0,0,-0.015625,0,0,0.023622,0.015748,0,152

3825,0,0,0,0,0,0,0,0,0,0,0,0,0,-0.015625,0,0,0.023622,0.015748,0,153

3845,0,0,0,0,0,0,0,0,0,0,0,0,0,-0.015625,0,0,0.023622,0.015748,0,154

3865,0,0,0,0,0,0,0,0,0,0,0,0,0,-0.015625,0,0,0.023622,0.015748,0,155

3885,0,0,0,0,0,0,0,0,0,0,0,0,0,-0.015625,0,0,0.023622,0.015748,0,156

3905,0,0,0,0,0,0,0,0,0,0,0,0,0,-0.015625,0,0,0.023622,0.015748,0,157

3925,0,0,0,0,0,0,0,0,0,0,0,0,0,-0.015625,0,0,0.023622,0.015748,0,158

3945,0,0,0,0,0,0,0,0,0,0,0,0,0,-0.015625,0,0,0.023622,0.015748,0,159

3965,0,0,0,0,0,0,0,0,0,0,0,0,0,-0.015625,0,0,0.023622,0.015748,0,160

3985,0,0,0,0,0,0,0,0,0,0,0,0,0,-0.015625,0,0,0.023622,0.015748,0,161

4005,0,0,0,0,0,0,0,0,0,0,0,0,0,-0.015625,0,0,0.023622,0.015748,0,162

4025,0,0,0,0,0,0,0,0,0,0,0,0,0,-0.015625,0,0,0.023622,0.015748,0,163

4045,0,0,0,0,0,0,0,0,0,0,0,0,0,-0.015625,0,0,0.023622,0.015748,0,164

4065,0,0,0,0,0,0,0,0,0,0,0,0,0,-0.015625,0,0,0.023622,0.015748,0,165

4085,0,0,0,0,0,0,0,0,0,0,0,0,0,-0.015625,0,0,0.023622,0.015748,0,166

4105,0,0,0,0,0,0,0,0,0,0,0,0,0,-0.015625,0,0,0.023622,0.015748,0,167

4125,0,0,0,0,0,0,0,0,0,0,0,0,0,-0.015625,0,0,0.023622,0.015748,0,168

4145,0,0,0,0,0,0,0,0,0,0,0,0,0,-0.015625,0,0,0.023622,0.015748,0,169

4165,0,0,0,0,0,0,0,0,0,0,0,0,0,-0.015625,0,0,0.023622,0.015748,0,170

4185,0,0,0,0,0,0,0,0,0,0,0,0,0,-0.015625,0,0,0.023622,0.015748,0,171

4205,0,0,0,0,0,0,0,0,0,0,0,0,0,-0.015625,0,0,0.023622,0.015748,0,172

4225,0,0,0,0,0,0,0,0,0,0,0,0,0,-0.015625,0,0,0.023622,0.015748,0,173

4245,0,0,0,0,0,0,0,0,0,0,0,0,0,-0.015625,0,0,0.023622,0.015748,0,174

4265,0,0,0,0,0,0,0,0,0,0,0,0,0,-0.015625,0,0,0.023622,0.015748,0,175

4285,0,0,0,0,0,0,0,0,0,0,0,0,0,-0.015625,0,0,0.023622,0.015748,0,176

4305,0,0,0,0,0,0,0,0,0,0,0,0,0,-0.015625,0,0,0.023622,0.015748,0,177

4325,0,0,0,0,0,0,0,0,0,0,0,0,0,-0.015625,0,0,0.023622,0.015748,0,178

4345,0,0,0,0,0,0,0,0,0,0,0,0,0,-0.015625,0,0,0.023622,0.015748,0,179

4365,0,0,0,0,0,0,0,0,0,0,0,0,0,-0.015625,0,0,0.023622,0.015748,0,180

4385,0,0,0,0,0,0,0,0,0,0,0,0,0,-0.015625,0,0,0.023622,0.015748,0,181

4405,0,0,0,0,0,0,0,0,0,0,0,0,0,-0.015625,0,0,0.023622,0.015748,0,182

4425,0,0,0,0,0,0,0,0,0,0,0,0,0,-0.015625,0,0,0.023622,0.015748,0,183

4445,0,0,0,0,0,0,0,0,0,0,0,0,0,-0.015625,0,0,0.023622,0.015748,0,184

4465,0,0,0,0,0,0,0,0,0,0,0,0,0,-0.015625,0,0,0.023622,0.015748,0,185

4485,0,0,0,0,0,0,0,0,0,0,0,0,0,-0.015625,0,0,0.023622,0.015748,0,186

4505,0,0,0,0,0,0,0,0,0,0,0,0,0,-0.015625,0,0,0.023622,0.015748,0,187

4525,0,0,0,0,0,0,0,0,0,0,0,0,0,-0.015625,0,0,0.023622,0.015748,0,188

4545,0,0,0,0,0,0,0,0,0,0,0,0,0,-0.015625,0,0,0.023622,0.015748,0,189

4565,0,0,0,0,0,0,0,0,0,0,0,0,0,-0.015625,0,0,0.023622,0.015748,0,190

4585,0,0,0,0,0,0,0,0,0,0,0,0,0,-0.015625,0,0,0.023622,0.015748,0,191

4605,0,0,0,0,0,0,0,0,0,0,0,0,0,-0.015625,0,0,0.023622,0.015748,0,192

4625,0,0,0,0,0,0,0,0,0,0,0,0,0,-0.015625,0,0,0.023622,0.015748,0,193

4645,0,0,0,0,0,0,0,0,0,0,0,0,0,-0.015625,0,0,0.023622,0.015748,0,194

4665,0,0,0,0,0,0,0,0,0,0,0,0,0,-0.015625,0,0,0.023622,0.015748,0,195

4685,0,0,0,0,0,0,0,0,0,0,0,0,0,-0.015625,0,0,0.023622,0.015748,0,196

4705,0,0,0,0,0,0,0,0,0,0,0,0,0,-0.015625,0,0,0.023622,0.015748,0,197

4725,0,0,0,0,0,0,0,0,0,0,0,0,0,-0.015625,0,0,0.023622,0.015748,0,198

4745,0,0,0,0,0,0,0,0,0,0,0,0,0,-0.015625,0,0,0.023622,0.015748,0,199

4765,0,0,0,0,0,0,0,0,0,0,0,0,0,-0.015625,0,0,0.023622,0.015748,0,200

4785,0,0,0,0,0,0,0,0,0,0,0,0,0,-0.015625,0,0,0.023622,0.015748,0,201

4805,0,0,0,0,0,0,0,0,0,0,0,0,0,-0.015625,0,0,0.023622,0.015748,0,202

4825,0,0,0,0,0,0,0,0,0,0,0,0,0,-0.015625,0,0,0.023622,0.015748,0,203

4845,0,0,0,0,0,0,0,0,0,0,0,0,0,-0.015625,0,0,0.023622,0.015748,0,204

4865,0,0,0,0,0,0,0,0,0,0,0,0,0,-0.015625,0,0,0.023622,0.015748,0,205

4885,0,0,0,0,0,0,0,0,0,0,0,0,0,-0.015625,0,0,0.023622,0.015748,0,206

4905,0,0,0,0,0,0,0,0,0,0,0,0,0,-0.015625,0,0,0.023622,0.015748,0,207

4925,0,0,0,0,0,0,0,0,0,0,0,0,0,-0.015625,0,0,0.023622,0.015748,0,208

4945,0,0,0,0,0,0,0,0,0,0,0,0,0,-0.015625,0,0,0.023622,0.015748,0,209

4965,0,0,0,0,0,0,0,0,0,0,0,0,0,-0.015625,0,0,0.023622,0.015748,0,210

4985,0,0,0,0,0,0,0,0,0,0,0,0,0,-0.015625,0,0,0.023622,0.015748,0,211

5005,0,0,0,0,0,0,0,0,0,0,0,0,0,-0.015625,0,0,0.023622,0.015748,0,212

5025,0,0,0,0,0,0,0,0,0,0,0,0,0,-0.015625,0,0,0.023622,0.015748,0,213

5045,0,0,0,0,0,0,0,0,0,0,0,0,0,-0.015625,0,0,0.023622,0.015748,0,214

5065,0,0,0,0,0,0,0,0,0,0,0,0,0,-0.015625,0,0,0.023622,0.015748,0,215

5085,0,0,0,0,0,0,0,0,0,0,0,0,0,-0.015625,0,0,0.023622,0.015748,0,216

5105,0,0,0,0,0,0,0,0,0,0,0,0,0,-0.015625,0,0,0.023622,0.015748,0,217

5125,0,0,0,0,0,0,0,0,0,0,0,0,0,-0.015625,0,0,0.023622,0.015748,0,218

5145,0,0,0,0,0,0,0,0,0,0,0,0,0,-0.015625,0,0,0.023622,0.015748,0,219

5165,0,0,0,0,0,0,0,0,0,0,0,0,0,-0.015625,0,0,0.023622,0.015748,0,220

5185,0,0,0,0,0,0,0,0,0,0,0,0,0,-0.015625,0,0,0.023622,0.015748,0,221

5205,0,0,0,0,0,0,0,0,0,0,0,0,0,-0.015625,0,0,0.023622,0.015748,0,222

5225,0,0,0,0,0,0,0,0,0,0,0,0,0,-0.015625,0,0,0.023622,0.015748,0,223

5245,0,0,0,0,0,0,0,0,0,0,0,0,0,-0.015625,0,0,0.023622,0.015748,0,224

5265,0,0,0,0,0,0,0,0,0,0,0,0,0,-0.015625,0,0,0.023622,0.015748,0,225

5285,0,0,0,0,0,0,0,0,0,0,0,0,0,-0.015625,0,0,0.023622,0.015748,0,226

5305,0,0,0,0,0,0,0,0,0,0,0,0,0,-0.015625,0,0,0.023622,0.015748,0,227

5325,0,0,0,0,0,0,0,0,0,0,0,0,0,-0.015625,0,0,0.023622,0.015748,0,228

5345,0,0,0,0,0,0,0,0,0,0,0,0,0,-0.015625,0,0,0.023622,0.015748,0,229

5365,0,0,0,0,0,0,0,0,0,0,0,0,0,-0.015625,0,0,0.023622,0.015748,0,230

5385,0,0,0,0,0,0,0,0,0,0,0,0,0,-0.015625,0,0,0.023622,0.015748,0,231

5405,0,0,0,0,0,0,0,0,0,0,0,0,0,-0.015625,0,0,0.023622,0.015748,0,232

5425,0,0,0,0,0,0,0,0,0,0,0,0,0,-0.015625,0,0,0.023622,0.015748,0,233

5445,0,0,0,0,0,0,0,0,0,0,0,0,0,-0.015625,0,0,0.023622,0.015748,0,234

5465,0,0,0,0,0,0,0,0,0,0,0,0,0,-0.015625,0,0,0.023622,0.015748,0,235

5485,0,0,0,0,0,0,0,0,0,0,0,0,0,-0.015625,0,0,0.023622,0.015748,0,236

5505,0,0,0,0,0,0,0,0,0,0,0,0,0,-0.015625,0,0,0.023622,0.015748,0,237

5525,0,0,0,0,0,0,0,0,0,0,0,0,0,-0.015625,0,0,0.023622,0.015748,0,238

5545,0,0,0,0,0,0,0,0,0,0,0,0,0,-0.015625,0,0,0.023622,0.015748,0,239

5565,0,0,0,0,0,0,0,0,0,0,0,0,0,-0.015625,0,0,0.023622,0.015748,0,240

5585,0,0,0,0,0,0,0,0,0,0,0,0,0,-0.015625,0,0,0.023622,0.015748,0,241

5605,0,0,0,0,0,0,0,0,0,0,0,0,0,-0.015625,0,0,0.023622,0.015748,0,242

5625,0,0,0,0,0,0,0,0,0,0,0,0,0,-0.015625,0,0,0.023622,0.015748,0,243

5645,0,0,0,0,0,0,0,0,0,0,0,0,0,-0.015625,0,0,0.023622,0.015748,0,244

5665,0,0,0,0,0,0,0,0,0,0,0,0,0,-0.015625,0,0,0.023622,0.015748,0,245

5685,0,0,0,0,0,0,0,0,0,0,0,0,0,-0.015625,0,0,0.023622,0.015748,0,246

5705,0,0,0,0,0,0,0,0,0,0,0,0,0,-0.015625,0,0,0.023622,0.015748,0,247

5725,0,0,0,0,0,0,0,0,0,0,0,0,0,-0.015625,0,0,0.023622,0.015748,0,248

5745,0,0,0,0,0,0,0,0,0,0,0,0,0,-0.015625,0,0,0.023622,0.015748,0,249

5765,0,0,0,0,0,0,0,0,0,0,0,0,0,-0.015625,0,0,0.023622,0.015748,0,250

5785,0,0,0,0,0,0,0,0,0,0,0,0,0,-0.015625,0,0,0.023622,0.015748,0,251

5805,0,0,0,0,0,0,0,0,0,0,0,0,0,-0.015625,0,0,0.023622,0.015748,0,252

5825,0,0,0,0,0,0,0,0,0,0,0,0,0,-0.015625,0,0,0.023622,0.015748,0,253

5845,0,0,0,0,0,0,0,0,0,0,0,0,0,-0.015625,0,0,0.023622,0.015748,0,254

5865,0,0,0,0,0,0,0,0,0,0,0,0,0,-0.015625,0,0,0.023622,0.015748,0,255

5885,0,0,0,0,0,0,0,0,0,0,0,0,0,-0.015625,0,0,0.023622,0.015748,0,256

5905,0,0,0,0,0,0,0,0,0,0,0,0,0,-0.015625,0,0,0.023622,0.015748,0,257

5925,0,0,0,0,0,0,0,0,0,0,0,0,0,-0.015625,0,0,0.023622,0.015748,0,258

5945,0,0,0,0,0,0,0,0,0,0,0,0,0,-0.015625,0,0,0.023622,0.015748,0,259

5965,0,0,0,0,0,0,0,0,0,0,0,0,0,-0.015625,0,0,0.023622,0.015748,0,260

5985,0,0,0,0,0,0,0,0,0,0,0,0,0,-0.015625,0,0,0.023622,0.015748,0,261

6005,0,0,0,0,0,0,0,0,0,0,0,0,0,-0.015625,0,0,0.023622,0.015748,0,262

6025,0,0,0,0,0,0,0,0,0,0,0,0,0,-0.015625,0,0,0.023622,0.015748,0,263

6045,0,0,0,0,0,0,0,0,0,0,0,0,0,-0.015625,0,0,0.023622,0.015748,0,264

6065,0,0,0,0,0,0,0,0,0,0,0,0,0,-0.015625,0,0,0.023622,0.015748,0,265

6085,0,0,0,0,0,0,0,0,0,0,0,0,0,-0.015625,0,0,0.023622,0.015748,0,266

6105,0,0,0,0,0,0,0,0,0,0,0,0,0,-0.015625,0,0,0.023622,0.015748,0,267

6125,0,0,0,0,0,0,0,0,0,0,0,0,0,-0.015625,0,0,0.023622,0.015748,0,268

6145,0,0,0,0,0,0,0,0,0,0,0,0,0,-0.015625,0,0,0.023622,0.015748,0,269

6165,0,0,0,0,0,0,0,0,0,0,0,0,0,-0.015625,0,0,0.023622,0.015748,0,270

6185,0,0,0,0,0,0,0,0,0,0,0,0,0,-0.015625,0,0,0.023622,0.015748,0,271

6205,0,0,0,0,0,0,0,0,0,0,0,0,0,-0.015625,0,0,0.023622,0.015748,0,272

6225,0,0,0,0,0,0,0,0,0,0,0,0,0,-0.015625,0,0,0.023622,0.015748,0,273

6245,0,0,0,0,0,0,0,0,0,0,0,0,0,-0.015625,0,0,0.023622,0.015748,0,274

6265,0,0,0,0,0,0,0,0,0,0,0,0,0,-0.015625,0,0,0.023622,0.015748,0,275

6285,0,0,0,0,0,0,0,0,0,0,0,0,0,-0.015625,0,0,0.023622,0.015748,0,276

6305,0,0,0,0,0,0,0,0,0,0,0,0,0,-0.015625,0,0,0.023622,0.015748,0,277

6325,0,0,0,0,0,0,0,0,0,0,0,0,0,-0.015625,0,0,0.023622,0.015748,0,278

6345,0,0,0,0,0,0,0,0,0,0,0,0,0,-0.015625,0,0,0.023622,0.015748,0,279

6365,0,0,0,0,0,0,0,0,0,0,0,0,0,-0.015625,0,0,0.023622,0.015748,0,280

6385,0,0,0,0,0,0,0,0,0,0,0,0,0,-0.015625,0,0,0.023622,0.015748,0,281

6405,0,0,0,0,0,0,0,0,0,0,0,0,0,-0.015625,0,0,0.023622,0.015748,0,282

6425,0,0,0,0,0,0,0,0,0,0,0,0,0,-0.015625,0,0,0.023622,0.015748,0,283

6445,0,0,0,0,0,0,0,0,0,0,0,0,0,-0.015625,0,0,0.023622,0.015748,0,284

6465,0,0,0,0,0,0,0,0,0,0,0,0,0,-0.015625,0,0,0.023622,0.015748,0,285

6485,0,0,0,0,0,0,0,0,0,0,0,0,0,-0.015625,0,0,0.023622,0.015748,0,286

6505,0,0,0,0,0,0,0,0,0,0,0,0,0,-0.015625,0,0,0.023622,0.015748,0,287

6525,0,0,0,0,0,0,0,0,0,0,0,0,0,-0.015625,0,0,0.023622,0.015748,0,288

6545,0,0,0,0,0,0,0,0,0,0,0,0,0,-0.015625,0,0,0.023622,0.015748,0,289

6565,0,0,0,0,0,0,0,0,0,0,0,0,0,-0.015625,0,0,0.023622,0.015748,0,290

6585,0,0,0,0,0,0,0,0,0,0,0,0,0,-0.015625,0,0,0.023622,0.015748,0,291

6605,0,0,0,0,0,0,0,0,0,0,0,0,0,-0.015625,0,0,0.023622,0.015748,0,292

6625,0,0,0,0,0,0,0,0,0,0,0,0,0,-0.015625,0,0,0.023622,0.015748,0,293

6645,0,0,0,0,0,0,0,0,0,0,0,0,0,-0.015625,0,0,0.023622,0.015748,0,294

6665,0,0,0,0,0,0,0,0,0,0,0,0,0,-0.015625,0,0,0.023622,0.015748,0,295

6685,0,0,0,0,0,0,0,0,0,0,0,0,0,-0.015625,0,0,0.023622,0.015748,0,296

6705,0,0,0,0,0,0,0,0,0,0,0,0,0,-0.015625,0,0,0.023622,0.015748,0,297

6725,0,0,0,0,0,0,0,0,0,0,0,0,0,-0.015625,0,0,0.023622,0.015748,0,298

6745,0,0,0,0,0,0,0,0,0,0,0,0,0,-0.015625,0,0,0.023622,0.015748,0,299

6765,0,0,0,0,0,0,0,0,0,0,0,0,0,-0.015625,0,0,0.023622,0.015748,0,300

6785,0,0,0,0,0,0,0,0,0,0,0,0,0,-0.015625,0,0,0.023622,0.015748,0,301

6805,0,0,0,0,0,0,0,0,0,0,0,0,0,-0.015625,0,0,0.023622,0.015748,0,302

6825,0,0,0,0,0,0,0,0,0,0,0,0,0,-0.015625,0,0,0.023622,0.015748,0,303

6845,0,0,0,0,0,0,0,0,0,0,0,0,0,-0.015625,0,0,0.023622,0.015748,0,304

6865,0,0,0,0,0,0,0,0,0,0,0,0,0,-0.015625,0,0,0.023622,0.015748,0,305

6885,0,0,0,0,0,0,0,0,0,0,0,0,0,-0.015625,0,0,0.023622,0.015748,0,306

6905,0,0,0,0,0,0,0,0,0,0,0,0,0,-0.015625,0,0,0.023622,0.015748,0,307

6925,0,0,0,0,0,0,0,0,0,0,0,0,0,-0.015625,0,0,0.023622,0.015748,0,308

6945,0,0,0,0,0,0,0,0,0,0,0,0,0,-0.015625,0,0,0.023622,0.015748,0,309

6965,0,0,0,0,0,0,0,0,0,0,0,0,0,-0.015625,0,0,0.023622,0.015748,0,310

6985,0,0,0,0,0,0,0,0,0,0,0,0,0,-0.015625,0,0,0.023622,0.015748,0,311

7005,0,0,0,0,0,0,0,0,0,0,0,0,0,-0.015625,0,0,0.023622,0.015748,0,312

7025,0,0,0,0,0,0,0,0,0,0,0,0,0,-0.015625,0,0,0.023622,0.015748,0,313

7045,0,0,0,0,0,0,0,0,0,0,0,0,0,-0.015625,0,0,0.023622,0.015748,0,314

7065,0,0,0,0,0,0,0,0,0,0,0,0,0,-0.015625,0,0,0.023622,0.015748,0,315

7085,0,0,0,0,0,0,0,0,0,0,0,0,0,-0.015625,0,0,0.023622,0.015748,0,316

7105,0,0,0,0,0,0,0,0,0,0,0,0,0,-0.015625,0,0,0.023622,0.015748,0,317

7125,0,0,0,0,0,0,0,0,0,0,0,0,0,-0.015625,0,0,0.023622,0.015748,0,318

7145,0,0,0,0,0,0,0,0,0,0,0,0,0,-0.015625,0,0,0.023622,0.015748,0,319

7165,0,0,0,0,0,0,0,0,0,0,0,0,0,-0.015625,0,0,0.023622,0.015748,0,320

7185,0,0,0,0,0,0,0,0,0,0,0,0,0,-0.015625,0,0,0.023622,0.015748,0,321

7205,0,0,0,0,0,0,0,0,0,0,0,0,0,-0.015625,0,0,0.023622,0.015748,0,322

7225,0,0,0,0,0,0,0,0,0,0,0,0,0,-0.015625,0,0,0.023622,0.015748,0,323

7245,0,0,0,0,0,0,0,0,0,0,0,0,0,-0.015625,0,0,0.023622,0.015748,0,324

7265,0,0,0,0,0,0,0,0,0,0,0,0,0,-0.015625,0,0,0.023622,0.015748,0,325

7285,0,0,0,0,0,0,0,0,0,0,0,0,0,-0.015625,0,0,0.023622,0.015748,0,326

7305,0,0,0,0,0,0,0,0,0,0,0,0,0,-0.015625,0,0,0.023622,0.015748,0,327

7325,0,0,0,0,0,0,0,0,0,0,0,0,0,-0.015625,0,0,0.023622,0.015748,0,328

7345,0,0,0,0,0,0,0,0,0,0,0,0,0,-0.015625,0,0,0.023622,0.015748,0,329

7365,0,0,0,0,0,0,0,0,0,0,0,0,0,-0.015625,0,0,0.023622,0.015748,0,330

7385,0,0,0,0,0,0,0,0,0,0,0,0,0,-0.015625,0,0,0.023622,0.015748,0,331

7405,0,0,0,0,0,0,0,0,0,0,0,0,0,-0.015625,0,0,0.023622,0.015748,0,332

7425,0,0,0,0,0,0,0,0,0,0,0,0,0,-0.015625,0,0,0.023622,0.015748,0,333

7445,0,0,0,0,0,0,0,0,0,0,0,0,0,-0.015625,0,0,0.023622,0.015748,0,334

7465,0,0,0,0,0,0,0,0,0,0,0,0,0,-0.015625,0,0,0.023622,0.015748,0,335

7485,0,0,0,0,0,0,0,0,0,0,0,0,0,-0.015625,0,0,0.023622,0.015748,0,336

7505,0,0,0,0,0,0,0,0,0,0,0,0,0,-0.015625,0,0,0.023622,0.015748,0,337

7525,0,0,0,0,0,0,0,0,0,0,0,0,0,-0.015625,0,0,0.023622,0.015748,0,338

7545,0,0,0,0,0,0,0,0,0,0,0,0,0,-0.015625,0,0,0.023622,0.015748,0,339

7565,0,0,0,0,0,0,0,0,0,0,0,0,0,-0.015625,0,0,0.023622,0.015748,0,340

7585,0,0,0,0,0,0,0,0,0,0,0,0,0,-0.015625,0,0,0.023622,0.015748,0,341

7605,0,0,0,0,0,0,0,0,0,0,0,0,0,-0.015625,0,0,0.023622,0.015748,0,342

7625,0,0,0,0,0,0,0,0,0,0,0,0,0,-0.015625,0,0,0.023622,0.015748,0,343

7645,0,0,0,0,0,0,0,0,0,0,0,0,0,-0.015625,0,0,0.023622,0.015748,0,344

7665,0,0,0,0,0,0,0,0,0,0,0,0,0,-0.015625,0,0,0.023622,0.015748,0,345

7685,0,0,0,0,0,0,0,0,0,0,0,0,0,-0.015625,0,0,0.023622,0.015748,0,346

7705,0,0,0,0,0,0,0,0,0,0,0,0,0,-0.015625,0,0,0.023622,0.015748,0,347

7725,0,0,0,0,0,0,0,0,0,0,0,0,0,-0.015625,0,0,0.023622,0.015748,0,348

7745,0,0,0,0,0,0,0,0,0,0,0,0,0,-0.015625,0,0,0.023622,0.015748,0,349

7765,0,0,0,0,0,0,0,0,0,0,0,0,0,-0.015625,0,0,0.023622,0.015748,0,350

7785,0,0,0,0,0,0,0,0,0,0,0,0,0,-0.015625,0,0,0.023622,0.015748,0,351

7805,0,0,0,0,0,0,0,0,0,0,0,0,0,-0.015625,0,0,0.023622,0.015748,0,352

7825,0,0,0,0,0,0,0,0,0,0,0,0,0,-0.015625,0,0,0.023622,0.015748,0,353

7845,0,0,0,0,0,0,0,0,0,0,0,0,0,-0.015625,0,0,0.023622,0.015748,0,354

7865,0,0,0,0,0,0,0,0,0,0,0,0,0,-0.015625,0,0,0.023622,0.015748,0,355

7885,0,0,0,0,0,0,0,0,0,0,0,0,0,-0.015625,0,0,0.023622,0.015748,0,356

7905,0,0,0,0,0,0,0,0,0,0,0,0,0,-0.015625,0,0,0.023622,0.015748,0,357

7925,0,0,0,0,0,0,0,0,0,0,0,0,0,-0.015625,0,0,0.023622,0.015748,0,358

7945,0,0,0,0,0,0,0,0,0,0,0,0,0,-0.015625,0,0,0.023622,0.015748,0,359

7965,0,0,0,0,0,0,0,0,0,0,0,0,0,-0.015625,0,0,0.023622,0.015748,0,360

7985,0,0,0,0,0,0,0,0,0,0,0,0,0,-0.015625,0,0,0.023622,0.015748,0,361

8005,0,0,0,0,0,0,0,0,0,0,0,0,0,-0.015625,0,0,0.023622,0.015748,0,362

8025,0,0,0,0,0,0,0,0,0,0,0,0,0,-0.015625,0,0,0.023622,0.015748,0,363

8045,0,0,0,0,0,0,0,0,0,0,0,0,0,-0.015625,0,0,0.023622,0.015748,0,364

8065,0,0,0,0,0,0,0,0,0,0,0,0,0,-0.015625,0,0,0.023622,0.015748,0,365

8085,0,0,0,0,0,0,0,0,0,0,0,0,0,-0.015625,0,0,0.023622,0.015748,0,366

8105,0,0,0,0,0,0,0,0,0,0,0,0,0,-0.015625,0,0,0.023622,0.015748,0,367

8125,0,0,0,0,0,0,0,0,0,0,0,0,0,-0.015625,0,0,0.023622,0.015748,0,368

8145,0,0,0,0,0,0,0,0,0,0,0,0,0,-0.015625,0,0,0.023622,0.015748,0,369

8165,0,0,0,0,0,0,0,0,0,0,0,0,0,-0.015625,0,0,0.023622,0.015748,0,370

8185,0,0,0,0,0,0,0,0,0,0,0,0,0,-0.015625,0,0,0.023622,0.015748,0,371

8205,0,0,0,0,0,0,0,0,0,0,0,0,0,-0.015625,0,0,0.023622,0.015748,0,372

8225,0,0,0,0,0,0,0,0,0,0,0,0,0,-0.015625,0,0,0.023622,0.015748,0,373

8245,0,0,0,0,0,0,0,0,0,0,0,0,0,-0.015625,0,0,0.023622,0.015748,0,374

8265,0,0,0,0,0,0,0,0,0,0,0,0,0,-0.015625,0,0,0.023622,0.015748,0,375

8285,0,0,0,0,0,0,0,0,0,0,0,0,0,-0.015625,0,0,0.023622,0.015748,0,376

8305,0,0,0,0,0,0,0,0,0,0,0,0,0,-0.015625,0,0,0.023622,0.015748,0,377

8325,0,0,0,0,0,0,0,0,0,0,0,0,0,-0.015625,0,0,0.023622,0.015748,0,378

8345,0,0,0,0,0,0,0,0,0,0,0,0,0,-0.015625,0,0,0.023622,0.015748,0,379

8365,0,0,0,0,0,0,0,0,0,0,0,0,0,-0.015625,0,0,0.023622,0.015748,0,380

8385,0,0,0,0,0,0,0,0,0,0,0,0,0,-0.015625,0,0,0.023622,0.015748,0,381

8405,0,0,0,0,0,0,0,0,0,0,0,0,0,-0.015625,0,0,0.023622,0.015748,0,382

8425,0,0,0,0,0,0,0,0,0,0,0,0,0,-0.015625,0,0,0.023622,0.015748,0,383

8445,0,0,0,0,0,0,0,0,0,0,0,0,0,-0.015625,0,0,0.023622,0.015748,0,384

8465,0,0,0,0,0,0,0,0,0,0,0,0,0,-0.015625,0,0,0.023622,0.015748,0,385

8485,0,0,0,0,0,0,0,0,0,0,0,0,0,-0.015625,0,0,0.023622,0.015748,0,386

8505,0,0,0,0,0,0,0,0,0,0,0,0,0,-0.015625,0,0,0.023622,0.015748,0,387

8525,0,0,0,0,0,0,0,0,0,0,0,0,0,-0.015625,0,0,0.023622,0.015748,0,388

8545,0,0,0,0,0,0,0,0,0,0,0,0,0,-0.015625,0,0,0.023622,0.015748,0,389

8565,0,0,0,0,0,0,0,0,0,0,0,0,0,-0.015625,0,0,0.023622,0.015748,0,390

8585,0,0,0,0,0,0,0,0,0,0,0,0,0,-0.015625,0,0,0.023622,0.015748,0,391

8605,0,0,0,0,0,0,0,0,0,0,0,0,0,-0.015625,0,0,0.023622,0.015748,0,392

8625,0,0,0,0,0,0,0,0,0,0,0,0,0,-0.015625,0,0,0.023622,0.015748,0,393

8645,0,0,0,0,0,0,0,0,0,0,0,0,0,-0.015625,0,0,0.023622,0.015748,0,394

8665,0,0,0,0,0,0,0,0,0,0,0,0,0,-0.015625,0,0,0.023622,0.015748,0,395

8685,0,0,0,0,0,0,0,0,0,0,0,0,0,-0.015625,0,0,0.023622,0.015748,0,396

8705,0,0,0,0,0,0,0,0,0,0,0,0,0,-0.015625,0,0,0.023622,0.015748,0,397

8725,0,0,0,0,0,0,0,0,0,0,0,0,0,-0.015625,0,0,0.023622,0.015748,0,398

8745,0,0,0,0,0,0,0,0,0,0,0,0,0,-0.015625,0,0,0.023622,0.015748,0,399

8765,0,0,0,0,0,0,0,0,0,0,0,0,0,-0.015625,0,0,0.023622,0.015748,0,400

8785,0,0,0,0,0,0,0,0,0,0,0,0,0,-0.015625,0,0,0.023622,0.015748,0,401

8805,0,0,0,0,0,0,0,0,0,0,0,0,0,-0.015625,0,0,0.023622,0.015748,0,402

8825,0,0,0,0,0,0,0,0,0,0,0,0,0,-0.015625,0,0,0.023622,0.015748,0,403

8845,0,0,0,0,0,0,0,0,0,0,0,0,0,-0.015625,0,0,0.023622,0.015748,0,404

8865,0,0,0,0,0,0,0,0,0,0,0,0,0,-0.015625,0,0,0.023622,0.015748,0,405

8885,0,0,0,0,0,0,0,0,0,0,0,0,0,-0.015625,0,0,0.023622,0.015748,0,406

8905,0,0,0,0,0,0,0,0,0,0,0,0,0,-0.015625,0,0,0.023622,0.015748,0,407

8925,0,0,0,0,0,0,0,0,0,0,0,0,0,-0.015625,0,0,0.023622,0.015748,0,408

8945,0,0,0,0,0,0,0,0,0,0,0,0,0,-0.015625,0,0,0.023622,0.015748,0,409

8965,0,0,0,0,0,0,0,0,0,0,0,0,0,-0.015625,0,0,0.023622,0.015748,0,410

8985,0,0,0,0,0,0,0,0,0,0,0,0,0,-0.015625,0,0,0.023622,0.015748,0,411

9005,0,0,0,0,0,0,0,0,0,0,0,0,0,-0.015625,0,0,0.023622,0.015748,0,412

9025,0,0,0,0,0,0,0,0,0,0,0,0,0,-0.015625,0,0,0.023622,0.015748,0,413

9045,0,0,0,0,0,0,0,0,0,0,0,0,0,-0.015625,0,0,0.023622,0.015748,0,414

9065,0,0,0,0,0,0,0,0,0,0,0,0,0,-0.015625,0,0,0.023622,0.015748,0,415

9085,0,0,0,0,0,0,0,0,0,0,0,0,0,-0.015625,0,0,0.023622,0.015748,0,416

9105,0,0,0,0,0,0,0,0,0,0,0,0,0,-0.015625,0,0,0.023622,0.015748,0,417

9125,0,0,0,0,0,0,0,0,0,0,0,0,0,-0.015625,0,0,0.023622,0.015748,0,418

9145,0,0,0,0,0,0,0,0,0,0,0,0,0,-0.015625,0,0,0.023622,0.015748,0,419

9165,0,0,0,0,0,0,0,0,0,0,0,0,0,-0.015625,0,0,0.023622,0.015748,0,420

9185,0,0,0,0,0,0,0,0,0,0,0,0,0,-0.015625,0,0,0.023622,0.015748,0,421

9205,0,0,0,0,0,0,0,0,0,0,0,0,0,-0.015625,0,0,0.023622,0.015748,0,422

9225,0,0,0,0,0,0,0,0,0,0,0,0,0,-0.015625,0,0,0.023622,0.015748,0,423

9245,0,0,0,0,0,0,0,0,0,0,0,0,0,-0.015625,0,0,0.023622,0.015748,0,424

9265,0,0,0,0,0,0,0,0,0,0,0,0,0,-0.015625,0,0,0.023622,0.015748,0,425

9285,0,0,0,0,0,0,0,0,0,0,0,0,0,-0.015625,0,0,0.023622,0.015748,0,426

9305,0,0,0,0,0,0,0,0,0,0,0,0,0,-0.015625,0,0,0.023622,0.015748,0,427

9325,0,0,0,0,0,0,0,0,0,0,0,0,0,-0.015625,0,0,0.023622,0.015748,0,428

9345,0,0,0,0,0,0,0,0,0,0,0,0,0,-0.015625,0,0,0.023622,0.015748,0,429

9365,0,0,0,0,0,0,0,0,0,0,0,0,0,-0.015625,0,0,0.023622,0.015748,0,430

9385,0,0,0,0,0,0,0,0,0,0,0,0,0,-0.015625,0,0,0.023622,0.015748,0,431

9405,0,0,0,0,0,0,0,0,0,0,0,0,0,-0.015625,0,0,0.023622,0.015748,0,432

9425,0,0,0,0,0,0,0,0,0,0,0,0,0,-0.015625,0,0,0.023622,0.015748,0,433

9445,0,0,0,0,0,0,0,0,0,0,0,0,0,-0.015625,0,0,0.023622,0.015748,0,434

9465,0,0,0,0,0,0,0,0,0,0,0,0,0,-0.015625,0,0,0.023622,0.015748,0,435

9485,0,0,0,0,0,0,0,0,0,0,0,0,0,-0.015625,0,0,0.023622,0.015748,0,436

9505,0,0,0,0,0,0,0,0,0,0,0,0,0,-0.015625,0,0,0.023622,0.015748,0,437

9525,0,0,0,0,0,0,0,0,0,0,0,0,0,-0.015625,0,0,0.023622,0.015748,0,438

9545,0,0,0,0,0,0,0,0,0,0,0,0,0,-0.015625,0,0,0.023622,0.015748,0,439

9565,0,0,0,0,0,0,0,0,0,0,0,0,0,-0.015625,0,0,0.023622,0.015748,0,440

9585,0,0,0,0,0,0,0,0,0,0,0,0,0,-0.015625,0,0,0.023622,0.015748,0,441

9605,0,0,0,0,0,0,0,0,0,0,0,0,0,-0.015625,0,0,0.023622,0.015748,0,442

9625,0,0,0,0,0,0,0,0,0,0,0,0,0,-0.015625,0,0,0.023622,0.015748,0,443

9645,0,0,0,0,0,0,0,0,0,0,0,0,0,-0.015625,0,0,0.023622,0.015748,0,444

9665,0,0,0,0,0,0,0,0,0,0,0,0,0,-0.015625,0,0,0.023622,0.015748,0,445

9685,0,0,0,0,0,0,0,0,0,0,0,0,0,-0.015625,0,0,0.023622,0.015748,0,446

9705,0,0,0,0,0,0,0,0,0,0,0,0,0,-0.015625,0,0,0.023622,0.015748,0,447

9725,0,0,0,0,0,0,0,0,0,0,0,0,0,-0.015625,0,0,0.023622,0.015748,0,448

9745,0,0,0,0,0,0,0,0,0,0,0,0,0,-0.015625,0,0,0.023622,0.015748,0,449

9765,0,0,0,0,0,0,0,0,0,0,0,0,0,-0.015625,0,0,0.023622,0.015748,0,450

9785,0,0,0,0,0,0,0,0,0,0,0,0,0,-0.015625,0,0,0.023622,0.015748,0,451

9805,0,0,0,0,0,0,0,0,0,0,0,0,0,-0.015625,0,0,0.023622,0.015748,0,452

9825,0,0,0,0,0,0,0,0,0,0,0,0,0,-0.015625,0,0,0.023622,0.015748,0,453

9845,0,0,0,0,0,0,0,0,0,0,0,0,0,-0.015625,0,0,0.023622,0.015748,0,454

9865,0,0,0,0,0,0,0,0,0,0,0,0,0,-0.015625,0,0,0.023622,0.015748,0,455

9885,0,0,0,0,0,0,0,0,0,0,0,0,0,-0.015625,0,0,0.023622,0.015748,0,456

9905,0,0,0,0,0,0,0,0,0,0,0,0,0,-0.015625,0,0,0.023622,0.015748,0,457

9925,0,0,0,0,0,0,0,0,0,0,0,0,0,-0.015625,0,0,0.023622,0.015748,0,458

9945,0,0,0,0,0,0,0,0,0,0,0,0,0,-0.015625,0,0,0.023622,0.015748,0,459

9965,0,0,0,0,0,0,0,0,0,0,0,0,0,-0.015625,0,0,0.023622,0.015748,0,460

9985,0,0,0,0,0,0,0,0,0,0,0,0,0,-0.015625,0,0,0.023622,0.015748,0,461

10005,0,0,0,0,0,0,0,0,0,0,0,0,0,-0.015625,0,0,0.023622,0.015748,0,462

10025,0,0,0,0,0,0,0,0,0,0,0,0,0,-0.015625,0,0,0.023622,0.015748,0,463

10045,0,0,0,0,0,0,0,0,0,0,0,0,0,-0.015625,0,0,0.023622,0.015748,0,464

10065,0,0,0,0,0,0,0,0,0,0,0,0,0,-0.015625,0,0,0.023622,0.015748,0,465

10085,0,0,0,0,0,0,0,0,0,0,0,0,0,-0.015625,0,0,0.023622,0.015748,0,466

10105,0,0,0,0,0,0,0,0,0,0,0,0,0,-0.015625,0,0,0.023622,0.015748,0,467

10125,0,0,0,0,0,0,0,0,0,0,0,0,0,-0.015625,0,0,0.023622,0.015748,0,468

10145,0,0,0,0,0,0,0,0,0,0,0,0,0,-0.015625,0,0,0.023622,0.015748,0,469

10165,0,0,0,0,0,0,0,0,0,0,0,0,0,-0.015625,0,0,0.023622,0.015748,0,470

10185,0,0,0,0,0,0,0,0,0,0,0,0,0,-0.015625,0,0,0.023622,0.015748,0,471

10205,0,0,0,0,0,0,0,0,0,0,0,0,0,-0.015625,0,0,0.023622,0.015748,0,472

10225,0,0,0,0,0,0,0,0,0,0,0,0,0,-0.015625,0,0,0.023622,0.015748,0,473

10245,0,0,0,0,0,0,0,0,0,0,0,0,0,-0.015625,0,0,0.023622,0.015748,0,474

10265,0,0,0,0,0,0,0,0,0,0,0,0,0,-0.015625,0,0,0.023622,0.015748,0,475

10285,0,0,0,0,0,0,0,0,0,0,0,0,0,-0.015625,0,0,0.023622,0.015748,0,476

10305,0,0,0,0,0,0,0,0,0,0,0,0,0,-0.015625,0,0,0.023622,0.015748,0,477

10325,0,0,0,0,0,0,0,0,0,0,0,0,0,-0.015625,0,0,0.023622,0.015748,0,478

10345,0,0,0,0,0,0,0,0,0,0,0,0,0,-0.015625,0,0,0.023622,0.015748,0,479

10365,0,0,0,0,0,0,0,0,0,0,0,0,0,-0.015625,0,0,0.023622,0.015748,0,480

10385,0,0,0,0,0,0,0,0,0,0,0,0,0,-0.015625,0,0,0.023622,0.015748,0,481

10405,0,0,0,0,0,0,0,0,0,0,0,0,0,-0.015625,0,0,0.023622,0.015748,0,482

10425,0,0,0,0,0,0,0,0,0,0,0,0,0,-0.015625,0,0,0.023622,0.015748,0,483

10445,0,0,0,0,0,0,0,0,0,0,0,0,0,-0.015625,0,0,0.023622,0.015748,0,484

10465,0,0,0,0,0,0,0,0,0,0,0,0,0,-0.015625,0,0,0.023622,0.015748,0,485

10485,0,0,0,0,0,0,0,0,0,0,0,0,0,-0.015625,0,0,0.023622,0.015748,0,486

10505,0,0,0,0,0,0,0,0,0,0,0,0,0,-0.015625,0,0,0.023622,0.015748,0,487

10525,0,0,0,0,0,0,0,0,0,0,0,0,0,-0.015625,0,0,0.023622,0.015748,0,488

10545,0,0,0,0,0,0,0,0,0,0,0,0,0,-0.015625,0,0,0.023622,0.015748,0,489

10565,0,0,0,0,0,0,0,0,0,0,0,0,0,-0.015625,0,0,0.023622,0.015748,0,490

10585,0,0,0,0,0,0,0,0,0,0,0,0,0,-0.015625,0,0,0.023622,0.015748,0,491

10605,0,0,0,0,0,0,0,0,0,0,0,0,0,-0.015625,0,0,0.023622,0.015748,0,492

10625,0,0,0,0,0,0,0,0,0,0,0,0,0,-0.015625,0,0,0.023622,0.015748,0,493

10645,0,0,0,0,0,0,0,0,0,0,0,0,0,-0.015625,0,0,0.023622,0.015748,0,494

10665,0,0,0,0,0,0,0,0,0,0,0,0,0,-0.015625,0,0,0.023622,0.015748,0,495

10685,0,0,0,0,0,0,0,0,0,0,0,0,0,-0.015625,0,0,0.023622,0.015748,0,496

10705,0,0,0,0,0,0,0,0,0,0,0,0,0,-0.015625,0,0,0.023622,0.015748,0,497

10725,0,0,0,0,0,0,0,0,0,0,0,0,0,-0.015625,0,0,0.023622,0.015748,0,498

10745,0,0,0,0,0,0,0,0,0,0,0,0,0,-0.015625,0,0,0.023622,0.015748,0,499

10765,0,0,0,0,0,0,0,0,0,0,0,0,0,-0.015625,0,0,0.023622,0.015748,0,500

10785,0,0,0,0,0,0,0,0,0,0,0,0,0,-0.015625,0,0,0.023622,0.015748,0,501

10805,0,0,0,0,0,0,0,0,0,0,0,0,0,-0.015625,0,0,0.023622,0.015748,0,502

10825,0,0,0,0,0,0,0,0,0,0,0,0,0,-0.015625,0,0,0.023622,0.015748,0,503

10845,0,0,0,0,0,0,0,0,0,0,0,0,0,-0.015625,0,0,0.023622,0.015748,0,504

10865,0,0,0,0,0,0,0,0,0,0,0,0,0,-0.015625,0,0,0.023622,0.015748,0,505

10885,0,0,0,0,0,0,0,0,0,0,0,0,0,-0.015625,0,0,0.023622,0.015748,0,506

10905,0,0,0,0,0,0,0,0,0,0,0,0,0,-0.015625,0,0,0.023622,0.015748,0,507

10925,0,0,0,0,0,0,0,0,0,0,0,0,0,-0.015625,0,0,0.023622,0.015748,0,508

10945,0,0,0,0,0,0,0,0,0,0,0,0,0,-0.015625,0,0,0.023622,0.015748,0,509

10965,0,0,0,0,0,0,0,0,0,0,0,0,0,-0.015625,0,0,0.023622,0.015748,0,510

10985,0,0,0,0,0,0,0,0,0,0,0,0,0,-0.015625,0,0,0.023622,0.015748,0,511

11005,0,0,0,0,0,0,0,0,0,0,0,0,0,-0.015625,0,0,0.023622,0.015748,0,512

11025,0,0,0,0,0,0,0,0,0,0,0,0,0,-0.015625,0,0,0.023622,0.015748,0,513

11045,0,0,0,0,0,0,0,0,0,0,0,0,0,-0.015625,0,0,0.023622,0.015748,0,514

11065,0,0,0,0,0,0,0,0,0,0,0,0,0,-0.015625,0,0,0.023622,0.015748,0,515

11085,0,0,0,0,0,0,0,0,0,0,0,0,0,-0.015625,0,0,0.023622,0.015748,0,516

11105,0,0,0,0,0,0,0,0,0,0,0,0,0,-0.015625,0,0,0.023622,0.015748,0,517

11125,0,0,0,0,0,0,0,0,0,0,0,0,0,-0.015625,0,0,0.023622,0.015748,0,518

11145,0,0,0,0,0,0,0,0,0,0,0,0,0,-0.015625,0,0,0.023622,0.015748,0,519

11165,0,0,0,0,0,0,0,0,0,0,0,0,0,-0.015625,0,0,0.023622,0.015748,0,520

11185,0,0,0,0,0,0,0,0,0,0,0,0,0,-0.015625,0,0,0.023622,0.015748,0,521

11205,0,0,0,0,0,0,0,0,0,0,0,0,0,-0.015625,0,0,0.023622,0.015748,0,522

11225,0,0,0,0,0,0,0,0,0,0,0,0,0,-0.015625,0,0,0.023622,0.015748,0,523

11245,0,0,0,0,0,0,0,0,0,0,0,0,0,-0.015625,0,0,0.023622,0.015748,0,524

11265,0,0,0,0,0,0,0,0,0,0,0,0,0,-0.015625,0,0,0.023622,0.015748,0,525

11285,0,0,0,0,0,0,0,0,0,0,0,0,0,-0.015625,0,0,0.023622,0.015748,0,526

11305,0,0,0,0,0,0,0,0,0,0,0,0,0,-0.015625,0,0,0.023622,0.015748,0,527

11325,0,0,0,0,0,0,0,0,0,0,0,0,0,-0.015625,0,0,0.023622,0.015748,0,528

11345,0,0,0,0,0,0,0,0,0,0,0,0,0,-0.015625,0,0,0.023622,0.015748,0,529

11365,0,0,0,0,0,0,0,0,0,0,0,0,0,-0.015625,0,0,0.023622,0.015748,0,530

11385,0,0,0,0,0,0,0,0,0,0,0,0,0,-0.015625,0,0,0.023622,0.015748,0,531

11405,0,0,0,0,0,0,0,0,0,0,0,0,0,-0.015625,0,0,0.023622,0.015748,0,532

11425,0,0,0,0,0,0,0,0,0,0,0,0,0,-0.015625,0,0,0.023622,0.015748,0,533

11445,0,0,0,0,0,0,0,0,0,0,0,0,0,-0.015625,0,0,0.023622,0.015748,0,534

11465,0,0,0,0,0,0,0,0,0,0,0,0,0,-0.015625,0,0,0.023622,0.015748,0,535

11485,0,0,0,0,0,0,0,0,0,0,0,0,0,-0.015625,0,0,0.023622,0.015748,0,536

11505,0,0,0,0,0,0,0,0,0,0,0,0,0,-0.015625,0,0,0.023622,0.015748,0,537

11525,0,0,0,0,0,0,0,0,0,0,0,0,0,-0.015625,0,0,0.023622,0.015748,0,538

11545,0,0,0,0,0,0,0,0,0,0,0,0,0,-0.015625,0,0,0.023622,0.015748,0,539

11565,0,0,0,0,0,0,0,0,0,0,0,0,0,-0.015625,0,0,0.023622,0.015748,0,540

11585,0,0,0,0,0,0,0,0,0,0,0,0,0,-0.015625,0,0,0.023622,0.015748,0,541

11605,0,0,0,0,0,0,0,0,0,0,0,0,0,-0.015625,0,0,0.023622,0.015748,0,542

11625,0,0,0,0,0,0,0,0,0,0,0,0,0,-0.015625,0,0,0.023622,0.015748,0,543

11645,0,0,0,0,0,0,0,0,0,0,0,0,0,-0.015625,0,0,0.023622,0.015748,0,544

11665,0,0,0,0,0,0,0,0,0,0,0,0,0,-0.015625,0,0,0.023622,0.015748,0,545

11685,0,0,0,0,0,0,0,0,0,0,0,0,0,-0.015625,0,0,0.023622,0.015748,0,546

11705,0,0,0,0,0,0,0,0,0,0,0,0,0,-0.015625,0,0,0.023622,0.015748,0,547

11725,0,0,0,0,0,0,0,0,0,0,0,0,0,-0.015625,0,0,0.023622,0.015748,0,548

11745,0,0,0,0,0,0,0,0,0,0,0,0,0,-0.015625,0,0,0.023622,0.015748,0,549

11765,0,0,0,0,0,0,0,0,0,0,0,0,0,-0.015625,0,0,0.023622,0.015748,0,550

11785,0,0,0,0,0,0,0,0,0,0,0,0,0,-0.015625,0,0,0.023622,0.015748,0,551

11805,0,0,0,0,0,0,0,0,0,0,0,0,0,-0.015625,0,0,0.023622,0.015748,0,552

11825,0,0,0,0,0,0,0,0,0,0,0,0,0,-0.015625,0,0,0.023622,0.015748,0,553

11845,0,0,0,0,0,0,0,0,0,0,0,0,0,-0.015625,0,0,0.023622,0.015748,0,554

11865,0,0,0,0,0,0,0,0,0,0,0,0,0,-0.015625,0,0,0.023622,0.015748,0,555

11885,0,0,0,0,0,0,0,0,0,0,0,0,0,-0.015625,0,0,0.023622,0.015748,0,556

11905,0,0,0,0,0,0,0,0,0,0,0,0,0,-0.015625,0,0,0.023622,0.015748,0,557

11925,0,0,0,0,0,0,0,0,0,0,0,0,0,-0.015625,0,0,0.023622,0.015748,0,558

11945,0,0,0,0,0,0,0,0,0,0,0,0,0,-0.015625,0,0,0.023622,0.015748,0,559

11965,0,0,0,0,0,0,0,0,0,0,0,0,0,-0.015625,0,0,0.023622,0.015748,0,560

11985,0,0,0,0,0,0,0,0,0,0,0,0,0,-0.015625,0,0,0.023622,0.015748,0,561

12005,0,0,0,0,0,0,0,0,0,0,0,0,0,-0.015625,0,0,0.023622,0.015748,0,562

12025,0,0,0,0,0,0,0,0,0,0,0,0,0,-0.015625,0,0,0.023622,0.015748,0,563

12045,0,0,0,0,0,0,0,0,0,0,0,0,0,-0.015625,0,0,0.023622,0.015748,0,564

12065,0,0,0,0,0,0,0,0,0,0,0,0,0,-0.015625,0,0,0.023622,0.015748,0,565

12085,0,0,0,0,0,0,0,0,0,0,0,0,0,-0.015625,0,0,0.023622,0.015748,0,566

12105,0,0,0,0,0,0,0,0,0,0,0,0,0,-0.015625,0,0,0.023622,0.015748,0,567

12125,0,0,0,0,0,0,0,0,0,0,0,0,0,-0.015625,0,0,0.023622,0.015748,0,568

12145,0,0,0,0,0,0,0,0,0,0,0,0,0,-0.015625,0,0,0.023622,0.015748,0,569

12165,0,0,0,0,0,0,0,0,0,0,0,0,0,-0.015625,0,0,0.023622,0.015748,0,570

12185,0,0,0,0,0,0,0,0,0,0,0,0,0,-0.015625,0,0,0.023622,0.015748,0,571

12205,0,0,0,0,0,0,0,0,0,0,0,0,0,-0.015625,0,0,0.023622,0.015748,0,572

12225,0,0,0,0,0,0,0,0,0,0,0,0,0,-0.015625,0,0,0.023622,0.015748,0,573

12245,0,0,0,0,0,0,0,0,0,0,0,0,0,-0.015625,0,0,0.023622,0.015748,0,574

12265,0,0,0,0,0,0,0,0,0,0,0,0,0,-0.015625,0,0,0.023622,0.015748,0,575

12285,0,0,0,0,0,0,0,0,0,0,0,0,0,-0.015625,0,0,0.023622,0.015748,0,576

12305,0,0,0,0,0,0,0,0,0,0,0,0,0,-0.015625,0,0,0.023622,0.015748,0,577

12325,0,0,0,0,0,0,0,0,0,0,0,0,0,-0.015625,0,0,0.023622,0.015748,0,578

12345,0,0,0,0,0,0,0,0,0,0,0,0,0,-0.015625,0,0,0.023622,0.015748,0,579

12365,0,0,0,0,0,0,0,0,0,0,0,0,0,-0.015625,0,0,0.023622,0.015748,0,580

12385,0,0,0,0,0,0,0,0,0,0,0,0,0,-0.015625,0,0,0.023622,0.015748,0,581

12405,0,0,0,0,0,0,0,0,0,0,0,0,0,-0.015625,0,0,0.023622,0.015748,0,582

12425,0,0,0,0,0,0,0,0,0,0,0,0,0,-0.015625,0,0,0.023622,0.015748,0,583

12445,0,0,0,0,0,0,0,0,0,0,0,0,0,-0.015625,0,0,0.023622,0.015748,0,584

12465,0,0,0,0,0,0,0,0,0,0,0,0,0,-0.015625,0,0,0.023622,0.015748,0,585

12485,0,0,0,0,0,0,0,0,0,0,0,0,0,-0.015625,0,0,0.023622,0.015748,0,586

12505,0,0,0,0,0,0,0,0,0,0,0,0,0,-0.015625,0,0,0.023622,0.015748,0,587

12525,0,0,0,0,0,0,0,0,0,0,0,0,0,-0.015625,0,0,0.023622,0.015748,0,588

12545,0,0,0,0,0,0,0,0,0,0,0,0,0,-0.015625,0,0,0.023622,0.015748,0,589

12565,0,0,0,0,0,0,0,0,0,0,0,0,0,-0.015625,0,0,0.023622,0.015748,0,590

12585,0,0,0,0,0,0,0,0,0,0,0,0,0,-0.015625,0,0,0.023622,0.015748,0,591

12605,0,0,0,0,0,0,0,0,0,0,0,0,0,-0.015625,0,0,0.023622,0.015748,0,592

12625,0,0,0,0,0,0,0,0,0,0,0,0,0,-0.015625,0,0,0.023622,0.015748,0,593

12645,0,0,0,0,0,0,0,0,0,0,0,0,0,-0.015625,0,0,0.023622,0.015748,0,594

12665,0,0,0,0,0,0,0,0,0,0,0,0,0,-0.015625,0,0,0.023622,0.015748,0,595

12685,0,0,0,0,0,0,0,0,0,0,0,0,0,-0.015625,0,0,0.023622,0.015748,0,596

12705,0,0,0,0,0,0,0,0,0,0,0,0,0,-0.015625,0,0,0.023622,0.015748,0,597

12725,0,0,0,0,0,0,0,0,0,0,0,0,0,-0.015625,0,0,0.023622,0.015748,0,598

12745,0,0,0,0,0,0,0,0,0,0,0,0,0,-0.015625,0,0,0.023622,0.015748,0,599

12765,0,0,0,0,0,0,0,0,0,0,0,0,0,-0.015625,0,0,0.023622,0.015748,0,600

12785,0,0,0,0,0,0,0,0,0,0,0,0,0,-0.015625,0,0,0.023622,0.015748,0,601

12805,0,0,0,0,0,0,0,0,0,0,0,0,0,-0.015625,0,0,0.023622,0.015748,0,602

12825,0,0,0,0,0,0,0,0,0,0,0,0,0,-0.015625,0,0,0.023622,0.015748,0,603

12845,0,0,0,0,0,0,0,0,0,0,0,0,0,-0.015625,0,0,0.023622,0.015748,0,604

12865,0,0,0,0,0,0,0,0,0,0,0,0,0,-0.015625,0,0,0.023622,0.015748,0,605

12885,0,0,0,0,0,0,0,0,0,0,0,0,0,-0.015625,0,0,0.023622,0.015748,0,606

12905,0,0,0,0,0,0,0,0,0,0,0,0,0,-0.015625,0,0,0.023622,0.015748,0,607

12925,0,0,0,0,0,0,0,0,0,0,0,0,0,-0.015625,0,0,0.023622,0.015748,0,608

12945,0,0,0,0,0,0,0,0,0,0,0,0,0,-0.015625,0,0,0.023622,0.015748,0,609

12965,0,0,0,0,0,0,0,0,0,0,0,0,0,-0.015625,0,0,0.023622,0.015748,0,610

12985,0,0,0,0,0,0,0,0,0,0,0,0,0,-0.015625,0,0,0.023622,0.015748,0,611

13005,0,0,0,0,0,0,0,0,0,0,0,0,0,-0.015625,0,0,0.023622,0.015748,0,612

13025,0,0,0,0,0,0,0,0,0,0,0,0,0,-0.015625,0,0,0.023622,0.015748,0,613

13045,0,0,0,0,0,0,0,0,0,0,0,0,0,-0.015625,0,0,0.023622,0.015748,0,614

13065,0,0,0,0,0,0,0,0,0,0,0,0,0,-0.015625,0,0,0.023622,0.015748,0,615

13085,0,0,0,0,0,0,0,0,0,0,0,0,0,-0.015625,0,0,0.023622,0.015748,0,616

13105,0,0,0,0,0,0,0,0,0,0,0,0,0,-0.015625,0,0,0.023622,0.015748,0,617

13125,0,0,0,0,0,0,0,0,0,0,0,0,0,-0.015625,0,0,0.023622,0.015748,0,618

13145,0,0,0,0,0,0,0,0,0,0,0,0,0,-0.015625,0,0,0.023622,0.015748,0,619

13165,0,0,0,0,0,0,0,0,0,0,0,0,0,-0.015625,0,0,0.023622,0.015748,0,620

13185,0,0,0,0,0,0,0,0,0,0,0,0,0,-0.015625,0,0,0.023622,0.015748,0,621

13205,0,0,0,0,0,0,0,0,0,0,0,0,0,-0.015625,0,0,0.023622,0.015748,0,622

13225,0,0,0,0,0,0,0,0,0,0,0,0,0,-0.015625,0,0,0.023622,0.015748,0,623

13245,0,0,0,0,0,0,0,0,0,0,0,0,0,-0.015625,0,0,0.023622,0.015748,0,624

13265,0,0,0,0,0,0,0,0,0,0,0,0,0,-0.015625,0,0,0.023622,0.015748,0,625

13285,0,0,0,0,0,0,0,0,0,0,0,0,0,-0.015625,0,0,0.023622,0.015748,0,626

13305,0,0,0,0,0,0,0,0,0,0,0,0,0,-0.015625,0,0,0.023622,0.015748,0,627

13325,0,0,0,0,0,0,0,0,0,0,0,0,0,-0.015625,0,0,0.023622,0.015748,0,628

13345,0,0,0,0,0,0,0,0,0,0,0,0,0,-0.015625,0,0,0.023622,0.015748,0,629

13365,0,0,0,0,0,0,0,0,0,0,0,0,0,-0.015625,0,0,0.023622,0.015748,0,630

13385,0,0,0,0,0,0,0,0,0,0,0,0,0,-0.015625,0,0,0.023622,0.015748,0,631

13405,0,0,0,0,0,0,0,0,0,0,0,0,0,-0.015625,0,0,0.023622,0.015748,0,632

13425,0,0,0,0,0,0,0,0,0,0,0,0,0,-0.015625,0,0,0.023622,0.015748,0,633

13445,0,0,0,0,0,0,0,0,0,0,0,0,0,-0.015625,0,0,0.023622,0.015748,0,634

13465,0,0,0,0,0,0,0,0,0,0,0,0,0,-0.015625,0,0,0.023622,0.015748,0,635

13485,0,0,0,0,0,0,0,0,0,0,0,0,0,-0.015625,0,0,0.023622,0.015748,0,636

13505,0,0,0,0,0,0,0,0,0,0,0,0,0,-0.015625,0,0,0.023622,0.015748,0,637

13525,0,0,0,0,0,0,0,0,0,0,0,0,0,-0.015625,0,0,0.023622,0.015748,0,638

13545,0,0,0,0,0,0,0,0,0,0,0,0,0,-0.015625,0,0,0.023622,0.015748,0,639

13565,0,0,0,0,0,0,0,0,0,0,0,0,0,-0.015625,0,0,0.023622,0.015748,0,640

13585,0,0,0,0,0,0,0,0,0,0,0,0,0,-0.015625,0,0,0.023622,0.015748,0,641

13605,0,0,0,0,0,0,0,0,0,0,0,0,0,-0.015625,0,0,0.023622,0.015748,0,642

13625,0,0,0,0,0,0,0,0,0,0,0,0,0,-0.015625,0,0,0.023622,0.015748,0,643

13645,0,0,0,0,0,0,0,0,0,0,0,0,0,-0.015625,0,0,0.023622,0.015748,0,644

13665,0,0,0,0,0,0,0,0,0,0,0,0,0,-0.015625,0,0,0.023622,0.015748,0,645

13685,0,0,0,0,0,0,0,0,0,0,0,0,0,-0.015625,0,0,0.023622,0.015748,0,646

13705,0,0,0,0,0,0,0,0,0,0,0,0,0,-0.015625,0,0,0.023622,0.015748,0,647

13725,0,0,0,0,0,0,0,0,0,0,0,0,0,-0.015625,0,0,0.023622,0.015748,0,648

13745,0,0,0,0,0,0,0,0,0,0,0,0,0,-0.015625,0,0,0.023622,0.015748,0,649

13765,0,0,0,0,0,0,0,0,0,0,0,0,0,-0.015625,0,0,0.023622,0.015748,0,650

13785,0,0,0,0,0,0,0,0,0,0,0,0,0,-0.015625,0,0,0.023622,0.015748,0,651

13805,0,0,0,0,0,0,0,0,0,0,0,0,0,-0.015625,0,0,0.023622,0.015748,0,652

13825,0,0,0,0,0,0,0,0,0,0,0,0,0,-0.015625,0,0,0.023622,0.015748,0,653

13845,0,0,0,0,0,0,0,0,0,0,0,0,0,-0.015625,0,0,0.023622,0.015748,0,654

13865,0,0,0,0,0,0,0,0,0,0,0,0,0,-0.015625,0,0,0.023622,0.015748,0,655

13885,0,0,0,0,0,0,0,0,0,0,0,0,0,-0.015625,0,0,0.023622,0.015748,0,656

13905,0,0,0,0,0,0,0,0,0,0,0,0,0,-0.015625,0,0,0.023622,0.015748,0,657

13925,0,0,0,0,0,0,0,0,0,0,0,0,0,-0.015625,0,0,0.023622,0.015748,0,658

13945,0,0,0,0,0,0,0,0,0,0,0,0,0,-0.015625,0,0,0.023622,0.015748,0,659

13965,0,0,0,0,0,0,0,0,0,0,0,0,0,-0.015625,0,0,0.023622,0.015748,0,660

13985,0,0,0,0,0,0,0,0,0,0,0,0,0,-0.015625,0,0,0.023622,0.015748,0,661

14005,0,0,0,0,0,0,0,0,0,0,0,0,0,-0.015625,0,0,0.023622,0.015748,0,662

14025,0,0,0,0,0,0,0,0,0,0,0,0,0,-0.015625,0,0,0.023622,0.015748,0,663

14045,0,0,0,0,0,0,0,0,0,0,0,0,0,-0.015625,0,0,0.023622,0.015748,0,664

14065,0,0,0,0,0,0,0,0,0,0,0,0,0,-0.015625,0,0,0.023622,0.015748,0,665

14085,0,0,0,0,0,0,0,0,0,0,0,0,0,-0.015625,0,0,0.023622,0.015748,0,666

14105,0,0,0,0,0,0,0,0,0,0,0,0,0,-0.015625,0,0,0.023622,0.015748,0,667

14125,0,0,0,0,0,0,0,0,0,0,0,0,0,-0.015625,0,0,0.023622,0.015748,0,668

14145,0,0,0,0,0,0,0,0,0,0,0,0,0,-0.015625,0,0,0.023622,0.015748,0,669

14165,0,0,0,0,0,0,0,0,0,0,0,0,0,-0.015625,0,0,0.023622,0.015748,0,670

14185,0,0,0,0,0,0,0,0,0,0,0,0,0,-0.015625,0,0,0.023622,0.015748,0,671

14205,0,0,0,0,0,0,0,0,0,0,0,0,0,-0.015625,0,0,0.023622,0.015748,0,672

14225,0,0,0,0,0,0,0,0,0,0,0,0,0,-0.015625,0,0,0.023622,0.015748,0,673

14245,0,0,0,0,0,0,0,0,0,0,0,0,0,-0.015625,0,0,0.023622,0.015748,0,674

14265,0,0,0,0,0,0,0,0,0,0,0,0,0,-0.015625,0,0,0.023622,0.015748,0,675

14285,0,0,0,0,0,0,0,0,0,0,0,0,0,-0.015625,0,0,0.023622,0.015748,0,676

14305,0,0,0,0,0,0,0,0,0,0,0,0,0,-0.015625,0,0,0.023622,0.015748,0,677

14325,0,0,0,0,0,0,0,0,0,0,0,0,0,-0.015625,0,0,0.023622,0.015748,0,678

14345,0,0,0,0,0,0,0,0,0,0,0,0,0,-0.015625,0,0,0.023622,0.015748,0,679

14365,0,0,0,0,0,0,0,0,0,0,0,0,0,-0.015625,0,0,0.023622,0.015748,0,680

14385,0,0,0,0,0,0,0,0,0,0,0,0,0,-0.015625,0,0,0.023622,0.015748,0,681

14405,0,0,0,0,0,0,0,0,0,0,0,0,0,-0.015625,0,0,0.023622,0.015748,0,682

14425,0,0,0,0,0,0,0,0,0,0,0,0,0,-0.015625,0,0,0.023622,0.015748,0,683

14445,0,0,0,0,0,0,0,0,0,0,0,0,0,-0.015625,0,0,0.023622,0.015748,0,684

14465,0,0,0,0,0,0,0,0,0,0,0,0,0,-0.015625,0,0,0.023622,0.015748,0,685

14485,0,0,0,0,0,0,0,0,0,0,0,0,0,-0.015625,0,0,0.023622,0.015748,0,686

14505,0,0,0,0,0,0,0,0,0,0,0,0,0,-0.015625,0,0,0.023622,0.015748,0,687

14525,0,0,0,0,0,0,0,0,0,0,0,0,0,-0.015625,0,0,0.023622,0.015748,0,688

14545,0,0,0,0,0,0,0,0,0,0,0,0,0,-0.015625,0,0,0.023622,0.015748,0,689

14565,0,0,0,0,0,0,0,0,0,0,0,0,0,-0.015625,0,0,0.023622,0.015748,0,690

14585,0,0,0,0,0,0,0,0,0,0,0,0,0,-0.015625,0,0,0.023622,0.015748,0,691

14605,0,0,0,0,0,0,0,0,0,0,0,0,0,-0.015625,0,0,0.023622,0.015748,0,692

14625,0,0,0,0,0,0,0,0,0,0,0,0,0,-0.015625,0,0,0.023622,0.015748,0,693

14645,0,0,0,0,0,0,0,0,0,0,0,0,0,-0.015625,0,0,0.023622,0.015748,0,694

14665,0,0,0,0,0,0,0,0,0,0,0,0,0,-0.015625,0,0,0.023622,0.015748,0,695

14685,0,0,0,0,0,0,0,0,0,0,0,0,0,-0.015625,0,0,0.023622,0.015748,0,696

14705,0,0,0,0,0,0,0,0,0,0,0,0,0,-0.015625,0,0,0.023622,0.015748,0,697

14725,0,0,0,0,0,0,0,0,0,0,0,0,0,-0.015625,0,0,0.023622,0.015748,0,698

14745,0,0,0,0,0,0,0,0,0,0,0,0,0,-0.015625,0,0,0.023622,0.015748,0,699

14765,0,0,0,0,0,0,0,0,0,0,0,0,0,-0.015625,0,0,0.023622,0.015748,0,700

14785,0,0,0,0,0,0,0,0,0,0,0,0,0,-0.015625,0,0,0.023622,0.015748,0,701

14805,0,0,0,0,0,0,0,0,0,0,0,0,0,-0.015625,0,0,0.023622,0.015748,0,702

14825,0,0,0,0,0,0,0,0,0,0,0,0,0,-0.015625,0,0,0.023622,0.015748,0,703

14845,0,0,0,0,0,0,0,0,0,0,0,0,0,-0.015625,0,0,0.023622,0.015748,0,704

14865,0,0,0,0,0,0,0,0,0,0,0,0,0,-0.015625,0,0,0.023622,0.015748,0,705

14885,0,0,0,0,0,0,0,0,0,0,0,0,0,-0.015625,0,0,0.023622,0.015748,0,706

14905,0,0,0,0,0,0,0,0,0,0,0,0,0,-0.015625,0,0,0.023622,0.015748,0,707

14925,0,0,0,0,0,0,0,0,0,0,0,0,0,-0.015625,0,0,0.023622,0.015748,0,708

14945,0,0,0,0,0,0,0,0,0,0,0,0,0,-0.015625,0,0,0.023622,0.015748,0,709

14965,0,0,0,0,0,0,0,0,0,0,0,0,0,-0.015625,0,0,0.023622,0.015748,0,710

14985,0,0,0,0,0,0,0,0,0,0,0,0,0,-0.015625,0,0,0.023622,0.015748,0,711

15005,0,0,0,0,0,0,0,0,0,0,0,0,0,-0.015625,0,0,0.023622,0.015748,0,712

15025,0,0,0,0,0,0,0,0,0,0,0,0,0,-0.015625,0,0,0.023622,0.015748,0,713

15045,0,0,0,0,0,0,0,0,0,0,0,0,0,-0.015625,0,0,0.023622,0.015748,0,714

15065,0,0,0,0,0,0,0,0,0,0,0,0,0,-0.015625,0,0,0.023622,0.015748,0,715

15085,0,0,0,0,0,0,0,0,0,0,0,0,0,-0.015625,0,0,0.023622,0.015748,0,716

15105,0,0,0,0,0,0,0,0,0,0,0,0,0,-0.015625,0,0,0.023622,0.015748,0,717

15125,0,0,0,0,0,0,0,0,0,0,0,0,0,-0.015625,0,0,0.023622,0.015748,0,718

15145,0,0,0,0,0,0,0,0,0,0,0,0,0,-0.015625,0,0,0.023622,0.015748,0,719

15165,0,0,0,0,0,0,0,0,0,0,0,0,0,-0.015625,0,0,0.023622,0.015748,0,720

15185,0,0,0,0,0,0,0,0,0,0,0,0,0,-0.015625,0,0,0.023622,0.015748,0,721

15205,0,0,0,0,0,0,0,0,0,0,0,0,0,-0.015625,0,0,0.023622,0.015748,0,722

15225,0,0,0,0,0,0,0,0,0,0,0,0,0,-0.015625,0,0,0.023622,0.015748,0,723

15245,0,0,0,0,0,0,0,0,0,0,0,0,0,-0.015625,0,0,0.023622,0.015748,0,724

15265,0,0,0,0,0,0,0,0,0,0,0,0,0,-0.015625,0,0,0.023622,0.015748,0,725

15285,0,0,0,0,0,0,0,0,0,0,0,0,0,-0.015625,0,0,0.023622,0.015748,0,726

15305,0,0,0,0,0,0,0,0,0,0,0,0,0,-0.015625,0,0,0.023622,0.015748,0,727

15325,0,0,0,0,0,0,0,0,0,0,0,0,0,-0.015625,0,0,0.023622,0.015748,0,728

15345,0,0,0,0,0,0,0,0,0,0,0,0,0,-0.015625,0,0,0.023622,0.015748,0,729

15365,0,0,0,0,0,0,0,0,0,0,0,0,0,-0.015625,0,0,0.023622,0.015748,0,730

15385,0,0,0,0,0,0,0,0,0,0,0,0,0,-0.015625,0,0,0.023622,0.015748,0,731

15405,0,0,0,0,0,0,0,0,0,0,0,0,0,-0.015625,0,0,0.023622,0.015748,0,732

15425,0,0,0,0,0,0,0,0,0,0,0,0,0,-0.015625,0,0,0.023622,0.015748,0,733

15445,0,0,0,0,0,0,0,0,0,0,0,0,0,-0.015625,0,0,0.023622,0.015748,0,734

15465,0,0,0,0,0,0,0,0,0,0,0,0,0,-0.015625,0,0,0.023622,0.015748,0,735

15485,0,0,0,0,0,0,0,0,0,0,0,0,0,-0.015625,0,0,0.023622,0.015748,0,736

15505,0,0,0,0,0,0,0,0,0,0,0,0,0,-0.015625,0,0,0.023622,0.015748,0,737

15525,0,0,0,0,0,0,0,0,0,0,0,0,0,-0.015625,0,0,0.023622,0.015748,0,738

15545,0,0,0,0,0,0,0,0,0,0,0,0,0,-0.015625,0,0,0.023622,0.015748,0,739

15565,0,0,0,0,0,0,0,0,0,0,0,0,0,-0.015625,0,0,0.023622,0.015748,0,740

15585,0,0,0,0,0,0,0,0,0,0,0,0,0,-0.015625,0,0,0.023622,0.015748,0,741

15605,0,0,0,0,0,0,0,0,0,0,0,0,0,-0.015625,0,0,0.023622,0.015748,0,742

15625,0,0,0,0,0,0,0,0,0,0,0,0,0,-0.015625,0,0,0.023622,0.015748,0,743

15645,0,0,0,0,0,0,0,0,0,0,0,0,0,-0.015625,0,0,0.023622,0.015748,0,744

15665,0,0,0,0,0,0,0,0,0,0,0,0,0,-0.015625,0,0,0.023622,0.015748,0,745

15685,0,0,0,0,0,0,0,0,0,0,0,0,0,-0.015625,0,0,0.023622,0.015748,0,746

15705,0,0,0,0,0,0,0,0,0,0,0,0,0,-0.015625,0,0,0.023622,0.015748,0,747

15725,0,0,0,0,0,0,0,0,0,0,0,0,0,-0.015625,0,0,0.023622,0.015748,0,748

15745,0,0,0,0,0,0,0,0,0,0,0,0,0,-0.015625,0,0,0.023622,0.015748,0,749

15765,0,0,0,0,0,0,0,0,0,0,0,0,0,-0.015625,0,0,0.023622,0.015748,0,750

15785,0,0,0,0,0,0,0,0,0,0,0,0,0,-0.015625,0,0,0.023622,0.015748,0,751

15805,0,0,0,0,0,0,0,0,0,0,0,0,0,-0.015625,0,0,0.023622,0.015748,0,752

15825,0,0,0,0,0,0,0,0,0,0,0,0,0,-0.015625,0,0,0.023622,0.015748,0,753

15845,0,0,0,0,0,0,0,0,0,0,0,0,0,-0.015625,0,0,0.023622,0.015748,0,754

15865,0,0,0,0,0,0,0,0,0,0,0,0,0,-0.015625,0,0,0.023622,0.015748,0,755

15885,0,0,0,0,0,0,0,0,0,0,0,0,0,-0.015625,0,0,0.023622,0.015748,0,756

15905,0,0,0,0,0,0,0,0,0,0,0,0,0,-0.015625,0,0,0.023622,0.015748,0,757

15925,0,0,0,0,0,0,0,0,0,0,0,0,0,-0.015625,0,0,0.023622,0.015748,0,758

15945,0,0,0,0,0,0,0,0,0,0,0,0,0,-0.015625,0,0,0.023622,0.015748,0,759

15965,0,0,0,0,0,0,0,0,0,0,0,0,0,-0.015625,0,0,0.023622,0.015748,0,760

15985,0,0,0,0,0,0,0,0,0,0,0,0,0,-0.015625,0,0,0.023622,0.015748,0,761

16005,0,0,0,0,0,0,0,0,0,0,0,0,0,-0.015625,0,0,0.023622,0.015748,0,762

16025,0,0,0,0,0,0,0,0,0,0,0,0,0,-0.015625,0,0,0.023622,0.015748,0,763

16045,0,0,0,0,0,0,0,0,0,0,0,0,0,-0.015625,0,0,0.023622,0.015748,0,764

16065,0,0,0,0,0,0,0,0,0,0,0,0,0,-0.015625,0,0,0.023622,0.015748,0,765

16085,0,0,0,0,0,0,0,0,0,0,0,0,0,-0.015625,0,0,0.023622,0.015748,0,766

16105,0,0,0,0,0,0,0,0,0,0,0,0,0,-0.015625,0,0,0.023622,0.015748,0,767

16125,0,0,0,0,0,0,0,0,0,0,0,0,0,-0.015625,0,0,0.023622,0.015748,0,768

16145,0,0,0,0,0,0,0,0,0,0,0,0,0,-0.015625,0,0,0.023622,0.015748,0,769

16165,0,0,0,0,0,0,0,0,0,0,0,0,0,-0.015625,0,0,0.023622,0.015748,0,770

16185,0,0,0,0,0,0,0,0,0,0,0,0,0,-0.015625,0,0,0.023622,0.015748,0,771

16205,0,0,0,0,0,0,0,0,0,0,0,0,0,-0.015625,0,0,0.023622,0.015748,0,772

16225,0,0,0,0,0,0,0,0,0,0,0,0,0,-0.015625,0,0,0.023622,0.015748,0,773

16245,0,0,0,0,0,0,0,0,0,0,0,0,0,-0.015625,0,0,0.023622,0.015748,0,774

16265,0,0,0,0,0,0,0,0,0,0,0,0,0,-0.015625,0,0,0.023622,0.015748,0,775

16285,0,0,0,0,0,0,0,0,0,0,0,0,0,-0.015625,0,0,0.023622,0.015748,0,776

16305,0,0,0,0,0,0,0,0,0,0,0,0,0,-0.015625,0,0,0.023622,0.015748,0,777

16325,0,0,0,0,0,0,0,0,0,0,0,0,0,-0.015625,0,0,0.023622,0.015748,0,778

16345,0,0,0,0,0,0,0,0,0,0,0,0,0,-0.015625,0,0,0.023622,0.015748,0,779

16365,0,0,0,0,0,0,0,0,0,0,0,0,0,-0.015625,0,0,0.023622,0.015748,0,780

16385,0,0,0,0,0,0,0,0,0,0,0,0,0,-0.015625,0,0,0.023622,0.015748,0,781

16405,0,0,0,0,0,0,0,0,0,0,0,0,0,-0.015625,0,0,0.023622,0.015748,0,782

16425,0,0,0,0,0,0,0,0,0,0,0,0,0,-0.015625,0,0,0.023622,0.015748,0,783

16445,0,0,0,0,0,0,0,0,0,0,0,0,0,-0.015625,0,0,0.023622,0.015748,0,784

16465,0,0,0,0,0,0,0,0,0,0,0,0,0,-0.015625,0,0,0.023622,0.015748,0,785

16485,0,0,0,0,0,0,0,0,0,0,0,0,0,-0.015625,0,0,0.023622,0.015748,0,786

16505,0,0,0,0,0,0,0,0,0,0,0,0,0,-0.015625,0,0,0.023622,0.015748,0,787

16525,0,0,0,0,0,0,0,0,0,0,0,0,0,-0.015625,0,0,0.023622,0.015748,0,788

16545,0,0,0,0,0,0,0,0,0,0,0,0,0,-0.015625,0,0,0.023622,0.015748,0,789

16565,0,0,0,0,0,0,0,0,0,0,0,0,0,-0.015625,0,0,0.023622,0.015748,0,790

16585,0,0,0,0,0,0,0,0,0,0,0,0,0,-0.015625,0,0,0.023622,0.015748,0,791

16605,0,0,0,0,0,0,0,0,0,0,0,0,0,-0.015625,0,0,0.023622,0.015748,0,792

16625,0,0,0,0,0,0,0,0,0,0,0,0,0,-0.015625,0,0,0.023622,0.015748,0,793

16645,0,0,0,0,0,0,0,0,0,0,0,0,0,-0.015625,0,0,0.023622,0.015748,0,794

16665,0,0,0,0,0,0,0,0,0,0,0,0,0,-0.015625,0,0,0.023622,0.015748,0,795

16685,0,0,0,0,0,0,0,0,0,0,0,0,0,-0.015625,0,0,0.023622,0.015748,0,796

16705,0,0,0,0,0,0,0,0,0,0,0,0,0,-0.015625,0,0,0.023622,0.015748,0,797

16725,0,0,0,0,0,0,0,0,0,0,0,0,0,-0.015625,0,0,0.023622,0.015748,0,798

16745,0,0,0,0,0,0,0,0,0,0,0,0,0,-0.015625,0,0,0.023622,0.015748,0,799

16765,0,0,0,0,0,0,0,0,0,0,0,0,0,-0.015625,0,0,0.023622,0.015748,0,800

16785,0,0,0,0,0,0,0,0,0,0,0,0,0,-0.015625,0,0,0.023622,0.015748,0,801

16805,0,0,0,0,0,0,0,0,0,0,0,0,0,-0.015625,0,0,0.023622,0.015748,0,802

16825,0,0,0,0,0,0,0,0,0,0,0,0,0,-0.015625,0,0,0.023622,0.015748,0,803

16845,0,0,0,0,0,0,0,0,0,0,0,0,0,-0.015625,0,0,0.023622,0.015748,0,804

16865,0,0,0,0,0,0,0,0,0,0,0,0,0,-0.015625,0,0,0.023622,0.015748,0,805

16885,0,0,0,0,0,0,0,0,0,0,0,0,0,-0.015625,0,0,0.023622,0.015748,0,806

16905,0,0,0,0,0,0,0,0,0,0,0,0,0,-0.015625,0,0,0.023622,0.015748,0,807

16925,0,0,0,0,0,0,0,0,0,0,0,0,0,-0.015625,0,0,0.023622,0.015748,0,808

16945,0,0,0,0,0,0,0,0,0,0,0,0,0,-0.015625,0,0,0.023622,0.015748,0,809

16965,0,0,0,0,0,0,0,0,0,0,0,0,0,-0.015625,0,0,0.023622,0.015748,0,810

16985,0,0,0,0,0,0,0,0,0,0,0,0,0,-0.015625,0,0,0.023622,0.015748,0,811

17005,0,0,0,0,0,0,0,0,0,0,0,0,0,-0.015625,0,0,0.023622,0.015748,0,812

17025,0,0,0,0,0,0,0,0,0,0,0,0,0,-0.015625,0,0,0.023622,0.015748,0,813

17045,0,0,0,0,0,0,0,0,0,0,0,0,0,-0.015625,0,0,0.023622,0.015748,0,814

17065,0,0,0,0,0,0,0,0,0,0,0,0,0,-0.015625,0,0,0.023622,0.015748,0,815

17085,0,0,0,0,0,0,0,0,0,0,0,0,0,-0.015625,0,0,0.023622,0.015748,0,816

17105,0,0,0,0,0,0,0,0,0,0,0,0,0,-0.015625,0,0,0.023622,0.015748,0,817

17125,0,0,0,0,0,0,0,0,0,0,0,0,0,-0.015625,0,0,0.023622,0.015748,0,818

17145,0,0,0,0,0,0,0,0,0,0,0,0,0,-0.015625,0,0,0.023622,0.015748,0,819

17165,0,0,0,0,0,0,0,0,0,0,0,0,0,-0.015625,0,0,0.023622,0.015748,0,820

17185,0,0,0,0,0,0,0,0,0,0,0,0,0,-0.015625,0,0,0.023622,0.015748,0,821

17205,0,0,0,0,0,0,0,0,0,0,0,0,0,-0.015625,0,0,0.023622,0.015748,0,822

17225,0,0,0,0,0,0,0,0,0,0,0,0,0,-0.015625,0,0,0.023622,0.015748,0,823

17245,0,0,0,0,0,0,0,0,0,0,0,0,0,-0.015625,0,0,0.023622,0.015748,0,824

17265,0,0,0,0,0,0,0,0,0,0,0,0,0,-0.015625,0,0,0.023622,0.015748,0,825

17285,0,0,0,0,0,0,0,0,0,0,0,0,0,-0.015625,0,0,0.023622,0.015748,0,826

17305,0,0,0,0,0,0,0,0,0,0,0,0,0,-0.015625,0,0,0.023622,0.015748,0,827

17325,0,0,0,0,0,0,0,0,0,0,0,0,0,-0.015625,0,0,0.023622,0.015748,0,828

17345,0,0,0,0,0,0,0,0,0,0,0,0,0,-0.015625,0,0,0.023622,0.015748,0,829

17365,0,0,0,0,0,0,0,0,0,0,0,0,0,-0.015625,0,0,0.023622,0.015748,0,830

17385,0,0,0,0,0,0,0,0,0,0,0,0,0,-0.015625,0,0,0.023622,0.015748,0,831

17405,0,0,0,0,0,0,0,0,0,0,0,0,0,-0.015625,0,0,0.023622,0.015748,0,832

17425,0,0,0,0,0,0,0,0,0,0,0,0,0,-0.015625,0,0,0.023622,0.015748,0,833

17445,0,0,0,0,0,0,0,0,0,0,0,0,0,-0.015625,0,0,0.023622,0.015748,0,834

17465,0,0,0,0,0,0,0,0,0,0,0,0,0,-0.015625,0,0,0.023622,0.015748,0,835

17485,0,0,0,0,0,0,0,0,0,0,0,0,0,-0.015625,0,0,0.023622,0.015748,0,836

17505,0,0,0,0,0,0,0,0,0,0,0,0,0,-0.015625,0,0,0.023622,0.015748,0,837

17525,0,0,0,0,0,0,0,0,0,0,0,0,0,-0.015625,0,0,0.023622,0.015748,0,838

17545,0,0,0,0,0,0,0,0,0,0,0,0,0,-0.015625,0,0,0.023622,0.015748,0,839

17565,0,0,0,0,0,0,0,0,0,0,0,0,0,-0.015625,0,0,0.023622,0.015748,0,840

17585,0,0,0,0,0,0,0,0,0,0,0,0,0,-0.015625,0,0,0.023622,0.015748,0,841

17605,0,0,0,0,0,0,0,0,0,0,0,0,0,-0.015625,0,0,0.023622,0.015748,0,842

17625,0,0,0,0,0,0,0,0,0,0,0,0,0,-0.015625,0,0,0.023622,0.015748,0,843

17645,0,0,0,0,0,0,0,0,0,0,0,0,0,-0.015625,0,0,0.023622,0.015748,0,844

17665,0,0,0,0,0,0,0,0,0,0,0,0,0,-0.015625,0,0,0.023622,0.015748,0,845

17685,0,0,0,0,0,0,0,0,0,0,0,0,0,-0.015625,0,0,0.023622,0.015748,0,846

17705,0,0,0,0,0,0,0,0,0,0,0,0,0,-0.015625,0,0,0.023622,0.015748,0,847

17725,0,0,0,0,0,0,0,0,0,0,0,0,0,-0.015625,0,0,0.023622,0.015748,0,848

17745,0,0,0,0,0,0,0,0,0,0,0,0,0,-0.015625,0,0,0.023622,0.015748,0,849

17765,0,0,0,0,0,0,0,0,0,0,0,0,0,-0.015625,0,0,0.023622,0.015748,0,850

17785,0,0,0,0,0,0,0,0,0,0,0,0,0,-0.015625,0,0,0.023622,0.015748,0,851

17805,0,0,0,0,0,0,0,0,0,0,0,0,0,-0.015625,0,0,0.023622,0.015748,0,852

17825,0,0,0,0,0,0,0,0,0,0,0,0,0,-0.015625,0,0,0.023622,0.015748,0,853

17845,0,0,0,0,0,0,0,0,0,0,0,0,0,-0.015625,0,0,0.023622,0.015748,0,854

17865,0,0,0,0,0,0,0,0,0,0,0,0,0,-0.015625,0,0,0.023622,0.015748,0,855

17885,0,0,0,0,0,0,0,0,0,0,0,0,0,-0.015625,0,0,0.023622,0.015748,0,856

17905,0,0,0,0,0,0,0,0,0,0,0,0,0,-0.015625,0,0,0.023622,0.015748,0,857

17925,0,0,0,0,0,0,0,0,0,0,0,0,0,-0.015625,0,0,0.023622,0.015748,0,858

17945,0,0,0,0,0,0,0,0,0,0,0,0,0,-0.015625,0,0,0.023622,0.015748,0,859

17965,0,0,0,0,0,0,0,0,0,0,0,0,0,-0.015625,0,0,0.023622,0.015748,0,860

17985,0,0,0,0,0,0,0,0,0,0,0,0,0,-0.015625,0,0,0.023622,0.015748,0,861

18005,0,0,0,0,0,0,0,0,0,0,0,0,0,-0.015625,0,0,0.023622,0.015748,0,862

18025,0,0,0,0,0,0,0,0,0,0,0,0,0,-0.015625,0,0,0.023622,0.015748,0,863

18045,0,0,0,0,0,0,0,0,0,0,0,0,0,-0.015625,0,0,0.023622,0.015748,0,864

18065,0,0,0,0,0,0,0,0,0,0,0,0,0,-0.015625,0,0,0.023622,0.015748,0,865

18085,0,0,0,0,0,0,0,0,0,0,0,0,0,-0.015625,0,0,0.023622,0.015748,0,866

18105,0,0,0,0,0,0,0,0,0,0,0,0,0,-0.015625,0,0,0.023622,0.015748,0,867

18125,0,0,0,0,0,0,0,0,0,0,0,0,0,-0.015625,0,0,0.023622,0.015748,0,868

18145,0,0,0,0,0,0,0,0,0,0,0,0,0,-0.015625,0,0,0.023622,0.015748,0,869

18165,0,0,0,0,0,0,0,0,0,0,0,0,0,-0.015625,0,0,0.023622,0.015748,0,870

18185,0,0,0,0,0,0,0,0,0,0,0,0,0,-0.015625,0,0,0.023622,0.015748,0,871

18205,0,0,0,0,0,0,0,0,0,0,0,0,0,-0.015625,0,0,0.023622,0.015748,0,872

18225,0,0,0,0,0,0,0,0,0,0,0,0,0,-0.015625,0,0,0.023622,0.015748,0,873

18245,0,0,0,0,0,0,0,0,0,0,0,0,0,-0.015625,0,0,0.023622,0.015748,0,874

18265,0,0,0,0,0,0,0,0,0,0,0,0,0,-0.015625,0,0,0.023622,0.015748,0,875

18285,0,0,0,0,0,0,0,0,0,0,0,0,0,-0.015625,0,0,0.023622,0.015748,0,876

18305,0,0,0,0,0,0,0,0,0,0,0,0,0,-0.015625,0,0,0.023622,0.015748,0,877

18325,0,0,0,0,0,0,0,0,0,0,0,0,0,-0.015625,0,0,0.023622,0.015748,0,878

18345,0,0,0,0,0,0,0,0,0,0,0,0,0,-0.015625,0,0,0.023622,0.015748,0,879

18365,0,0,0,0,0,0,0,0,0,0,0,0,0,-0.015625,0,0,0.023622,0.015748,0,880

18385,0,0,0,0,0,0,0,0,0,0,0,0,0,-0.015625,0,0,0.023622,0.015748,0,881

18405,0,0,0,0,0,0,0,0,0,0,0,0,0,-0.015625,0,0,0.023622,0.015748,0,882

18425,0,0,0,0,0,0,0,0,0,0,0,0,0,-0.015625,0,0,0.023622,0.015748,0,883

18445,0,0,0,0,0,0,0,0,0,0,0,0,0,-0.015625,0,0,0.023622,0.015748,0,884

18465,0,0,0,0,0,0,0,0,0,0,0,0,0,-0.015625,0,0,0.023622,0.015748,0,885

18485,0,0,0,0,0,0,0,0,0,0,0,0,0,-0.015625,0,0,0.023622,0.015748,0,886

18505,0,0,0,0,0,0,0,0,0,0,0,0,0,-0.015625,0,0,0.023622,0.015748,0,887

18525,0,0,0,0,0,0,0,0,0,0,0,0,0,-0.015625,0,0,0.023622,0.015748,0,888

18545,0,0,0,0,0,0,0,0,0,0,0,0,0,-0.015625,0,0,0.023622,0.015748,0,889

18565,0,0,0,0,0,0,0,0,0,0,0,0,0,-0.015625,0,0,0.023622,0.015748,0,890

18585,0,0,0,0,0,0,0,0,0,0,0,0,0,-0.015625,0,0,0.023622,0.015748,0,891

18605,0,0,0,0,0,0,0,0,0,0,0,0,0,-0.015625,0,0,0.023622,0.015748,0,892

18625,0,0,0,0,0,0,0,0,0,0,0,0,0,-0.015625,0,0,0.023622,0.015748,0,893

18645,0,0,0,0,0,0,0,0,0,0,0,0,0,-0.015625,0,0,0.023622,0.015748,0,894

18665,0,0,0,0,0,0,0,0,0,0,0,0,0,-0.015625,0,0,0.023622,0.015748,0,895

18685,0,0,0,0,0,0,0,0,0,0,0,0,0,-0.015625,0,0,0.023622,0.015748,0,896

18705,0,0,0,0,0,0,0,0,0,0,0,0,0,-0.015625,0,0,0.023622,0.015748,0,897

18725,0,0,0,0,0,0,0,0,0,0,0,0,0,-0.015625,0,0,0.023622,0.015748,0,898

18745,0,0,0,0,0,0,0,0,0,0,0,0,0,-0.015625,0,0,0.023622,0.015748,0,899

18765,0,0,0,0,0,0,0,0,0,0,0,0,0,-0.015625,0,0,0.023622,0.015748,0,900

18785,0,0,0,0,0,0,0,0,0,0,0,0,0,-0.015625,0,0,0.023622,0.015748,0,901

18805,0,0,0,0,0,0,0,0,0,0,0,0,0,-0.015625,0,0,0.023622,0.015748,0,902

18825,0,0,0,0,0,0,0,0,0,0,0,0,0,-0.015625,0,0,0.023622,0.015748,0,903

18845,0,0,0,0,0,0,0,0,0,0,0,0,0,-0.015625,0,0,0.023622,0.015748,0,904

18865,0,0,0,0,0,0,0,0,0,0,0,0,0,-0.015625,0,0,0.023622,0.015748,0,905

18885,0,0,0,0,0,0,0,0,0,0,0,0,0,-0.015625,0,0,0.023622,0.015748,0,906

18905,0,0,0,0,0,0,0,0,0,0,0,0,0,-0.015625,0,0,0.023622,0.015748,0,907

18925,0,0,0,0,0,0,0,0,0,0,0,0,0,-0.015625,0,0,0.023622,0.015748,0,908

18945,0,0,0,0,0,0,0,0,0,0,0,0,0,-0.015625,0,0,0.023622,0.015748,0,909

18965,0,0,0,0,0,0,0,0,0,0,0,0,0,-0.015625,0,0,0.023622,0.015748,0,910

18985,0,0,0,0,0,0,0,0,0,0,0,0,0,-0.015625,0,0,0.023622,0.015748,0,911

19005,0,0,0,0,0,0,0,0,0,0,0,0,0,-0.015625,0,0,0.023622,0.015748,0,912

19025,0,0,0,0,0,0,0,0,0,0,0,0,0,-0.015625,0,0,0.023622,0.015748,0,913

19045,0,0,0,0,0,0,0,0,0,0,0,0,0,-0.015625,0,0,0.023622,0.015748,0,914

19065,0,0,0,0,0,0,0,0,0,0,0,0,0,-0.015625,0,0,0.023622,0.015748,0,915

19085,0,0,0,0,0,0,0,0,0,0,0,0,0,-0.015625,0,0,0.023622,0.015748,0,916

19105,0,0,0,0,0,0,0,0,0,0,0,0,0,-0.015625,0,0,0.023622,0.015748,0,917

19125,0,0,0,0,0,0,0,0,0,0,0,0,0,-0.015625,0,0,0.023622,0.015748,0,918

19145,0,0,0,0,0,0,0,0,0,0,0,0,0,-0.015625,0,0,0.023622,0.015748,0,919

19165,0,0,0,0,0,0,0,0,0,0,0,0,0,-0.015625,0,0,0.023622,0.015748,0,920

19185,0,0,0,0,0,0,0,0,0,0,0,0,0,-0.015625,0,0,0.023622,0.015748,0,921

19205,0,0,0,0,0,0,0,0,0,0,0,0,0,-0.015625,0,0,0.023622,0.015748,0,922

19225,0,0,0,0,0,0,0,0,0,0,0,0,0,-0.015625,0,0,0.023622,0.015748,0,923

19245,0,0,0,0,0,0,0,0,0,0,0,0,0,-0.015625,0,0,0.023622,0.015748,0,924

19265,0,0,0,0,0,0,0,0,0,0,0,0,0,-0.015625,0,0,0.023622,0.015748,0,925

19285,0,0,0,0,0,0,0,0,0,0,0,0,0,-0.015625,0,0,0.023622,0.015748,0,926

19305,0,0,0,0,0,0,0,0,0,0,0,0,0,-0.015625,0,0,0.023622,0.015748,0,927

19325,0,0,0,0,0,0,0,0,0,0,0,0,0,-0.015625,0,0,0.023622,0.015748,0,928

19345,0,0,0,0,0,0,0,0,0,0,0,0,0,-0.015625,0,0,0.023622,0.015748,0,929

19365,0,0,0,0,0,0,0,0,0,0,0,0,0,-0.015625,0,0,0.023622,0.015748,0,930

19385,0,0,0,0,0,0,0,0,0,0,0,0,0,-0.015625,0,0,0.023622,0.015748,0,931

19405,0,0,0,0,0,0,0,0,0,0,0,0,0,-0.015625,0,0,0.023622,0.015748,0,932

19425,0,0,0,0,0,0,0,0,0,0,0,0,0,-0.015625,0,0,0.023622,0.015748,0,933

19445,0,0,0,0,0,0,0,0,0,0,0,0,0,-0.015625,0,0,0.023622,0.015748,0,934

19465,0,0,0,0,0,0,0,0,0,0,0,0,0,-0.015625,0,0,0.023622,0.015748,0,935

19485,0,0,0,0,0,0,0,0,0,0,0,0,0,-0.015625,0,0,0.023622,0.015748,0,936

19505,0,0,0,0,0,0,0,0,0,0,0,0,0,-0.015625,0,0,0.023622,0.015748,0,937

19525,0,0,0,0,0,0,0,0,0,0,0,0,0,-0.015625,0,0,0.023622,0.015748,0,938

19545,0,0,0,0,0,0,0,0,0,0,0,0,0,-0.015625,0,0,0.023622,0.015748,0,939

19565,0,0,0,0,0,0,0,0,0,0,0,0,0,-0.015625,0,0,0.023622,0.015748,0,940

19585,0,0,0,0,0,0,0,0,0,0,0,0,0,-0.015625,0,0,0.023622,0.015748,0,941

19605,0,0,0,0,0,0,0,0,0,0,0,0,0,-0.015625,0,0,0.023622,0.015748,0,942

19625,0,0,0,0,0,0,0,0,0,0,0,0,0,-0.015625,0,0,0.023622,0.015748,0,943

19645,0,0,0,0,0,0,0,0,0,0,0,0,0,-0.015625,0,0,0.023622,0.015748,0,944

19665,0,0,0,0,0,0,0,0,0,0,0,0,0,-0.015625,0,0,0.023622,0.015748,0,945

19685,0,0,0,0,0,0,0,0,0,0,0,0,0,-0.015625,0,0,0.023622,0.015748,0,946

19705,0,0,0,0,0,0,0,0,0,0,0,0,0,-0.015625,0,0,0.023622,0.015748,0,947

19725,0,0,0,0,0,0,0,0,0,0,0,0,0,-0.015625,0,0,0.023622,0.015748,0,948

19745,0,0,0,0,0,0,0,0,0,0,0,0,0,-0.015625,0,0,0.023622,0.015748,0,949

19765,0,0,0,0,0,0,0,0,0,0,0,0,0,-0.015625,0,0,0.023622,0.015748,0,950

19785,0,0,0,0,0,0,0,0,0,0,0,0,0,-0.015625,0,0,0.023622,0.015748,0,951

19805,0,0,0,0,0,0,0,0,0,0,0,0,0,-0.015625,0,0,0.023622,0.015748,0,952

19825,0,0,0,0,0,0,0,0,0,0,0,0,0,-0.015625,0,0,0.023622,0.015748,0,953

19845,0,0,0,0,0,0,0,0,0,0,0,0,0,-0.015625,0,0,0.023622,0.015748,0,954

19865,0,0,0,0,0,0,0,0,0,0,0,0,0,-0.015625,0,0,0.023622,0.015748,0,955

19885,0,0,0,0,0,0,0,0,0,0,0,0,0,-0.015625,0,0,0.023622,0.015748,0,956

19905,0,0,0,0,0,0,0,0,0,0,0,0,0,-0.015625,0,0,0.023622,0.015748,0,957

19925,0,0,0,0,0,0,0,0,0,0,0,0,0,-0.015625,0,0,0.023622,0.015748,0,958

19945,0,0,0,0,0,0,0,0,0,0,0,0,0,-0.015625,0,0,0.023622,0.015748,0,959

19965,0,0,0,0,0,0,0,0,0,0,0,0,0,-0.015625,0,0,0.023622,0.015748,0,960

19985,0,0,0,0,0,0,0,0,0,0,0,0,0,-0.015625,0,0,0.023622,0.015748,0,961

20005,0,0,0,0,0,0,0,0,0,0,0,0,0,-0.015625,0,0,0.023622,0.015748,0,962

20025,0,0,0,0,0,0,0,0,0,0,0,0,0,-0.015625,0,0,0.023622,0.015748,0,963

20045,0,0,0,0,0,0,0,0,0,0,0,0,0,-0.015625,0,0,0.023622,0.015748,0,964

20065,0,0,0,0,0,0,0,0,0,0,0,0,0,-0.015625,0,0,0.023622,0.015748,0,965

20085,0,0,0,0,0,0,0,0,0,0,0,0,0,-0.015625,0,0,0.023622,0.015748,0,966

20105,0,0,0,0,0,0,0,0,0,0,0,0,0,-0.015625,0,0,0.023622,0.015748,0,967

20125,0,0,0,0,0,0,0,0,0,0,0,0,0,-0.015625,0,0,0.023622,0.015748,0,968

20145,0,0,0,0,0,0,0,0,0,0,0,0,0,-0.015625,0,0,0.023622,0.015748,0,969

20165,0,0,0,0,0,0,0,0,0,0,0,0,0,-0.015625,0,0,0.023622,0.015748,0,970

20185,0,0,0,0,0,0,0,0,0,0,0,0,0,-0.015625,0,0,0.023622,0.015748,0,971

20205,0,0,0,0,0,0,0,0,0,0,0,0,0,-0.015625,0,0,0.023622,0.015748,0,972

20225,0,0,0,0,0,0,0,0,0,0,0,0,0,-0.015625,0,0,0.023622,0.015748,0,973

20245,0,0,0,0,0,0,0,0,0,0,0,0,0,-0.015625,0,0,0.023622,0.015748,0,974

20265,0,0,0,0,0,0,0,0,0,0,0,0,0,-0.015625,0,0,0.023622,0.015748,0,975

20285,0,0,0,0,0,0,0,0,0,0,0,0,0,-0.015625,0,0,0.023622,0.015748,0,976

20305,0,0,0,0,0,0,0,0,0,0,0,0,0,-0.015625,0,0,0.023622,0.015748,0,977

20325,0,0,0,0,0,0,0,0,0,0,0,0,0,-0.015625,0,0,0.023622,0.015748,0,978

20345,0,0,0,0,0,0,0,0,0,0,0,0,0,-0.015625,0,0,0.023622,0.015748,0,979

20365,0,0,0,0,0,0,0,0,0,0,0,0,0,-0.015625,0,0,0.023622,0.015748,0,980

20385,0,0,0,0,0,0,0,0,0,0,0,0,0,-0.015625,0,0,0.023622,0.015748,0,981

20405,0,0,0,0,0,0,0,0,0,0,0,0,0,-0.015625,0,0,0.023622,0.015748,0,982

20425,0,0,0,0,0,0,0,0,0,0,0,0,0,-0.015625,0,0,0.023622,0.015748,0,983

20445,0,0,0,0,0,0,0,0,0,0,0,0,0,-0.015625,0,0,0.023622,0.015748,0,984

20465,0,0,0,0,0,0,0,0,0,0,0,0,0,-0.015625,0,0,0.023622,0.015748,0,985

20485,0,0,0,0,0,0,0,0,0,0,0,0,0,-0.015625,0,0,0.023622,0.015748,0,986

20505,0,0,0,0,0,0,0,0,0,0,0,0,0,-0.015625,0,0,0.023622,0.015748,0,987

20525,0,0,0,0,0,0,0,0,0,0,0,0,0,-0.015625,0,0,0.023622,0.015748,0,988

20545,0,0,0,0,0,0,0,0,0,0,0,0,0,-0.015625,0,0,0.023622,0.015748,0,989

20565,0,0,0,0,0,0,0,0,0,0,0,0,0,-0.015625,0,0,0.023622,0.015748,0,990

20585,0,0,0,0,0,0,0,0,0,0,0,0,0,-0.015625,0,0,0.023622,0.015748,0,991

20605,0,0,0,0,0,0,0,0,0,0,0,0,0,-0.015625,0,0,0.023622,0.015748,0,992

20625,0,0,0,0,0,0,0,0,0,0,0,0,0,-0.015625,0,0,0.023622,0.015748,0,993

20645,0,0,0,0,0,0,0,0,0,0,0,0,0,-0.015625,0,0,0.023622,0.015748,0,994

20665,0,0,0,0,0,0,0,0,0,0,0,0,0,-0.015625,0,0,0.023622,0.015748,0,995

20685,0,0,0,0,0,0,0,0,0,0,0,0,0,-0.015625,0,0,0.023622,0.015748,0,996

20705,0,0,0,0,0,0,0,0,0,0,0,0,0,-0.015625,0,0,0.023622,0.015748,0,997

20725,0,0,0,0,0,0,0,0,0,0,0,0,0,-0.015625,0,0,0.023622,0.015748,0,998

20745,0,0,0,0,0,0,0,0,0,0,0,0,0,-0.015625,0,0,0.023622,0.015748,0,999

20765,0,0,0,0,0,0,0,0,0,0,0,0,0,-0.015625,0,0,0.023622,0.015748,0,1000

20785,0,0,0,0,0,0,0,0,0,0,0,0,0,-0.015625,0,0,0.023622,0.015748,0,1001

20805,0,0,0,0,0,0,0,0,0,0,0,0,0,-0.015625,0,0,0.023622,0.015748,0,1002

20825,0,0,0,0,0,0,0,0,0,0,0,0,0,-0.015625,0,0,0.023622,0.015748,0,1003

20845,0,0,0,0,0,0,0,0,0,0,0,0,0,-0.015625,0,0,0.023622,0.015748,0,1004

20865,0,0,0,0,0,0,0,0,0,0,0,0,0,-0.015625,0,0,0.023622,0.015748,0,1005

20885,0,0,0,0,0,0,0,0,0,0,0,0,0,-0.015625,0,0,0.023622,0.015748,0,1006

20905,0,0,0,0,0,0,0,0,0,0,0,0,0,-0.015625,0,0,0.023622,0.015748,0,1007

20925,0,0,0,0,0,0,0,0,0,0,0,0,0,-0.015625,0,0,0.023622,0.015748,0,1008

20945,0,0,0,0,0,0,0,0,0,0,0,0,0,-0.015625,0,0,0.023622,0.015748,0,1009

20965,0,0,0,0,0,0,0,0,0,0,0,0,0,-0.015625,0,0,0.023622,0.015748,0,1010

20985,0,0,0,0,0,0,0,0,0,0,0,0,0,-0.015625,0,0,0.023622,0.015748,0,1011

21005,0,0,0,0,0,0,0,0,0,0,0,0,0,-0.015625,0,0,0.023622,0.015748,0,1012

21025,0,0,0,0,0,0,0,0,0,0,0,0,0,-0.015625,0,0,0.023622,0.015748,0,1013

21045,0,0,0,0,0,0,0,0,0,0,0,0,0,-0.015625,0,0,0.023622,0.015748,0,1014

21065,0,0,0,0,0,0,0,0,0,0,0,0,0,-0.015625,0,0,0.023622,0.015748,0,1015

21085,0,0,0,0,0,0,0,0,0,0,0,0,0,-0.015625,0,0,0.023622,0.015748,0,1016

21105,0,0,0,0,0,0,0,0,0,0,0,0,0,-0.015625,0,0,0.023622,0.015748,0,1017

21125,0,0,0,0,0,0,0,0,0,0,0,0,0,-0.015625,0,0,0.023622,0.015748,0,1018

21145,0,0,0,0,0,0,0,0,0,0,0,0,0,-0.015625,0,0,0.023622,0.015748,0,1019

21165,0,0,0,0,0,0,0,0,0,0,0,0,0,-0.015625,0,0,0.023622,0.015748,0,1020

21185,0,0,0,0,0,0,0,0,0,0,0,0,0,-0.015625,0,0,0.023622,0.015748,0,1021

21205,0,0,0,0,0,0,0,0,0,0,0,0,0,-0.015625,0,0,0.023622,0.015748,0,1022

21225,0,0,0,0,0,0,0,0,0,0,0,0,0,-0.015625,0,0,0.023622,0.015748,0,1023

21245,0,0,0,0,0,0,0,0,0,0,0,0,0,-0.015625,0,0,0.023622,0.015748,0,1024

21265,0,0,0,0,0,0,0,0,0,0,0,0,0,-0.015625,0,0,0.023622,0.015748,0,1025

21285,0,0,0,0,0,0,0,0,0,0,0,0,0,-0.015625,0,0,0.023622,0.015748,0,1026

21305,0,0,0,0,0,0,0,0,0,0,0,0,0,-0.015625,0,0,0.023622,0.015748,0,1027

21325,0,0,0,0,0,0,0,0,0,0,0,0,0,-0.015625,0,0,0.023622,0.015748,0,1028

21345,0,0,0,0,0,0,0,0,0,0,0,0,0,-0.015625,0,0,0.023622,0.015748,0,1029

21365,0,0,0,0,0,0,0,0,0,0,0,0,0,-0.015625,0,0,0.023622,0.015748,0,1030

21385,0,0,0,0,0,0,0,0,0,0,0,0,0,-0.015625,0,0,0.023622,0.015748,0,1031

21405,0,0,0,0,0,0,0,0,0,0,0,0,0,-0.015625,0,0,0.023622,0.015748,0,1032

21425,0,0,0,0,0,0,0,0,0,0,0,0,0,-0.015625,0,0,0.023622,0.015748,0,1033

21445,0,0,0,0,0,0,0,0,0,0,0,0,0,-0.015625,0,0,0.023622,0.015748,0,1034

21465,0,0,0,0,0,0,0,0,0,0,0,0,0,-0.015625,0,0,0.023622,0.015748,0,1035

21485,0,0,0,0,0,0,0,0,0,0,0,0,0,-0.015625,0,0,0.023622,0.015748,0,1036

21505,0,0,0,0,0,0,0,0,0,0,0,0,0,-0.015625,0,0,0.023622,0.015748,0,1037

21525,0,0,0,0,0,0,0,0,0,0,0,0,0,-0.015625,0,0,0.023622,0.015748,0,1038

21545,0,0,0,0,0,0,0,0,0,0,0,0,0,-0.015625,0,0,0.023622,0.015748,0,1039

21565,0,0,0,0,0,0,0,0,0,0,0,0,0,-0.015625,0,0,0.023622,0.015748,0,1040

21585,0,0,0,0,0,0,0,0,0,0,0,0,0,-0.015625,0,0,0.023622,0.015748,0,1041

21605,0,0,0,0,0,0,0,0,0,0,0,0,0,-0.015625,0,0,0.023622,0.015748,0,1042

21625,0,0,0,0,0,0,0,0,0,0,0,0,0,-0.015625,0,0,0.023622,0.015748,0,1043

21645,0,0,0,0,0,0,0,0,0,0,0,0,0,-0.015625,0,0,0.023622,0.015748,0,1044

21665,0,0,0,0,0,0,0,0,0,0,0,0,0,-0.015625,0,0,0.023622,0.015748,0,1045

21685,0,0,0,0,0,0,0,0,0,0,0,0,0,-0.015625,0,0,0.023622,0.015748,0,1046

21705,0,0,0,0,0,0,0,0,0,0,0,0,0,-0.015625,0,0,0.023622,0.015748,0,1047

21725,0,0,0,0,0,0,0,0,0,0,0,0,0,-0.015625,0,0,0.023622,0.015748,0,1048

21745,0,0,0,0,0,0,0,0,0,0,0,0,0,-0.015625,0,0,0.023622,0.015748,0,1049

21765,0,0,0,0,0,0,0,0,0,0,0,0,0,-0.015625,0,0,0.023622,0.015748,0,1050

21785,0,0,0,0,0,0,0,0,0,0,0,0,0,-0.015625,0,0,0.023622,0.015748,0,1051

21805,0,0,0,0,0,0,0,0,0,0,0,0,0,-0.015625,0,0,0.023622,0.015748,0,1052

21825,0,0,0,0,0,0,0,0,0,0,0,0,0,-0.015625,0,0,0.023622,0.015748,0,1053

21845,0,0,0,0,0,0,0,0,0,0,0,0,0,-0.015625,0,0,0.023622,0.015748,0,1054

21865,0,0,0,0,0,0,0,0,0,0,0,0,0,-0.015625,0,0,0.023622,0.015748,0,1055

21885,0,0,0,0,0,0,0,0,0,0,0,0,0,-0.015625,0,0,0.023622,0.015748,0,1056

21905,0,0,0,0,0,0,0,0,0,0,0,0,0,-0.015625,0,0,0.023622,0.015748,0,1057

21925,0,0,0,0,0,0,0,0,0,0,0,0,0,-0.015625,0,0,0.023622,0.015748,0,1058

21945,0,0,0,0,0,0,0,0,0,0,0,0,0,-0.015625,0,0,0.023622,0.015748,0,1059

21965,0,0,0,0,0,0,0,0,0,0,0,0,0,-0.015625,0,0,0.023622,0.015748,0,1060

21985,0,0,0,0,0,0,0,0,0,0,0,0,0,-0.015625,0,0,0.023622,0.015748,0,1061

22005,0,0,0,0,0,0,0,0,0,0,0,0,0,-0.015625,0,0,0.023622,0.015748,0,1062

22025,0,0,0,0,0,0,0,0,0,0,0,0,0,-0.015625,0,0,0.023622,0.015748,0,1063

22045,0,0,0,0,0,0,0,0,0,0,0,0,0,-0.015625,0,0,0.023622,0.015748,0,1064

22065,0,0,0,0,0,0,0,0,0,0,0,0,0,-0.015625,0,0,0.023622,0.015748,0,1065

22085,0,0,0,0,0,0,0,0,0,0,0,0,0,-0.015625,0,0,0.023622,0.015748,0,1066

22105,0,0,0,0,0,0,0,0,0,0,0,0,0,-0.015625,0,0,0.023622,0.015748,0,1067

22125,0,0,0,0,0,0,0,0,0,0,0,0,0,-0.015625,0,0,0.023622,0.015748,0,1068

22145,0,0,0,0,0,0,0,0,0,0,0,0,0,-0.015625,0,0,0.023622,0.015748,0,1069

22165,0,0,0,0,0,0,0,0,0,0,0,0,0,-0.015625,0,0,0.023622,0.015748,0,1070

22185,0,0,0,0,0,0,0,0,0,0,0,0,0,-0.015625,0,0,0.023622,0.015748,0,1071

22205,0,0,0,0,0,0,0,0,0,0,0,0,0,-0.015625,0,0,0.023622,0.015748,0,1072

22225,0,0,0,0,0,0,0,0,0,0,0,0,0,-0.015625,0,0,0.023622,0.015748,0,1073

22245,0,0,0,0,0,0,0,0,0,0,0,0,0,-0.015625,0,0,0.023622,0.015748,0,1074

22265,0,0,0,0,0,0,0,0,0,0,0,0,0,-0.015625,0,0,0.023622,0.015748,0,1075

22285,0,0,0,0,0,0,0,0,0,0,0,0,0,-0.015625,0,0,0.023622,0.015748,0,1076

22305,0,0,0,0,0,0,0,0,0,0,0,0,0,-0.015625,0,0,0.023622,0.015748,0,1077

22325,0,0,0,0,0,0,0,0,0,0,0,0,0,-0.015625,0,0,0.023622,0.015748,0,1078

22345,0,0,0,0,0,0,0,0,0,0,0,0,0,-0.015625,0,0,0.023622,0.015748,0,1079

22365,0,0,0,0,0,0,0,0,0,0,0,0,0,-0.015625,0,0,0.023622,0.015748,0,1080

22385,0,0,0,0,0,0,0,0,0,0,0,0,0,-0.015625,0,0,0.023622,0.015748,0,1081

22405,0,0,0,0,0,0,0,0,0,0,0,0,0,-0.015625,0,0,0.023622,0.015748,0,1082

22425,0,0,0,0,0,0,0,0,0,0,0,0,0,-0.015625,0,0,0.023622,0.015748,0,1083

22445,0,0,0,0,0,0,0,0,0,0,0,0,0,-0.015625,0,0,0.023622,0.015748,0,1084

22465,0,0,0,0,0,0,0,0,0,0,0,0,0,-0.015625,0,0,0.023622,0.015748,0,1085

22485,0,0,0,0,0,0,0,0,0,0,0,0,0,-0.015625,0,0,0.023622,0.015748,0,1086

22505,0,0,0,0,0,0,0,0,0,0,0,0,0,-0.015625,0,0,0.023622,0.015748,0,1087

22525,0,0,0,0,0,0,0,0,0,0,0,0,0,-0.015625,0,0,0.023622,0.015748,0,1088

22545,0,0,0,0,0,0,0,0,0,0,0,0,0,-0.015625,0,0,0.023622,0.015748,0,1089

22565,0,0,0,0,0,0,0,0,0,0,0,0,0,-0.015625,0,0,0.023622,0.015748,0,1090

22585,0,0,0,0,0,0,0,0,0,0,0,0,0,-0.015625,0,0,0.023622,0.015748,0,1091

22605,0,0,0,0,0,0,0,0,0,0,0,0,0,-0.015625,0,0,0.023622,0.015748,0,1092

22625,0,0,0,0,0,0,0,0,0,0,0,0,0,-0.015625,0,0,0.023622,0.015748,0,1093

22645,0,0,0,0,0,0,0,0,0,0,0,0,0,-0.015625,0,0,0.023622,0.015748,0,1094

22665,0,0,0,0,0,0,0,0,0,0,0,0,0,-0.015625,0,0,0.023622,0.015748,0,1095

22685,0,0,0,0,0,0,0,0,0,0,0,0,0,-0.015625,0,0,0.023622,0.015748,0,1096

22705,0,0,0,0,0,0,0,0,0,0,0,0,0,-0.015625,0,0,0.023622,0.015748,0,1097

22725,0,0,0,0,0,0,0,0,0,0,0,0,0,-0.015625,0,0,0.023622,0.015748,0,1098

22745,0,0,0,0,0,0,0,0,0,0,0,0,0,-0.015625,0,0,0.023622,0.015748,0,1099

22765,0,0,0,0,0,0,0,0,0,0,0,0,0,-0.015625,0,0,0.023622,0.015748,0,1100

22785,0,0,0,0,0,0,0,0,0,0,0,0,0,-0.015625,0,0,0.023622,0.015748,0,1101

22805,0,0,0,0,0,0,0,0,0,0,0,0,0,-0.015625,0,0,0.023622,0.015748,0,1102

22825,0,0,0,0,0,0,0,0,0,0,0,0,0,-0.015625,0,0,0.023622,0.015748,0,1103

22845,0,0,0,0,0,0,0,0,0,0,0,0,0,-0.015625,0,0,0.023622,0.015748,0,1104

22865,0,0,0,0,0,0,0,0,0,0,0,0,0,-0.015625,0,0,0.023622,0.015748,0,1105

22885,0,0,0,0,0,0,0,0,0,0,0,0,0,-0.015625,0,0,0.023622,0.015748,0,1106

22905,0,0,0,0,0,0,0,0,0,0,0,0,0,-0.015625,0,0,0.023622,0.015748,0,1107

22925,0,0,0,0,0,0,0,0,0,0,0,0,0,-0.015625,0,0,0.023622,0.015748,0,1108

22945,0,0,0,0,0,0,0,0,0,0,0,0,0,-0.015625,0,0,0.023622,0.015748,0,1109

22965,0,0,0,0,0,0,0,0,0,0,0,0,0,-0.015625,0,0,0.023622,0.015748,0,1110

22985,0,0,0,0,0,0,0,0,0,0,0,0,0,-0.015625,0,0,0.023622,0.015748,0,1111

23005,0,0,0,0,0,0,0,0,0,0,0,0,0,-0.015625,0,0,0.023622,0.015748,0,1112

23025,0,0,0,0,0,0,0,0,0,0,0,0,0,-0.015625,0,0,0.023622,0.015748,0,1113

23045,0,0,0,0,0,0,0,0,0,0,0,0,0,-0.015625,0,0,0.023622,0.015748,0,1114

23065,0,0,0,0,0,0,0,0,0,0,0,0,0,-0.015625,0,0,0.023622,0.015748,0,1115

23085,0,0,0,0,0,0,0,0,0,0,0,0,0,-0.015625,0,0,0.023622,0.015748,0,1116

23105,0,0,0,0,0,0,0,0,0,0,0,0,0,-0.015625,0,0,0.023622,0.015748,0,1117

23125,0,0,0,0,0,0,0,0,0,0,0,0,0,-0.015625,0,0,0.023622,0.015748,0,1118

23145,0,0,0,0,0,0,0,0,0,0,0,0,0,-0.015625,0,0,0.023622,0.015748,0,1119

23165,0,0,0,0,0,0,0,0,0,0,0,0,0,-0.015625,0,0,0.023622,0.015748,0,1120

23185,0,0,0,0,0,0,0,0,0,0,0,0,0,-0.015625,0,0,0.023622,0.015748,0,1121

23205,0,0,0,0,0,0,0,0,0,0,0,0,0,-0.015625,0,0,0.023622,0.015748,0,1122

23225,0,0,0,0,0,0,0,0,0,0,0,0,0,-0.015625,0,0,0.023622,0.015748,0,1123

23245,0,0,0,0,0,0,0,0,0,0,0,0,0,-0.015625,0,0,0.023622,0.015748,0,1124

23265,0,0,0,0,0,0,0,0,0,0,0,0,0,-0.015625,0,0,0.023622,0.015748,0,1125

23285,0,0,0,0,0,0,0,0,0,0,0,0,0,-0.015625,0,0,0.023622,0.015748,0,1126

23305,0,0,0,0,0,0,0,0,0,0,0,0,0,-0.015625,0,0,0.023622,0.015748,0,1127

23325,0,0,0,0,0,0,0,0,0,0,0,0,0,-0.015625,0,0,0.023622,0.015748,0,1128

23345,0,0,0,0,0,0,0,0,0,0,0,0,0,-0.015625,0,0,0.023622,0.015748,0,1129

23365,0,0,0,0,0,0,0,0,0,0,0,0,0,-0.015625,0,0,0.023622,0.015748,0,1130

23385,0,0,0,0,0,0,0,0,0,0,0,0,0,-0.015625,0,0,0.023622,0.015748,0,1131

23405,0,0,0,0,0,0,0,0,0,0,0,0,0,-0.015625,0,0,0.023622,0.015748,0,1132

23425,0,0,0,0,0,0,0,0,0,0,0,0,0,-0.015625,0,0,0.023622,0.015748,0,1133

23445,0,0,0,0,0,0,0,0,0,0,0,0,0,-0.015625,0,0,0.023622,0.015748,0,1134

23465,0,0,0,0,0,0,0,0,0,0,0,0,0,-0.015625,0,0,0.023622,0.015748,0,1135

23485,0,0,0,0,0,0,0,0,0,0,0,0,0,-0.015625,0,0,0.023622,0.015748,0,1136

23505,0,0,0,0,0,0,0,0,0,0,0,0,0,-0.015625,0,0,0.023622,0.015748,0,1137

23525,0,0,0,0,0,0,0,0,0,0,0,0,0,-0.015625,0,0,0.023622,0.015748,0,1138

23545,0,0,0,0,0,0,0,0,0,0,0,0,0,-0.015625,0,0,0.023622,0.015748,0,1139

23565,0,0,0,0,0,0,0,0,0,0,0,0,0,-0.015625,0,0,0.023622,0.015748,0,1140

23585,0,0,0,0,0,0,0,0,0,0,0,0,0,-0.015625,0,0,0.023622,0.015748,0,1141

23605,0,0,0,0,0,0,0,0,0,0,0,0,0,-0.015625,0,0,0.023622,0.015748,0,1142

23625,0,0,0,0,0,0,0,0,0,0,0,0,0,-0.015625,0,0,0.023622,0.015748,0,1143

23645,0,0,0,0,0,0,0,0,0,0,0,0,0,-0.015625,0,0,0.023622,0.015748,0,1144

23665,0,0,0,0,0,0,0,0,0,0,0,0,0,-0.015625,0,0,0.023622,0.015748,0,1145

23685,0,0,0,0,0,0,0,0,0,0,0,0,0,-0.015625,0,0,0.023622,0.015748,0,1146

23705,0,0,0,0,0,0,0,0,0,0,0,0,0,-0.015625,0,0,0.023622,0.015748,0,1147

23725,0,0,0,0,0,0,0,0,0,0,0,0,0,-0.015625,0,0,0.023622,0.015748,0,1148

23745,0,0,0,0,0,0,0,0,0,0,0,0,0,-0.015625,0,0,0.023622,0.015748,0,1149

23765,0,0,0,0,0,0,0,0,0,0,0,0,0,-0.015625,0,0,0.023622,0.015748,0,1150

23785,0,0,0,0,0,0,0,0,0,0,0,0,0,-0.015625,0,0,0.023622,0.015748,0,1151

23805,0,0,0,0,0,0,0,0,0,0,0,0,0,-0.015625,0,0,0.023622,0.015748,0,1152

23825,0,0,0,0,0,0,0,0,0,0,0,0,0,-0.015625,0,0,0.023622,0.015748,0,1153

23845,0,0,0,0,0,0,0,0,0,0,0,0,0,-0.015625,0,0,0.023622,0.015748,0,1154

23865,0,0,0,0,0,0,0,0,0,0,0,0,0,-0.015625,0,0,0.023622,0.015748,0,1155

23885,0,0,0,0,0,0,0,0,0,0,0,0,0,-0.015625,0,0,0.023622,0.015748,0,1156

23905,0,0,0,0,0,0,0,0,0,0,0,0,0,-0.015625,0,0,0.023622,0.015748,0,1157

23925,0,0,0,0,0,0,0,0,0,0,0,0,0,-0.015625,0,0,0.023622,0.015748,0,1158

23945,0,0,0,0,0,0,0,0,0,0,0,0,0,-0.015625,0,0,0.023622,0.015748,0,1159

23965,0,0,0,0,0,0,0,0,0,0,0,0,0,-0.015625,0,0,0.023622,0.015748,0,1160

23985,0,0,0,0,0,0,0,0,0,0,0,0,0,-0.015625,0,0,0.023622,0.015748,0,1161

24005,0,0,0,0,0,0,0,0,0,0,0,0,0,-0.015625,0,0,0.023622,0.015748,0,1162

24025,0,0,0,0,0,0,0,0,0,0,0,0,0,-0.015625,0,0,0.023622,0.015748,0,1163

24045,0,0,0,0,0,0,0,0,0,0,0,0,0,-0.015625,0,0,0.023622,0.015748,0,1164

24065,0,0,0,0,0,0,0,0,0,0,0,0,0,-0.015625,0,0,0.023622,0.015748,0,1165

24085,0,0,0,0,0,0,0,0,0,0,0,0,0,-0.015625,0,0,0.023622,0.015748,0,1166

24105,0,0,0,0,0,0,0,0,0,0,0,0,0,-0.015625,0,0,0.023622,0.015748,0,1167

24125,0,0,0,0,0,0,0,0,0,0,0,0,0,-0.015625,0,0,0.023622,0.015748,0,1168

24145,0,0,0,0,0,0,0,0,0,0,0,0,0,-0.015625,0,0,0.023622,0.015748,0,1169

24165,0,0,0,0,0,0,0,0,0,0,0,0,0,-0.015625,0,0,0.023622,0.015748,0,1170

24185,0,0,0,0,0,0,0,0,0,0,0,0,0,-0.015625,0,0,0.023622,0.015748,0,1171

24205,0,0,0,0,0,0,0,0,0,0,0,0,0,-0.015625,0,0,0.023622,0.015748,0,1172

24225,0,0,0,0,0,0,0,0,0,0,0,0,0,-0.015625,0,0,0.023622,0.015748,0,1173

24245,0,0,0,0,0,0,0,0,0,0,0,0,0,-0.015625,0,0,0.023622,0.015748,0,1174

24265,0,0,0,0,0,0,0,0,0,0,0,0,0,-0.015625,0,0,0.023622,0.015748,0,1175

24285,0,0,0,0,0,0,0,0,0,0,0,0,0,-0.015625,0,0,0.023622,0.015748,0,1176

24305,0,0,0,0,0,0,0,0,0,0,0,0,0,-0.015625,0,0,0.023622,0.015748,0,1177

24325,0,0,0,0,0,0,0,0,0,0,0,0,0,-0.015625,0,0,0.023622,0.015748,0,1178

24345,0,0,0,0,0,0,0,0,0,0,0,0,0,-0.015625,0,0,0.023622,0.015748,0,1179

24365,0,0,0,0,0,0,0,0,0,0,0,0,0,-0.015625,0,0,0.023622,0.015748,0,1180

24385,0,0,0,0,0,0,0,0,0,0,0,0,0,-0.015625,0,0,0.023622,0.015748,0,1181

24405,0,0,0,0,0,0,0,0,0,0,0,0,0,-0.015625,0,0,0.023622,0.015748,0,1182

24425,0,0,0,0,0,0,0,0,0,0,0,0,0,-0.015625,0,0,0.023622,0.015748,0,1183

24445,0,0,0,0,0,0,0,0,0,0,0,0,0,-0.015625,0,0,0.023622,0.015748,0,1184

24465,0,0,0,0,0,0,0,0,0,0,0,0,0,-0.015625,0,0,0.023622,0.015748,0,1185

24485,0,0,0,0,0,0,0,0,0,0,0,0,0,-0.015625,0,0,0.023622,0.015748,0,1186

24505,0,0,0,0,0,0,0,0,0,0,0,0,0,-0.015625,0,0,0.023622,0.015748,0,1187

24525,0,0,0,0,0,0,0,0,0,0,0,0,0,-0.015625,0,0,0.023622,0.015748,0,1188

24545,0,0,0,0,0,0,0,0,0,0,0,0,0,-0.015625,0,0,0.023622,0.015748,0,1189

24565,0,0,0,0,0,0,0,0,0,0,0,0,0,-0.015625,0,0,0.023622,0.015748,0,1190

24585,0,0,0,0,0,0,0,0,0,0,0,0,0,-0.015625,0,0,0.023622,0.015748,0,1191

24605,0,0,0,0,0,0,0,0,0,0,0,0,0,-0.015625,0,0,0.023622,0.015748,0,1192

24625,0,0,0,0,0,0,0,0,0,0,0,0,0,-0.015625,0,0,0.023622,0.015748,0,1193

24645,0,0,0,0,0,0,0,0,0,0,0,0,0,-0.015625,0,0,0.023622,0.015748,0,1194

24665,0,0,0,0,0,0,0,0,0,0,0,0,0,-0.015625,0,0,0.023622,0.015748,0,1195

24685,0,0,0,0,0,0,0,0,0,0,0,0,0,-0.015625,0,0,0.023622,0.015748,0,1196

24705,0,0,0,0,0,0,0,0,0,0,0,0,0,-0.015625,0,0,0.023622,0.015748,0,1197

24725,0,0,0,0,0,0,0,0,0,0,0,0,0,-0.015625,0,0,0.023622,0.015748,0,1198

24745,0,0,0,0,0,0,0,0,0,0,0,0,0,-0.015625,0,0,0.023622,0.015748,0,1199

24765,0,0,0,0,0,0,0,0,0,0,0,0,0,-0.015625,0,0,0.023622,0.015748,0,1200

24785,0,0,0,0,0,0,0,0,0,0,0,0,0,-0.015625,0,0,0.023622,0.015748,0,1201

24805,0,0,0,0,0,0,0,0,0,0,0,0,0,-0.015625,0,0,0.023622,0.015748,0,1202

24825,0,0,0,0,0,0,0,0,0,0,0,0,0,-0.015625,0,0,0.023622,0.015748,0,1203

24845,0,0,0,0,0,0,0,0,0,0,0,0,0,-0.015625,0,0,0.023622,0.015748,0,1204

24865,0,0,0,0,0,0,0,0,0,0,0,0,0,-0.015625,0,0,0.023622,0.015748,0,1205

24885,0,0,0,0,0,0,0,0,0,0,0,0,0,-0.015625,0,0,0.023622,0.015748,0,1206

24905,0,0,0,0,0,0,0,0,0,0,0,0,0,-0.015625,0,0,0.023622,0.015748,0,1207

24925,0,0,0,0,0,0,0,0,0,0,0,0,0,-0.015625,0,0,0.023622,0.015748,0,1208

24945,0,0,0,0,0,0,0,0,0,0,0,0,0,-0.015625,0,0,0.023622,0.015748,0,1209

24965,0,0,0,0,0,0,0,0,0,0,0,0,0,-0.015625,0,0,0.023622,0.015748,0,1210

24985,0,0,0,0,0,0,0,0,0,0,0,0,0,-0.015625,0,0,0.023622,0.015748,0,1211

25005,0,0,0,0,0,0,0,0,0,0,0,0,0,-0.015625,0,0,0.023622,0.015748,0,1212

25025,0,0,0,0,0,0,0,0,0,0,0,0,0,-0.015625,0,0,0.023622,0.015748,0,1213

25045,0,0,0,0,0,0,0,0,0,0,0,0,0,-0.015625,0,0,0.023622,0.015748,0,1214

25065,0,0,0,0,0,0,0,0,0,0,0,0,0,-0.015625,0,0,0.023622,0.015748,0,1215

25085,0,0,0,0,0,0,0,0,0,0,0,0,0,-0.015625,0,0,0.023622,0.015748,0,1216

25105,0,0,0,0,0,0,0,0,0,0,0,0,0,-0.015625,0,0,0.023622,0.015748,0,1217

25125,0,0,0,0,0,0,0,0,0,0,0,0,0,-0.015625,0,0,0.023622,0.015748,0,1218

25145,0,0,0,0,0,0,0,0,0,0,0,0,0,-0.015625,0,0,0.023622,0.015748,0,1219

25165,0,0,0,0,0,0,0,0,0,0,0,0,0,-0.015625,0,0,0.023622,0.015748,0,1220

25185,0,0,0,0,0,0,0,0,0,0,0,0,0,-0.015625,0,0,0.023622,0.015748,0,1221

25205,0,0,0,0,0,0,0,0,0,0,0,0,0,-0.015625,0,0,0.023622,0.015748,0,1222

25225,0,0,0,0,0,0,0,0,0,0,0,0,0,-0.015625,0,0,0.023622,0.015748,0,1223

25245,0,0,0,0,0,0,0,0,0,0,0,0,0,-0.015625,0,0,0.023622,0.015748,0,1224

25265,0,0,0,0,0,0,0,0,0,0,0,0,0,-0.015625,0,0,0.023622,0.015748,0,1225

25285,0,0,0,0,0,0,0,0,0,0,0,0,0,-0.015625,0,0,0.023622,0.015748,0,1226

25305,0,0,0,0,0,0,0,0,0,0,0,0,0,-0.015625,0,0,0.023622,0.015748,0,1227

25325,0,0,0,0,0,0,0,0,0,0,0,0,0,-0.015625,0,0,0.023622,0.015748,0,1228

25345,0,0,0,0,0,0,0,0,0,0,0,0,0,-0.015625,0,0,0.023622,0.015748,0,1229

25365,0,0,0,0,0,0,0,0,0,0,0,0,0,-0.015625,0,0,0.023622,0.015748,0,1230

25385,0,0,0,0,0,0,0,0,0,0,0,0,0,-0.015625,0,0,0.023622,0.015748,0,1231

25405,0,0,0,0,0,0,0,0,0,0,0,0,0,-0.015625,0,0,0.023622,0.015748,0,1232

25425,0,0,0,0,0,0,0,0,0,0,0,0,0,-0.015625,0,0,0.023622,0.015748,0,1233

25445,0,0,0,0,0,0,0,0,0,0,0,0,0,-0.015625,0,0,0.023622,0.015748,0,1234

25465,0,0,0,0,0,0,0,0,0,0,0,0,0,-0.015625,0,0,0.023622,0.015748,0,1235

25485,0,0,0,0,0,0,0,0,0,0,0,0,0,-0.015625,0,0,0.023622,0.015748,0,1236

25505,0,0,0,0,0,0,0,0,0,0,0,0,0,-0.015625,0,0,0.023622,0.015748,0,1237

25525,0,0,0,0,0,0,0,0,0,0,0,0,0,-0.015625,0,0,0.023622,0.015748,0,1238

25545,0,0,0,0,0,0,0,0,0,0,0,0,0,-0.015625,0,0,0.023622,0.015748,0,1239

25565,0,0,0,0,0,0,0,0,0,0,0,0,0,-0.015625,0,0,0.023622,0.015748,0,1240

25585,0,0,0,0,0,0,0,0,0,0,0,0,0,-0.015625,0,0,0.023622,0.015748,0,1241

25605,0,0,0,0,0,0,0,0,0,0,0,0,0,-0.015625,0,0,0.023622,0.015748,0,1242

25625,0,0,0,0,0,0,0,0,0,0,0,0,0,-0.015625,0,0,0.023622,0.015748,0,1243

25645,0,0,0,0,0,0,0,0,0,0,0,0,0,-0.015625,0,0,0.023622,0.015748,0,1244

25665,0,0,0,0,0,0,0,0,0,0,0,0,0,-0.015625,0,0,0.023622,0.015748,0,1245

25685,0,0,0,0,0,0,0,0,0,0,0,0,0,-0.015625,0,0,0.023622,0.015748,0,1246

25705,0,0,0,0,0,0,0,0,0,0,0,0,0,-0.015625,0,0,0.023622,0.015748,0,1247

25725,0,0,0,0,0,0,0,0,0,0,0,0,0,-0.015625,0,0,0.023622,0.015748,0,1248

25745,0,0,0,0,0,0,0,0,0,0,0,0,0,-0.015625,0,0,0.023622,0.015748,0,1249

25765,0,0,0,0,0,0,0,0,0,0,0,0,0,-0.015625,0,0,0.023622,0.015748,0,1250

25785,0,0,0,0,0,0,0,0,0,0,0,0,0,-0.015625,0,0,0.023622,0.015748,0,1251

25805,0,0,0,0,0,0,0,0,0,0,0,0,0,-0.015625,0,0,0.023622,0.015748,0,1252

25825,0,0,0,0,0,0,0,0,0,0,0,0,0,-0.015625,0,0,0.023622,0.015748,0,1253

25845,0,0,0,0,0,0,0,0,0,0,0,0,0,-0.015625,0,0,0.023622,0.015748,0,1254

25865,0,0,0,0,0,0,0,0,0,0,0,0,0,-0.015625,0,0,0.023622,0.015748,0,1255

25885,0,0,0,0,0,0,0,0,0,0,0,0,0,-0.015625,0,0,0.023622,0.015748,0,1256

25905,0,0,0,0,0,0,0,0,0,0,0,0,0,-0.015625,0,0,0.023622,0.015748,0,1257

25925,0,0,0,0,0,0,0,0,0,0,0,0,0,-0.015625,0,0,0.023622,0.015748,0,1258

25945,0,0,0,0,0,0,0,0,0,0,0,0,0,-0.015625,0,0,0.023622,0.015748,0,1259

25965,0,0,0,0,0,0,0,0,0,0,0,0,0,-0.015625,0,0,0.023622,0.015748,0,1260

25985,0,0,0,0,0,0,0,0,0,0,0,0,0,-0.015625,0,0,0.023622,0.015748,0,1261

26005,0,0,0,0,0,0,0,0,0,0,0,0,0,-0.015625,0,0,0.023622,0.015748,0,1262

26025,0,0,0,0,0,0,0,0,0,0,0,0,0,-0.015625,0,0,0.023622,0.015748,0,1263

26045,0,0,0,0,0,0,0,0,0,0,0,0,0,-0.015625,0,0,0.023622,0.015748,0,1264

26065,0,0,0,0,0,0,0,0,0,0,0,0,0,-0.015625,0,0,0.023622,0.015748,0,1265

26085,0,0,0,0,0,0,0,0,0,0,0,0,0,-0.015625,0,0,0.023622,0.015748,0,1266

26105,0,0,0,0,0,0,0,0,0,0,0,0,0,-0.015625,0,0,0.023622,0.015748,0,1267

26125,0,0,0,0,0,0,0,0,0,0,0,0,0,-0.015625,0,0,0.023622,0.015748,0,1268

26145,0,0,0,0,0,0,0,0,0,0,0,0,0,-0.015625,0,0,0.023622,0.015748,0,1269

26165,0,0,0,0,0,0,0,0,0,0,0,0,0,-0.015625,0,0,0.023622,0.015748,0,1270

26185,0,0,0,0,0,0,0,0,0,0,0,0,0,-0.015625,0,0,0.023622,0.015748,0,1271

26205,0,0,0,0,0,0,0,0,0,0,0,0,0,-0.015625,0,0,0.023622,0.015748,0,1272

26225,0,0,0,0,0,0,0,0,0,0,0,0,0,-0.015625,0,0,0.023622,0.015748,0,1273

26245,0,0,0,0,0,0,0,0,0,0,0,0,0,-0.015625,0,0,0.023622,0.015748,0,1274

26265,0,0,0,0,0,0,0,0,0,0,0,0,0,-0.015625,0,0,0.023622,0.015748,0,1275

26285,0,0,0,0,0,0,0,0,0,0,0,0,0,-0.015625,0,0,0.023622,0.015748,0,1276

26305,0,0,0,0,0,0,0,0,0,0,0,0,0,-0.015625,0,0,0.023622,0.015748,0,1277

26325,0,0,0,0,0,0,0,0,0,0,0,0,0,-0.015625,0,0,0.023622,0.015748,0,1278

26345,0,0,0,0,0,0,0,0,0,0,0,0,0,-0.015625,0,0,0.023622,0.015748,0,1279

26365,0,0,0,0,0,0,0,0,0,0,0,0,0,-0.015625,0,0,0.023622,0.015748,0,1280

26385,0,0,0,0,0,0,0,0,0,0,0,0,0,-0.015625,0,0,0.023622,0.015748,0,1281

26405,0,0,0,0,0,0,0,0,0,0,0,0,0,-0.015625,0,0,0.023622,0.015748,0,1282

26425,0,0,0,0,0,0,0,0,0,0,0,0,0,-0.015625,0,0,0.023622,0.015748,0,1283

26445,0,0,0,0,0,0,0,0,0,0,0,0,0,-0.015625,0,0,0.023622,0.015748,0,1284

26465,0,0,0,0,0,0,0,0,0,0,0,0,0,-0.015625,0,0,0.023622,0.015748,0,1285

26485,0,0,0,0,0,0,0,0,0,0,0,0,0,-0.015625,0,0,0.023622,0.015748,0,1286

26505,0,0,0,0,0,0,0,0,0,0,0,0,0,-0.015625,0,0,0.023622,0.015748,0,1287

26525,0,0,0,0,0,0,0,0,0,0,0,0,0,-0.015625,0,0,0.023622,0.015748,0,1288

26545,0,0,0,0,0,0,0,0,0,0,0,0,0,-0.015625,0,0,0.023622,0.015748,0,1289

26565,0,0,0,0,0,0,0,0,0,0,0,0,0,-0.015625,0,0,0.023622,0.015748,0,1290

26585,0,0,0,0,0,0,0,0,0,0,0,0,0,-0.015625,0,0,0.023622,0.015748,0,1291

26605,0,0,0,0,0,0,0,0,0,0,0,0,0,-0.015625,0,0,0.023622,0.015748,0,1292

26625,0,0,0,0,0,0,0,0,0,0,0,0,0,-0.015625,0,0,0.023622,0.015748,0,1293

26645,0,0,0,0,0,0,0,0,0,0,0,0,0,-0.015625,0,0,0.023622,0.015748,0,1294

26665,0,0,0,0,0,0,0,0,0,0,0,0,0,-0.015625,0,0,0.023622,0.015748,0,1295

26685,0,0,0,0,0,0,0,0,0,0,0,0,0,-0.015625,0,0,0.023622,0.015748,0,1296

26705,0,0,0,0,0,0,0,0,0,0,0,0,0,-0.015625,0,0,0.023622,0.015748,0,1297

26725,0,0,0,0,0,0,0,0,0,0,0,0,0,-0.015625,0,0,0.023622,0.015748,0,1298

26745,0,0,0,0,0,0,0,0,0,0,0,0,0,-0.015625,0,0,0.023622,0.015748,0,1299

26765,0,0,0,0,0,0,0,0,0,0,0,0,0,-0.015625,0,0,0.023622,0.015748,0,1300

26785,0,0,0,0,0,0,0,0,0,0,0,0,0,-0.015625,0,0,0.023622,0.015748,0,1301

26805,0,0,0,0,0,0,0,0,0,0,0,0,0,-0.015625,0,0,0.023622,0.015748,0,1302

26825,0,0,0,0,0,0,0,0,0,0,0,0,0,-0.015625,0,0,0.023622,0.015748,0,1303

26845,0,0,0,0,0,0,0,0,0,0,0,0,0,-0.015625,0,0,0.023622,0.015748,0,1304

26865,0,0,0,0,0,0,0,0,0,0,0,0,0,-0.015625,0,0,0.023622,0.015748,0,1305

26885,0,0,0,0,0,0,0,0,0,0,0,0,0,-0.015625,0,0,0.023622,0.015748,0,1306

26905,0,0,0,0,0,0,0,0,0,0,0,0,0,-0.015625,0,0,0.023622,0.015748,0,1307

26925,0,0,0,0,0,0,0,0,0,0,0,0,0,-0.015625,0,0,0.023622,0.015748,0,1308

26945,0,0,0,0,0,0,0,0,0,0,0,0,0,-0.015625,0,0,0.023622,0.015748,0,1309

26965,0,0,0,0,0,0,0,0,0,0,0,0,0,-0.015625,0,0,0.023622,0.015748,0,1310

26985,0,0,0,0,0,0,0,0,0,0,0,0,0,-0.015625,0,0,0.023622,0.015748,0,1311

27005,0,0,0,0,0,0,0,0,0,0,0,0,0,-0.015625,0,0,0.023622,0.015748,0,1312

27025,0,0,0,0,0,0,0,0,0,0,0,0,0,-0.015625,0,0,0.023622,0.015748,0,1313

27045,0,0,0,0,0,0,0,0,0,0,0,0,0,-0.015625,0,0,0.023622,0.015748,0,1314

27065,0,0,0,0,0,0,0,0,0,0,0,0,0,-0.015625,0,0,0.023622,0.015748,0,1315

27085,0,0,0,0,0,0,0,0,0,0,0,0,0,-0.015625,0,0,0.023622,0.015748,0,1316

27105,0,0,0,0,0,0,0,0,0,0,0,0,0,-0.015625,0,0,0.023622,0.015748,0,1317

27125,0,0,0,0,0,0,0,0,0,0,0,0,0,-0.015625,0,0,0.023622,0.015748,0,1318

27145,0,0,0,0,0,0,0,0,0,0,0,0,0,-0.015625,0,0,0.023622,0.015748,0,1319

27165,0,0,0,0,0,0,0,0,0,0,0,0,0,-0.015625,0,0,0.023622,0.015748,0,1320

27185,0,0,0,0,0,0,0,0,0,0,0,0,0,-0.015625,0,0,0.023622,0.015748,0,1321

27205,0,0,0,0,0,0,0,0,0,0,0,0,0,-0.015625,0,0,0.023622,0.015748,0,1322

27225,0,0,0,0,0,0,0,0,0,0,0,0,0,-0.015625,0,0,0.023622,0.015748,0,1323

27245,0,0,0,0,0,0,0,0,0,0,0,0,0,-0.015625,0,0,0.023622,0.015748,0,1324

27265,0,0,0,0,0,0,0,0,0,0,0,0,0,-0.015625,0,0,0.023622,0.015748,0,1325

27285,0,0,0,0,0,0,0,0,0,0,0,0,0,-0.015625,0,0,0.023622,0.015748,0,1326

27305,0,0,0,0,0,0,0,0,0,0,0,0,0,-0.015625,0,0,0.023622,0.015748,0,1327

27325,0,0,0,0,0,0,0,0,0,0,0,0,0,-0.015625,0,0,0.023622,0.015748,0,1328

27345,0,0,0,0,0,0,0,0,0,0,0,0,0,-0.015625,0,0,0.023622,0.015748,0,1329

27365,0,0,0,0,0,0,0,0,0,0,0,0,0,-0.015625,0,0,0.023622,0.015748,0,1330

27385,0,0,0,0,0,0,0,0,0,0,0,0,0,-0.015625,0,0,0.023622,0.015748,0,1331

27405,0,0,0,0,0,0,0,0,0,0,0,0,0,-0.015625,0,0,0.023622,0.015748,0,1332

27425,0,0,0,0,0,0,0,0,0,0,0,0,0,-0.015625,0,0,0.023622,0.015748,0,1333

27445,0,0,0,0,0,0,0,0,0,0,0,0,0,-0.015625,0,0,0.023622,0.015748,0,1334

27465,0,0,0,0,0,0,0,0,0,0,0,0,0,-0.015625,0,0,0.023622,0.015748,0,1335

27485,0,0,0,0,0,0,0,0,0,0,0,0,0,-0.015625,0,0,0.023622,0.015748,0,1336

27505,0,0,0,0,0,0,0,0,0,0,0,0,0,-0.015625,0,0,0.023622,0.015748,0,1337

27525,0,0,0,0,0,0,0,0,0,0,0,0,0,-0.015625,0,0,0.023622,0.015748,0,1338

27545,0,0,0,0,0,0,0,0,0,0,0,0,0,-0.015625,0,0,0.023622,0.015748,0,1339

27565,0,0,0,0,0,0,0,0,0,0,0,0,0,-0.015625,0,0,0.023622,0.015748,0,1340

27585,0,0,0,0,0,0,0,0,0,0,0,0,0,-0.015625,0,0,0.023622,0.015748,0,1341

27605,0,0,0,0,0,0,0,0,0,0,0,0,0,-0.015625,0,0,0.023622,0.015748,0,1342

27625,0,0,0,0,0,0,0,0,0,0,0,0,0,-0.015625,0,0,0.023622,0.015748,0,1343

27645,0,0,0,0,0,0,0,0,0,0,0,0,0,-0.015625,0,0,0.023622,0.015748,0,1344

27665,0,0,0,0,0,0,0,0,0,0,0,0,0,-0.015625,0,0,0.023622,0.015748,0,1345

27685,0,0,0,0,0,0,0,0,0,0,0,0,0,-0.015625,0,0,0.023622,0.015748,0,1346

27705,0,0,0,0,0,0,0,0,0,0,0,0,0,-0.015625,0,0,0.023622,0.015748,0,1347

27725,0,0,0,0,0,0,0,0,0,0,0,0,0,-0.015625,0,0,0.023622,0.015748,0,1348

27745,0,0,0,0,0,0,0,0,0,0,0,0,0,-0.015625,0,0,0.023622,0.015748,0,1349

27765,0,0,0,0,0,0,0,0,0,0,0,0,0,-0.015625,0,0,0.023622,0.015748,0,1350

27785,0,0,0,0,0,0,0,0,0,0,0,0,0,-0.015625,0,0,0.023622,0.015748,0,1351

27805,0,0,0,0,0,0,0,0,0,0,0,0,0,-0.015625,0,0,0.023622,0.015748,0,1352

27825,0,0,0,0,0,0,0,0,0,0,0,0,0,-0.015625,0,0,0.023622,0.015748,0,1353

27845,0,0,0,0,0,0,0,0,0,0,0,0,0,-0.015625,0,0,0.023622,0.015748,0,1354

27865,0,0,0,0,0,0,0,0,0,0,0,0,0,-0.015625,0,0,0.023622,0.015748,0,1355

27885,0,0,0,0,0,0,0,0,0,0,0,0,0,-0.015625,0,0,0.023622,0.015748,0,1356

27905,0,0,0,0,0,0,0,0,0,0,0,0,0,-0.015625,0,0,0.023622,0.015748,0,1357

27925,0,0,0,0,0,0,0,0,0,0,0,0,0,-0.015625,0,0,0.023622,0.015748,0,1358

27945,0,0,0,0,0,0,0,0,0,0,0,0,0,-0.015625,0,0,0.023622,0.015748,0,1359

27965,0,0,0,0,0,0,0,0,0,0,0,0,0,-0.015625,0,0,0.023622,0.015748,0,1360

27985,0,0,0,0,0,0,0,0,0,0,0,0,0,-0.015625,0,0,0.023622,0.015748,0,1361

28005,0,0,0,0,0,0,0,0,0,0,0,0,0,-0.015625,0,0,0.023622,0.015748,0,1362

28025,0,0,0,0,0,0,0,0,0,0,0,0,0,-0.015625,0,0,0.023622,0.015748,0,1363

28045,0,0,0,0,0,0,0,0,0,0,0,0,0,-0.015625,0,0,0.023622,0.015748,0,1364

28065,0,0,0,0,0,0,0,0,0,0,0,0,0,-0.015625,0,0,0.023622,0.015748,0,1365

28085,0,0,0,0,0,0,0,0,0,0,0,0,0,-0.015625,0,0,0.023622,0.015748,0,1366

28105,0,0,0,0,0,0,0,0,0,0,0,0,0,-0.015625,0,0,0.023622,0.015748,0,1367

28125,0,0,0,0,0,0,0,0,0,0,0,0,0,-0.015625,0,0,0.023622,0.015748,0,1368

28145,0,0,0,0,0,0,0,0,0,0,0,0,0,-0.015625,0,0,0.023622,0.015748,0,1369

28165,0,0,0,0,0,0,0,0,0,0,0,0,0,-0.015625,0,0,0.023622,0.015748,0,1370

28185,0,0,0,0,0,0,0,0,0,0,0,0,0,-0.015625,0,0,0.023622,0.015748,0,1371

28205,0,0,0,0,0,0,0,0,0,0,0,0,0,-0.015625,0,0,0.023622,0.015748,0,1372

28225,0,0,0,0,0,0,0,0,0,0,0,0,0,-0.015625,0,0,0.023622,0.015748,0,1373

28245,0,0,0,0,0,0,0,0,0,0,0,0,0,-0.015625,0,0,0.023622,0.015748,0,1374

28265,0,0,0,0,0,0,0,0,0,0,0,0,0,-0.015625,0,0,0.023622,0.015748,0,1375

28285,0,0,0,0,0,0,0,0,0,0,0,0,0,-0.015625,0,0,0.023622,0.015748,0,1376

28305,0,0,0,0,0,0,0,0,0,0,0,0,0,-0.015625,0,0,0.023622,0.015748,0,1377

28325,0,0,0,0,0,0,0,0,0,0,0,0,0,-0.015625,0,0,0.023622,0.015748,0,1378

28345,0,0,0,0,0,0,0,0,0,0,0,0,0,-0.015625,0,0,0.023622,0.015748,0,1379

28365,0,0,0,0,0,0,0,0,0,0,0,0,0,-0.015625,0,0,0.023622,0.015748,0,1380

28385,0,0,0,0,0,0,0,0,0,0,0,0,0,-0.015625,0,0,0.023622,0.015748,0,1381

28405,0,0,0,0,0,0,0,0,0,0,0,0,0,-0.015625,0,0,0.023622,0.015748,0,1382

28425,0,0,0,0,0,0,0,0,0,0,0,0,0,-0.015625,0,0,0.023622,0.015748,0,1383

28445,0,0,0,0,0,0,0,0,0,0,0,0,0,-0.015625,0,0,0.023622,0.015748,0,1384

28465,0,0,0,0,0,0,0,0,0,0,0,0,0,-0.015625,0,0,0.023622,0.015748,0,1385

28485,0,0,0,0,0,0,0,0,0,0,0,0,0,-0.015625,0,0,0.023622,0.015748,0,1386

28505,0,0,0,0,0,0,0,0,0,0,0,0,0,-0.015625,0,0,0.023622,0.015748,0,1387

28525,0,0,0,0,0,0,0,0,0,0,0,0,0,-0.015625,0,0,0.023622,0.015748,0,1388

28545,0,0,0,0,0,0,0,0,0,0,0,0,0,-0.015625,0,0,0.023622,0.015748,0,1389

28565,0,0,0,0,0,0,0,0,0,0,0,0,0,-0.015625,0,0,0.023622,0.015748,0,1390

28585,0,0,0,0,0,0,0,0,0,0,0,0,0,-0.015625,0,0,0.023622,0.015748,0,1391

28605,0,0,0,0,0,0,0,0,0,0,0,0,0,-0.015625,0,0,0.023622,0.015748,0,1392

28625,0,0,0,0,0,0,0,0,0,0,0,0,0,-0.015625,0,0,0.023622,0.015748,0,1393

28645,0,0,0,0,0,0,0,0,0,0,0,0,0,-0.015625,0,0,0.023622,0.015748,0,1394

28665,0,0,0,0,0,0,0,0,0,0,0,0,0,-0.015625,0,0,0.023622,0.015748,0,1395

28685,0,0,0,0,0,0,0,0,0,0,0,0,0,-0.015625,0,0,0.023622,0.015748,0,1396

28705,0,0,0,0,0,0,0,0,0,0,0,0,0,-0.015625,0,0,0.023622,0.015748,0,1397

28725,0,0,0,0,0,0,0,0,0,0,0,0,0,-0.015625,0,0,0.023622,0.015748,0,1398

28745,0,0,0,0,0,0,0,0,0,0,0,0,0,-0.015625,0,0,0.023622,0.015748,0,1399

28765,0,0,0,0,0,0,0,0,0,0,0,0,0,-0.015625,0,0,0.023622,0.015748,0,1400

28785,0,0,0,0,0,0,0,0,0,0,0,0,0,-0.015625,0,0,0.023622,0.015748,0,1401

28805,0,0,0,0,0,0,0,0,0,0,0,0,0,-0.015625,0,0,0.023622,0.015748,0,1402

28825,0,0,0,0,0,0,0,0,0,0,0,0,0,-0.015625,0,0,0.023622,0.015748,0,1403

28845,0,0,0,0,0,0,0,0,0,0,0,0,0,-0.015625,0,0,0.023622,0.015748,0,1404

28865,0,0,0,0,0,0,0,0,0,0,0,0,0,-0.015625,0,0,0.023622,0.015748,0,1405

28885,0,0,0,0,0,0,0,0,0,0,0,0,0,-0.015625,0,0,0.023622,0.015748,0,1406

28905,0,0,0,0,0,0,0,0,0,0,0,0,0,-0.015625,0,0,0.023622,0.015748,0,1407

